!!!!SEGMENT: pl-wtm--r-1740-m--001-009_moniuszko-stanislaw--sonety-krymskie-pielgrzym.krn
!!!cenid: 18xx:2916
!!!COM: Moniuszko, Stanisław
!!!COM-rismid: pe30008351
!!!CDT: 1819/05/05-1872/06/04
!!!CNT: Polish
!!!GTL: Sonety krymskie
!!!OTL: Pielgrzym
!!!OMV: 009
!!!PDT:
!!!AGN: Secular; Sonnet
!!!SMS-siglum: PL-Wtm
!!!SMS-shelfmark: R 1740/M
!!!SMS-shelfwork: 001-009 G
!!!SMS-variant:
!!!SMS-altvar:
!!!NIFC-rismid: 1001096351
!!!OMD: Andantino.
!!!system-decoration: {(s1,s2)}{(s3,s4)}{(s5,s6)}[(s7,s8,s9)][(s10,s11)]
!!!key:
**kern	**dynam	**kern	**dynam	**kern	**dynam	**kern	**dynam	**kern	**dynam	**kern	**kern	**dynam	**kern	**kern	**dynam	**kern	**kern	**dynam
*part8	*part8	*part7	*part7	*part6	*part6	*part5	*part5	*part4	*part4	*part3	*part3	*part3	*part2	*part2	*part2	*part1	*part1	*part1
*staff11	*	*staff10	*	*staff9	*	*staff8	*	*staff7	*	*staff6	*staff5	*	*staff4	*staff3	*	*staff2	*staff1	*
*Ibass	*	*Icello	*	*Iviola	*	*Ivioln	*	*Ivioln	*	*Iempty	*Iempty	*	*Iempty	*Iempty	*	*Iphysh	*Iempty	*
*I"CB.	*	*I"Vcello	*	*I"Vla.	*	*I"V. 2.	*	*I"V. 1.	*	*	*I"Fortepiano. [2]	*	*I"Fortepiano. [1]	*	*	*I"Physharmonica.	*	*
*I'Cb.	*	*I'Vlc.	*	*I'Vla.	*	*I'Vl. 2	*	*I'Vl. 1	*	*	*I'Pf. [2]	*	*	*I'Pf. [1]	*	*I'Hrmn.	*	*
*clefF4	*	*clefF4	*	*clefC3	*	*clefG2	*	*clefG2	*	*clefF4	*clefF4	*	*clefG2	*clefG2	*	*clefF4	*clefG2	*
*Trd0c0	*	*	*	*	*	*	*	*	*	*	*	*	*	*	*	*	*	*
*k[f#]	*	*k[f#]	*	*k[f#]	*	*k[f#]	*	*k[f#]	*	*k[f#]	*k[f#]	*	*k[f#]	*k[f#]	*	*k[f#]	*k[f#]	*
*G:	*	*G:	*	*G:	*	*G:	*	*G:	*	*G:	*G:	*	*G:	*G:	*	*G:	*G:	*
*M6/8	*	*M6/8	*	*M6/8	*	*M6/8	*	*M6/8	*	*M6/8	*M6/8	*	*M6/8	*M6/8	*	*M6/8	*M6/8	*
=1	=1	=1	=1	=1	=1	=1	=1	=1	=1	=1	=1	=1	=1	=1	=1	=1	=1	=1
*2\right	*	*2\right	*	*	*	*	*	*	*	*2\right	*2\right	*	*	*	*	*2\right	*2\right	*
!!LO:TX:t=P:problem:all\right:global
!	!	!	!	!	!	!	!	!	!	!	!	!	!	!	!	!	!LO:TX:b:Bi:t=(&colon;8&colon;)	!
!	!	!LO:TX:a:t=Col CB	!	!	!	!	!	!	!	!	!	!	!	!	!	!	!	!
!LO:TX:b:t=pizzi	!	!LO:TX:a:t=Con sordini	!	!	!	!	!	!	!	!	!	!	!	!	!	!	!LO:TX:a:Bi:t=No 8.:rj	!
4GG/	.	4GG/	pp	2.r	.	2.r	.	2.r	.	4GG 4GGG/	8r	.	2.ryy	2.ryy	.	4r	4r	.
.	.	.	.	.	.	.	.	.	.	.	8D\L	.	.	.	.	.	.	.
8r	.	8r	.	.	.	.	.	.	.	8r	8BJ 8G'\	.	.	.	.	8r	8r	.
!	!	!	!	!	!	!	!	!	!	!	!	!	!	!	!	!LO:TX:b:Bi:t=Fag:color=blue	!	!
!	!	!	!	!	!	!	!	!	!	!	!	!	!	!	!	!	!LO:TX:a:Bi:t=Clar:color=blue	!
4r	.	4r	.	.	.	.	.	.	.	4r	(8dL 8B\	.	.	.	.	4.G\	[<4.d [<4.B/	pp
.	.	.	.	.	.	.	.	.	.	.	8G\)	.	.	.	.	.	.	.
8r	.	8r	.	.	.	.	.	.	.	8r	8D\J	.	.	.	.	.	.	.
=2	=2	=2	=2	=2	=2	=2	=2	=2	=2	=2	=2	=2	=2	=2	=2	=2	=2	=2
4GG/	.	4GG/	.	2.r	.	2.r	.	2.r	.	4GG 4GGG/	8r	.	2.ryy	2.ryy	.	[>2.G\	2.d_> 2.B/_<	.
.	.	.	.	.	.	.	.	.	.	.	8D\L	.	.	.	.	.	.	.
8r	.	8r	.	.	.	.	.	.	.	8r	8BJ 8G'\	.	.	.	.	.	.	.
4r	.	4r	.	.	.	.	.	.	.	4r	(8dL 8B\	.	.	.	.	.	.	.
.	.	.	.	.	.	.	.	.	.	.	8G\)	.	.	.	.	.	.	.
8r	.	8r	.	.	.	.	.	.	.	8r	8D\J	.	.	.	.	.	.	.
=3	=3	=3	=3	=3	=3	=3	=3	=3	=3	=3	=3	=3	=3	=3	=3	=3	=3	=3
*	*	*	*	*	*	*	*	*	*	*	*	*	*	*	*	*rep	*rep	*
4GG/	.	4GG/	.	2.ryy	.	2.ryy	.	2.ryy	.	4GG 4GGG/	8r	.	2.ryy	2.ryy	.	2.G\_<	2.d_< 2.B/_<	.
.	.	.	.	.	.	.	.	.	.	.	8D\L	.	.	.	.	.	.	.
8r	.	8r	.	.	.	.	.	.	.	8r	8BJ 8G'\	.	.	.	.	.	.	.
4r	.	4r	.	.	.	.	.	.	.	4r	(8dL 8B\	.	.	.	.	.	.	.
.	.	.	.	.	.	.	.	.	.	.	8G\)	.	.	.	.	.	.	.
8r	.	8r	.	.	.	.	.	.	.	8r	8D\J	.	.	.	.	.	.	.
*	*	*	*	*	*	*	*	*	*	*	*	*	*	*	*	*Xrep	*Xrep	*
=4	=4	=4	=4	=4	=4	=4	=4	=4	=4	=4	=4	=4	=4	=4	=4	=4	=4	=4
*	*	*	*	*	*	*	*	*	*	*	*	*	*	*	*	*rep	*rep	*
4GG/	.	4GG/	.	2.ryy	.	2.ryy	.	2.ryy	.	4GG 4GGG/	8r	.	2.ryy	2.ryy	.	2.G\]	2.d] 2.B/]	.
.	.	.	.	.	.	.	.	.	.	.	8D\L	.	.	.	.	.	.	.
8r	.	8r	.	.	.	.	.	.	.	8r	8BJ 8G'\	.	.	.	.	.	.	.
4r	.	4r	.	.	.	.	.	.	.	4r	(8dL 8B\	.	.	.	.	.	.	.
.	.	.	.	.	.	.	.	.	.	.	8G\)	.	.	.	.	.	.	.
8r	.	8r	.	.	.	.	.	.	.	8r	8D\J	.	.	.	.	.	.	.
*	*	*	*	*	*	*	*	*	*	*	*	*	*	*	*	*Xrep	*Xrep	*
=5	=5	=5	=5	=5	=5	=5	=5	=5	=5	=5	=5	=5	=5	=5	=5	=5	=5	=5
*	*	*	*	*	*	*	*	*	*	*	*	*	*	*	*	*	*^	*
!	!	!	!	!	!	!	!	!	!	!	!	!	!	!	!	!	!	!	!LO:HP:a
4GG/	.	4GG/	.	2.ryy	.	2.ryy	.	2.ryy	.	4GG 4GGG/	(8BB^/L	.	2.ryy	2.ryy	.	[<2.G\	2.e-X/	[<2.B\	>
.	.	.	.	.	.	.	.	.	.	.	8D/J)	.	.	.	.	.	.	.	.
8r	.	8r	.	.	.	.	.	.	.	8r	8B 8G\	.	.	.	.	.	.	.	.
4r	.	4r	.	.	.	.	.	.	.	4r	(8dL 8B\	.	.	.	.	.	.	.	.
.	.	.	.	.	.	.	.	.	.	.	8G\)	.	.	.	.	.	.	.	.
8r	.	8r	.	.	.	.	.	.	.	8r	8D\J	.	.	.	.	.	.	.	]
=6	=6	=6	=6	=6	=6	=6	=6	=6	=6	=6	=6	=6	=6	=6	=6	=6	=6	=6	=6
4GG/	.	4GG/	.	2.ryy	.	2.ryy	.	2.ryy	.	4GG 4GGG/	8r	.	2.ryy	2.ryy	.	2.G\]	2.d/	2.B\]	.
.	.	.	.	.	.	.	.	.	.	.	8D\L	.	.	.	.	.	.	.	.
8r	.	8r	.	.	.	.	.	.	.	8r	8BJ 8G'\	.	.	.	.	.	.	.	.
4r	.	4r	.	.	.	.	.	.	.	4r	(8dL 8B\	.	.	.	.	.	.	.	.
.	.	.	.	.	.	.	.	.	.	.	8G\)	.	.	.	.	.	.	.	.
8r	.	8r	.	.	.	.	.	.	.	8r	8D\J	.	.	.	.	.	.	.	.
!!LO:PB:g:original
*	*	*	*	*	*	*	*	*	*	*	*	*	*	*	*	*	*v	*v	*
=7	=7	=7	=7	=7	=7	=7	=7	=7	=7	=7	=7	=7	=7	=7	=7	=7	=7	=7
!LO:TX:t=P:problem=na tej i sąsiedniej stronie jest dopisana jeszcze jedna partia, dublująca wiolonczelę (Col Vceli)	!	!	!	!	!	!	!	!	!	!	!	!	!	!	!	!	!	!
4GG/	.	4GG/	.	2.ryy	.	2.ryy	.	2.ryy	.	4GG 4GGG/	(8Fn\L	.	2.ryy	2.ryy	.	2.A 2.Fn\	2.fn 2.c/	.
.	.	.	.	.	.	.	.	.	.	.	8A\)	.	.	.	.	.	.	.
8r	.	8r	.	.	.	.	.	.	.	8r	8cJ 8A'\	.	.	.	.	.	.	.
4r	.	4r	.	.	.	.	.	.	.	4r	(8f#L 8c\	.	.	.	.	.	.	.
.	.	.	.	.	.	.	.	.	.	.	8A\)	.	.	.	.	.	.	.
8r	.	8r	.	.	.	.	.	.	.	8r	8F\J	.	.	.	.	.	.	.
=8	=8	=8	=8	=8	=8	=8	=8	=8	=8	=8	=8	=8	=8	=8	=8	=8	=8	=8
4GG/	.	4GG/	.	2.ryy	.	2.ryy	.	2.ryy	.	4GG 4GGG/	(8Fn\L	.	2.ryy	2.ryy	.	2.G 2.Fn\	2.d 2.B/	.
.	.	.	.	.	.	.	.	.	.	.	8G\)	.	.	.	.	.	.	.
8r	.	8r	.	.	.	.	.	.	.	8r	8BJ 8G'\	.	.	.	.	.	.	.
4r	.	4r	.	.	.	.	.	.	.	4r	(8dL 8B\	.	.	.	.	.	.	.
.	.	.	.	.	.	.	.	.	.	.	8G\)	.	.	.	.	.	.	.
8r	.	8r	.	.	.	.	.	.	.	8r	8F'\J	.	.	.	.	.	.	.
=9	=9	=9	=9	=9	=9	=9	=9	=9	=9	=9	=9	=9	=9	=9	=9	=9	=9	=9
*	*	*	*	*	*	*	*	*	*	*	*^	*	*	*	*	*	*^	*
4GG/	.	4GG/	.	2.ryy	.	2.ryy	.	2.ryy	.	4GG 4GGG/	4.e/	8c\L	.	2.ryy	2.ryy	.	4.F# 4.D\	4.e/	2.c\	.
.	.	.	.	.	.	.	.	.	.	.	.	8G\	.	.	.	.	.	.	.	.
8r	.	8r	.	.	.	.	.	.	.	8r	.	8E\J	.	.	.	.	.	.	.	.
4r	.	4r	.	.	.	.	.	.	.	4r	(8d#X/L	4.F#^\	.	.	.	.	4.A 4.F#\	4.d#X/	.	.
.	.	.	.	.	.	.	.	.	.	.	8c/	.	.	.	.	.	.	.	.	.
8r	.	8r	.	.	.	.	.	.	.	8r	8A/J)	.	.	.	.	.	.	.	.	.
*	*	*	*	*	*	*	*	*	*	*	*v	*v	*	*	*	*	*	*	*	*
=10	=10	=10	=10	=10	=10	=10	=10	=10	=10	=10	=10	=10	=10	=10	=10	=10	=10	=10	=10
*	*	*	*	*	*	*	*	*	*	*	*	*	*2\right	*2\right	*	*	*	*	*
4GG/	.	4GG/	.	2.ryy	.	2.ryy	.	2.ryy	.	4GG 4GGG/	(8eL 8G\	.	4r	4r	.	2.G\	2.e/	2.B\	.
.	.	.	.	.	.	.	.	.	.	.	8B\)	.	.	.	.	.	.	.	.
8r	.	8r	.	.	.	.	.	.	.	8r	8GJ 8E'\	.	8r	8r	.	.	.	.	.
4r	.	4r	.	.	.	.	.	.	.	4r	(8BL 8G\	.	4r	4r	.	.	.	.	.
.	.	.	.	.	.	.	.	.	.	.	8E\)	.	.	.	.	.	.	.	.
8r	.	8r	.	.	.	.	.	.	.	8r	8BB\J	.	16r	16r	.	.	.	.	.
!	!	!	!	!	!	!	!	!	!	!	!	!	!	!LO:TX:a:i:t=Fl	!	!	!	!	!
.	.	.	.	.	.	.	.	.	.	.	.	.	(32b/LLL	(32bb\LLL	pp	.	.	.	.
.	.	.	.	.	.	.	.	.	.	.	.	.	32g/JJJ	32gg\JJJ	.	.	.	.	.
*	*	*	*	*	*	*	*	*	*	*	*	*	*	*	*	*	*v	*v	*
=11	=11	=11	=11	=11	=11	=11	=11	=11	=11	=11	=11	=11	=11	=11	=11	=11	=11	=11
*	*	*	*	*2\right	*	*2\right	*	*2\right	*	*	*	*	*	*	*	*	*	*
!LO:TX:b:t=pizzi	!	!LO:TX:b:t=pizzi	!	!LO:TX:b:t=pizzi	!	!LO:TX:b:t=pizzi	!	!LO:TX:b:t=pizzi	!	!	!	!	!	!	!	!	!	!
4GG/	pp	4E\	pp	4B/	pp	4e/	pp	4b\	pp	4GG/	8r	.	8e/)	8ee\)	.	2.B\	2.b/	.
.	.	.	.	.	.	.	.	.	.	.	8BB\L	.	8r	8r	.	.	.	.
8r	.	8E\	.	8B/	.	8e/	.	8b\	.	8r	8BJ 8E\	.	8e'/	8ee 8b'\	.	.	.	.
4AA/	.	4F#\	.	4B/	.	4d#X/	.	4b\	.	4AA/	8r	.	(4d#X/	(4dd#X 4b\	.	.	.	.
.	.	.	.	.	.	.	.	.	.	.	8BB\L	.	.	.	.	.	.	.
8r	.	8D#X\	.	8B/	.	8f#/	.	8b\	.	8r	8BJ 8D#X\	.	8f#/)	8ff# 8b\)	.	.	.	.
!!LO:PB:g=original
=12	=12	=12	=12	=12	=12	=12	=12	=12	=12	=12	=12	=12	=12	=12	=12	=12	=12	=12
4GG/	.	4E\	.	4B/	.	4e/	.	4b\	.	2.ryy	8r	.	4.e/	4.ee [4.b\	.	2.B\	2.b/	.
.	.	.	.	.	.	.	.	.	.	.	8BB\L	.	.	.	.	.	.	.
8r	.	8r	.	8r	.	8r	.	8r	.	.	8BJ 8E\	.	.	.	.	.	.	.
4r	.	4r	.	4r	.	4r	.	4r	.	.	8B\L	.	8e^/	8dd 8b\]	.	.	.	.
.	.	.	.	.	.	.	.	.	.	.	8B 8E\	.	8r	8r	.	.	.	.
8r	.	8r	.	8r	.	8r	.	8r	.	.	8BB\J	.	8r	8r	.	.	.	.
=13	=13	=13	=13	=13	=13	=13	=13	=13	=13	=13	=13	=13	=13	=13	=13	=13	=13	=13
!	!	!LO:TX:b:t=arco	!LO:DY:a	!LO:TX:a:t=arco	!	!	!	!LO:TX:b:t=arco	!	!	!	!	!	!	!	!	!	!
2.r	.	4.GG/	<	2.B/	p < [[	2.r	.	4e/	<	4E\	8r	.	2.r	2.r	.	2.r	4e/	.
.	.	.	.	.	.	.	.	.	.	.	(8BL 8G\	.	.	.	.	.	.	.
.	.	.	.	.	.	.	.	8f#/	.	8r	8e\J)	.	.	.	.	.	8r	.
.	.	4EE/	.	.	.	.	.	(8g/L	.	4.E\	8r	.	.	.	.	.	4r	.
.	.	.	.	.	.	.	.	8a/)	.	.	(8BL 8G\	.	.	.	.	.	.	.
.	.	8GG/	[	.	.	.	.	8b/J	[	.	8e\J)	.	.	.	.	.	8r	.
=14	=14	=14	=14	=14	=14	=14	=14	=14	=14	=14	=14	=14	=14	=14	=14	=14	=14	=14
!	!	!	!LO:DY:a	!	!	!LO:TX:b:t=arco	!	!	!	!	!	!	!	!	!	!	!	!
2.r	.	4.FF#/	sf >	2.A/	sf	2.e/	sf > ]]	[4.cc\	sf >	4E\	8r	.	2.r	2.r	.	2.ryy	2.ryy	.
.	.	.	.	.	.	.	.	.	.	.	(8cL 8A\	.	.	.	.	.	.	.
.	.	.	.	.	.	.	.	.	.	8r	8e\J)	.	.	.	.	.	.	.
.	.	4.EE/	]]	.	.	.	.	4cc\]	.	4.E\	8r	.	.	.	.	.	.	.
.	.	.	.	.	.	.	.	.	.	.	(8cL 8A\	.	.	.	.	.	.	.
.	.	.	.	.	.	.	.	8e/	]	.	8e\J)	.	.	.	.	.	.	.
=15	=15	=15	=15	=15	=15	=15	=15	=15	=15	=15	=15	=15	=15	=15	=15	=15	=15	=15
4r	.	4.DD#X/	.	2.F#/	.	4.B/	.	4.f#/	pp	4BB/	8r	.	2.r	2.r	.	2.ryy	2.ryy	.
.	.	.	.	.	.	.	.	.	.	.	(8BL 8F#\	.	.	.	.	.	.	.
8r	.	.	.	.	.	.	.	.	.	8r	8f#\J)	.	.	.	.	.	.	.
!LO:TX:a:t=arco	!	!	!	!	!	!	!	!	!	!	!	!	!	!	!	!	!	!
4.BB/	pp	4.BB/	.	.	.	4.d#X/	.	8d#X/L	.	4.BB/	8r	.	.	.	.	.	.	.
.	.	.	.	.	.	.	.	8f#/	.	.	(8BL 8F#\	.	.	.	.	.	.	.
.	.	.	.	.	.	.	.	8b/J	.	.	8d#X\J)	.	.	.	.	.	.	.
=16	=16	=16	=16	=16	=16	=16	=16	=16	=16	=16	=16	=16	=16	=16	=16	=16	=16	=16
[4.E\	.	4.BB^/	.	(4.F#^/	.	(4.d#X^/	.	(4.a^/	.	4BB/	8r	.	2.r	2.r	.	2.ryy	2.ryy	.
.	.	.	.	.	.	.	.	.	.	.	(8BL 8F#\	.	.	.	.	.	.	.
.	.	.	.	.	.	.	.	.	.	8r	8d#X\J)	.	.	.	.	.	.	.
8E\]	.	4.E\	.	4.E/)	.	4.e/)	.	4.g/)	.	4E\	8r	.	.	.	.	.	.	.
8r	.	.	.	.	.	.	.	.	.	.	(8BL 8G\	.	.	.	.	.	.	.
8r	.	.	.	.	.	.	.	.	.	8r	8e\J)	.	.	.	.	.	.	.
!!LO:PB:g=original
=17	=17	=17	=17	=17	=17	=17	=17	=17	=17	=17	=17	=17	=17	=17	=17	=17	=17	=17
2.r	.	(4.BB/	.	(4.B/	.	2.d/	<[	4g/	.	4BB/	8r	.	2.ryy	2.ryy	.	2.ryy	2.ryy	.
.	.	.	.	.	.	.	.	.	.	.	(8GL 8D\	.	.	.	.	.	.	.
.	.	.	.	.	.	.	.	8a/	<	8r	8dJ 8F#\)	.	.	.	.	.	.	.
.	.	4.GG/	<[	4.G/	<[	.	.	(8b\L	.	4D\	8r	.	.	.	.	.	.	.
.	.	.	.	.	.	.	.	8cc#X\)	.	.	(8BL 8G\	.	.	.	.	.	.	.
.	.	.	.	.	.	.	.	8dd\J	[	8r	8dJ 8B\)	.	.	.	.	.	.	.
=18	=18	=18	=18	=18	=18	=18	=18	=18	=18	=18	=18	=18	=18	=18	=18	=18	=18	=18
2.r	.	4.FF#/	sf >	4.F#/	sf >	4.a 4.d/	sf	([4.dd\	sf >	4D\	8r	.	2.ryy	2.ryy	.	2.ryy	2.ryy	.
*	*	*	*	*	*	*	*	*	*	*	*clefG2	*	*	*	*	*	*	*
.	.	.	.	.	.	.	.	.	.	.	(8dL 8A/	.	.	.	.	.	.	.
.	.	.	.	.	.	.	.	.	.	8r	8aJ 8d/)	.	.	.	.	.	.	.
.	.	4.DD/)	]	4.D/)	]	4f#/	.	4dd\]	.	4D\	8r	.	.	.	.	.	.	.
.	.	.	.	.	.	.	.	.	.	.	(8f#L 8A/	.	.	.	.	.	.	.
.	.	.	.	.	.	8d/	.	8f#/)	]	8r	8dJ 8F#/)	.	.	.	.	.	.	.
=19	=19	=19	=19	=19	=19	=19	=19	=19	=19	=19	=19	=19	=19	=19	=19	=19	=19	=19
4r	.	4.CC#X/	.	4.C#X/	.	2.A/	.	4.e/	.	4AA/	8r	.	2.ryy	2.ryy	.	2.ryy	2.ryy	.
.	.	.	.	.	.	.	.	.	.	.	(8eL 8A/	.	.	.	.	.	.	.
8r	.	.	.	.	.	.	.	.	.	8r	8gJ 8e/)	.	.	.	.	.	.	.
!LO:TX:a:t=arco	!	!	!	!	!	!	!	!	!	!	!	!	!	!	!	!	!	!
(4.AA/	pp	4.AA/	.	4.E/	.	.	.	4.c/	.	4E 4AA/	8r	.	.	.	.	.	.	.
.	.	.	.	.	.	.	.	.	.	.	(8c#XL 8A/	.	.	.	.	.	.	.
.	.	.	.	.	.	.	.	.	.	8r	8eJ 8G/)	.	.	.	.	.	.	.
=20	=20	=20	=20	=20	=20	=20	=20	=20	=20	=20	=20	=20	=20	=20	=20	=20	=20	=20
[4.D\)	.	[4.AA/	.	[4.F#/	.	[4.A/	.	[4.d/	.	4D\	8r	.	4r	4r	.	2.ryy	2.ryy	.
*	*	*	*	*	*	*	*	*	*	*	*clefF4	*	*	*	*	*	*	*
.	.	.	.	.	.	.	.	.	.	.	(8dL 8F#\	.	.	.	.	.	.	.
.	.	.	.	.	.	.	.	.	.	8r	8AJ 8F#\)	.	8r	8r	.	.	.	.
!	!	!	!	!	!	!	!	!	!	!	!LO:TX:t=P:problem=mixed beam	!	!	!	!	!	!	!
4D\]	.	4AA/]	.	4F#/]	.	4A/]	.	4d/]	.	4r	8F#L 8D'\	.	4r	4r	.	.	.	.
.	.	.	.	.	.	.	.	.	.	.	(8A\	.	.	.	.	.	.	.
8r	.	8r	.	8r	.	8r	.	8r	.	8r	8AA\J)	.	16r	16r	.	.	.	.
!	!	!	!	!	!	!	!	!	!	!	!	!	!	!LO:TX:a:i:t=Fl	!	!	!	!
.	.	.	.	.	.	.	.	.	.	.	.	.	(32a/LLL	(32aa\LLL	pp	.	.	.
!	!	!	!	!	!	!	!	!	!	!	!	!	!	!LO:TX:a:i:t=Clar.	!	!	!	!
.	.	.	.	.	.	.	.	.	.	.	.	.	32f#/JJJ	32ff#\JJJ	.	.	.	.
=21	=21	=21	=21	=21	=21	=21	=21	=21	=21	=21	=21	=21	=21	=21	=21	=21	=21	=21
4D\	pp p	4D 4AA/	pp	4A/	pp	4f#/	pp	4a 4d/	pp	4AA/	8r	.	8d/)	8dd\)	.	2.ryy	2.ryy	.
.	.	.	.	.	.	.	.	.	.	.	(8F#L 8D\	.	8r	8r	.	.	.	.
!	!	!	!	!	!	!	!	!	!	!	!	!	!	!LO:TX:a:i:t=Fag	!	!	!	!
8r	.	8D 8AA/	.	8A/	.	8f#/	.	8a 8d/	.	8r	8AJ 8F#\)	.	8f# 8d/	8dd 8a'\	.	.	.	.
4D\	.	4E 4AA/	.	4G/	.	4c#X/	.	4a 4e/	.	4AA/	8r	.	4g 4e/	(4cc#X 4a\	.	.	.	.
.	.	.	.	.	.	.	.	.	.	.	8GL 8E\	.	.	.	.	.	.	.
8r	.	8E 8AA/	.	8G/	.	8A/	.	8a 8e/	.	8r	8AJ 8G\	.	8g 8e 8c#X/	8ee 8a\)	.	.	.	.
!!LO:PB:g=original
=22	=22	=22	=22	=22	=22	=22	=22	=22	=22	=22	=22	=22	=22	=22	=22	=22	=22	=22
!	!	!LO:TX:b:t=pizzi	!	!LO:TX:b:t=pizzi	!	!LO:TX:b:t=pizzi	!	!LO:TX:b:t=pizzi	!	!	!	!	!	!	!	!	!	!
4D\	.	4F# 4AA/	.	4F#/	.	4d 4A/	.	4a 4d/	.	4AA/	8r	.	4.d/	[4.dd [4.a\	.	2.ryy	2.ryy	.
.	.	.	.	.	.	.	.	.	.	.	(8F#L 8D\	.	.	.	.	.	.	.
8r	.	8r	.	8r	.	8r	.	8r	.	8r	8AJ 8F#\)	.	.	.	.	.	.	.
4r	.	4r	.	4r	.	4r	.	4r	.	4r	8r	.	4d^/	4dd] 4a\]	.	.	.	.
!	!	!	!	!	!	!	!	!	!	!	!LO:TX:t=P:problem=mixed beam	!	!	!	!	!	!	!
.	.	.	.	.	.	.	.	.	.	.	(8AL 8F#\	.	.	.	.	.	.	.
!	!	!	!	!	!	!LO:TX:b:t=arco	!	!LO:TX:b:t=arco	!	!	!	!	!	!	!	!	!	!
8r	.	8r	.	8r	.	(8A/	<	8f#/	<	8r	8AA\J)	.	8r	8r	.	.	.	.
=23	=23	=23	=23	=23	=23	=23	=23	=23	=23	=23	=23	=23	=23	=23	=23	=23	=23	=23
8r	.	8r	.	8r	.	[4.f#/)	.	[4.a/	.	2.D\	8r	.	2.ryy	2.r	.	2.ryy	2.ryy	.
8r	.	8r	.	8r	.	.	.	.	.	.	8F#\L	.	.	.	.	.	.	.
!LO:TX:b:t=pizzi	!	!LO:TX:a:t=arco	!	!LO:TX:b:t=arco	!LO:DY:a	!	!	!	!	!	!	!	!	!	!	!	!	!
8D\	.	(8A\	<	(8F#/	<	.	.	.	.	.	(8A^\J	.	.	.	.	.	.	.
4D\	.	[4.f#\)	[	(4.A/)	[	8f#/]	[	4a/]	[	.	(8f#\L)	.	.	.	.	.	.	.
.	.	.	.	.	.	8r	.	.	.	.	8A\)	.	.	.	.	.	.	.
8r	.	.	.	.	.	8f#'/	.	(8f#/	<[	.	8F#\J	.	.	.	.	.	.	.
=24	=24	=24	=24	=24	=24	=24	=24	=24	=24	=24	=24	=24	=24	=24	=24	=24	=24	=24
8r	.	4f#\]	.	4A#X/)	.	[4.f#^/	.	[4.a#X/)	.	2.D\	8r	.	2.ryy	2.ryy	.	2.ryy	2.ryy	.
8r	.	.	.	.	.	.	.	.	.	.	8F#'\L	.	.	.	.	.	.	.
!	!	!	!	!	!LO:DY:a	!	!	!	!	!	!	!	!	!	!	!	!	!
8D\	.	(8A#X\	<	(8F#/	<	.	.	.	.	.	(8G#X\J	.	.	.	.	.	.	.
4D\	.	4.f#\)	[[	4.A#/)	[[	8f#/]	.	4a#/]	.	.	8f#\L	.	.	.	.	.	.	.
.	.	.	.	.	.	8r	.	.	.	.	8A\)	.	.	.	.	.	.	.
8r	.	.	.	.	.	8r	.	8f#'/	.	.	8F#'\J	.	.	.	.	.	.	.
=25	=25	=25	=25	=25	=25	=25	=25	=25	=25	=25	=25	=25	=25	=25	=25	=25	=25	=25
4D\	.	(4.D\	<	(4B/	.	2.f#/	<[	(4b\	.	4D\	8r	.	2.ryy	2.ryy	.	2.ryy	2.ryy	.
.	.	.	.	.	.	.	.	.	.	.	(8F#\L	.	.	.	.	.	.	.
8r	.	.	.	8A^/	.	.	.	8ccn^\	.	8r	8f#J 8A\)	.	.	.	.	.	.	.
4D#X\	.	4.D#X\	[ > ]]	4B^/	.	.	.	4b^\	.	4D#X\	8r	.	.	.	.	.	.	.
.	.	.	.	.	.	.	.	.	.	.	(8F#\L	.	.	.	.	.	.	.
8r	.	.	.	8cn/)	.	.	.	8a\	.	8r	8f#J 8A\)	.	.	.	.	.	.	.
=26	=26	=26	=26	=26	=26	=26	=26	=26	=26	=26	=26	=26	=26	=26	=26	=26	=26	=26
4E\	.	[4.E\)	.	[4.B/	.	[4.e/	[ >	(4.a^/)	.	4E\	8r	.	2.ryy	2.ryy	.	2.ryy	2.ryy	.
.	.	.	.	.	.	.	.	.	.	.	(8e\L	.	.	.	.	.	.	.
8r	.	.	.	.	.	.	.	.	.	8r	8B\J	.	.	.	.	.	.	.
4r	.	8E\]	.	8B/]	.	8e/]	.	8g/)	.	4r	8G\L	.	.	.	.	.	.	.
.	.	8r	.	8r	.	8r	.	8r	.	.	8B\)	.	.	.	.	.	.	.
8r	.	8r	.	8r	.	8B/	.	8g/	.	8r	8e\J	.	.	.	.	.	.	.
!!LO:PB:g=original
=27	=27	=27	=27	=27	=27	=27	=27	=27	=27	=27	=27	=27	=27	=27	=27	=27	=27	=27
8r	.	8r	.	8r	.	[4.g/	.	[4.b/	.	2.E\	8r	.	2.r	2.r	.	2.ryy	2.ryy	.
8r	.	8r	.	8r	.	.	.	.	.	.	8G'\L	.	.	.	.	.	.	.
!	!	!	!	!	!LO:DY:a	!	!	!	!	!	!	!	!	!	!	!	!	!
8E\	.	(8B\	<	(8G/	<	.	.	.	.	.	(8B\J	.	.	.	.	.	.	.
4E\	.	[4.g\)	[[	4.B/)	[[	4g/]	.	4b/]	.	.	8g\L	.	.	.	.	.	.	.
.	.	.	.	.	.	.	.	.	.	.	8B\)	.	.	.	.	.	.	.
8r	.	.	.	.	.	(8G/	<[	(8g/	<[	.	8G'\J	.	.	.	.	.	.	.
=28	=28	=28	=28	=28	=28	=28	=28	=28	=28	=28	=28	=28	=28	=28	=28	=28	=28	=28
2.r	.	4g\]	.	4c/	.	[4.g/)	.	[4.cc\)	.	2.E\	8r	.	2.r	2.r	.	2.ryy	2.ryy	.
.	.	.	.	.	.	.	.	.	.	.	8G'\L	.	.	.	.	.	.	.
.	.	(8c\	<	(8G/	.	.	.	.	.	.	(8c\J	.	.	.	.	.	.	.
.	.	4.g\)	[[	4.c/)	.	8g/]	.	8cc\]	.	.	8g\L	.	.	.	.	.	.	.
.	.	.	.	.	.	8r	.	8r	.	.	8c\)	.	.	.	.	.	.	.
.	.	.	.	.	.	8r	.	8cc'\	.	.	8G'\J	.	.	.	.	.	.	.
=29	=29	=29	=29	=29	=29	=29	=29	=29	=29	=29	=29	=29	=29	=29	=29	=29	=29	=29
4E\	.	(4.E\	.	(4c\	.	(4.g [4.G/	.	(4cc\	.	4E\	8r	.	2.r	2.r	.	2.ryy	2.ryy	.
.	.	.	.	.	.	.	.	.	.	.	(8G\L	.	.	.	.	.	.	.
8r	.	.	.	8B-X^\	.	.	.	8dd^\	.	8r	8gJ 8B-X\)	.	.	.	.	.	.	.
4C\	.	4.C\	.	4c^\	.	4.e 4.G/]	.	4cc^\	.	4C/	8r	.	.	.	.	.	.	.
.	.	.	.	.	.	.	.	.	.	.	(8G\L	.	.	.	.	.	.	.
8r	.	.	.	8B-'\)	.	.	.	8b-X'\)	.	8r	8eJ 8c\)	.	.	.	.	.	.	.
=30	=30	=30	=30	=30	=30	=30	=30	=30	=30	=30	=30	=30	=30	=30	=30	=30	=30	=30
[4.Fn\	.	[4.Fn\)	.	(4.G/	.	(4.e 4.c/)	.	(4.b-X/	.	4Fn\	8r	.	4r	4r	.	2.ryy	2.ryy	.
.	.	.	.	.	.	.	.	.	.	.	(8eL 8G\	.	.	.	.	.	.	.
.	.	.	.	.	.	.	.	.	.	8r	8c\J	.	8r	8r	.	.	.	.
4F\]	.	4F\]	.	4A/)	.	4fn/)	.	4a/)	.	4r	8fnL 8A\	.	4r	4r	.	.	.	.
.	.	.	.	.	.	.	.	.	.	.	8c\J)	.	.	.	.	.	.	.
8r	.	8r	.	8r	.	8r	.	8r	.	8C'/	8r	.	16r	16r	.	.	.	.
!	!	!	!	!	!	!	!	!	!	!	!	!	!	!LO:TX:a:i:t=Clar.	!	!	!	!
!	!	!	!	!	!	!	!	!	!	!	!	!	!	!LO:TX:a:i:t=Fl	!	!	!	!
.	.	.	.	.	.	.	.	.	.	.	.	.	(32cc/LLL	(32ccc\LLL	pp	.	.	.
.	.	.	.	.	.	.	.	.	.	.	.	.	32a/JJJ	32aa\JJJ	.	.	.	.
=31	=31	=31	=31	=31	=31	=31	=31	=31	=31	=31	=31	=31	=31	=31	=31	=31	=31	=31
!	!	!LO:TX:b:t=pizzi	!	!LO:TX:b:t=pizzi	!	!LO:TX:b:t=pizzi	!	!LO:TX:b:t=pizzi	!	!	!	!	!	!	!	!	!	!
2.r	.	4Fn\	.	4c\	.	4fn/	.	4a/	.	4Fn\	8r	.	8fn/)	8ffn\)	.	2.ryy	2.ryy	.
.	.	.	.	.	.	.	.	.	.	.	8cL 8A\	.	8r	8r	.	.	.	.
.	.	8F\	.	8c\	.	8f/	.	8a/	.	8r	8AJ 8Fn\	.	8a 8f/	8ff 8cc'\	.	.	.	.
.	.	4F\	.	4c\	.	4e/	.	4b-X 4g/	.	4F\	8r	.	4g 4e/	(4ee 4cc^\	.	.	.	.
.	.	.	.	.	.	.	.	.	.	.	8cL 8G\	.	.	.	.	.	.	.
.	.	8F\	.	8c\	.	8e/	.	8b- 8g/	.	8r	8cJ 8B-X\	.	8b-X 8g 8e/	8gg 8cc\)	.	.	.	.
!!LO:PB:g=original
=32	=32	=32	=32	=32	=32	=32	=32	=32	=32	=32	=32	=32	=32	=32	=32	=32	=32	=32
2.r	.	4Fn\	.	4c\	.	4f#/	.	4a/	.	4FFn/	8r	.	8a 8fn/	[4.ffn [4.cc\	.	2.r	2.r	.
.	.	.	.	.	.	.	.	.	.	.	8cL 8A\	.	8r	.	.	.	.	.
.	.	8r	.	8r	.	8r	.	8r	.	8r	8Fn\J	.	8a 8f/	.	.	.	.	.
.	.	4r	.	4r	.	4r	.	4r	.	4r	8C\L	.	8a 8f/	4ff] 4cc\]	.	.	.	.
.	.	.	.	.	.	.	.	.	.	.	8F\	.	8.r	.	.	.	.	.
.	.	8r	.	8r	.	8r	.	8r	.	8r	8c\J	.	.	16r	.	.	.	.
.	.	.	.	.	.	.	.	.	.	.	.	.	(32cc/LLL	(32ccc\LLL	.	.	.	.
.	.	.	.	.	.	.	.	.	.	.	.	.	32a/JJJ	32aa\JJJ	.	.	.	.
=33	=33	=33	=33	=33	=33	=33	=33	=33	=33	=33	=33	=33	=33	=33	=33	=33	=33	=33
4FFn/	.	4FFn/	ppp	4C/	ppp	4A/	ppp	4A/	ppp	4Fn 4FFn/	8r	.	8fn/)	8ffn\)	ppp	2.r	2.r	.
.	.	.	.	.	.	.	.	.	.	.	8cL 8A\	.	8r	8r	.	.	.	.
!	!	!	!	!	!	!	!	!	!	!	!	!	!	!LO:TX:a:i:t=Fag	!	!	!	!
8r	.	8FF/	.	8C/	.	8A/	.	8c/	.	8r	8AJ 8Fn\	.	8a 8f/	8ff 8cc\	.	.	.	.
4FF/	.	4FF/	.	4C/	.	4G/	.	4B-X/	.	4C 4FF/	8r	.	4g 4e/	(4ee 4cc\	.	.	.	.
.	.	.	.	.	.	.	.	.	.	.	8cL 8G\	.	.	.	.	.	.	.
8r	.	8FF/	.	8C/	.	8e 8G/	.	8B-/	.	8r	8cJ 8B-X\	.	8b-X 8g 8e/	8gg 8cc\	.	.	.	.
=34	=34	=34	=34	=34	=34	=34	=34	=34	=34	=34	=34	=34	=34	=34	=34	=34	=34	=34
4FFn/	.	4FFn/	.	4C/	.	4fn 4A/	.	4A/	.	4Fn 4FFn/	8r	.	4a 4fn/	[4.ffn [4.cc\)	.	2.r	2.r	.
.	.	.	.	.	.	.	.	.	.	.	8cL 8A\	.	.	.	.	.	.	.
8r	.	8r	.	8r	.	8r	.	8r	.	8r	8Fn\J	.	8a 8f'/	.	.	.	.	.
4r	.	4r	.	4r	.	4r	.	4r	.	4r	8C\L	.	4a 4f'/	4ff] 4cc\]	.	.	.	.
.	.	.	.	.	.	.	.	.	.	.	8F\	.	.	.	.	.	.	.
8r	.	8r	.	8r	.	8r	.	8r	.	8r	8c\J	.	8r	8r	.	.	.	.
=35	=35	=35	=35	=35	=35	=35	=35	=35	=35	=35	=35	=35	=35	=35	=35	=35	=35	=35
!	!	!LO:TX:a:i:t=Vcelli.	!	!	!	!	!	!	!	!	!	!	!	!	!	!	!	!
!LO:TX:a:i:t=CBaſsi	!	!LO:TX:t=P:problem=w dwóch ostatnich taktch na tej stronie partie wiolonczeli i kontrabasu zamienione i podpisane	!	!	!	!	!	!	!	!	!	!	!	!	!	!	!	!
!LO:TX:b:t=pizzi	!	!LO:TX:b:t=arco	!	!	!	!	!	!LO:TX:a:t=arco	!	!	!	!	!	!	!	!	!LO:TX:a:Bi:t=Fag:color=blue:rj	!
!	!	!	!	!	!	!	!	!	!	!	!	!	!	!	!	!	!	!LO:DY:b:rj
4Fn\	.	4.Fn^\	.	8r	.	2.r	.	4fn/	<	4Fn\	8r	.	2.ryy	2.ryy	.	[<2.Fn\	2.fn/	p
!	!	!	!	!LO:TX:a:t=arco	!	!	!	!	!	!	!	!	!	!	!	!	!	!
.	.	.	.	(8A/L	.	.	.	.	.	.	(8A\L	.	.	.	.	.	.	.
8r	.	.	.	8B-X/J	.	.	.	8g/	.	8r	8B-X\J	.	.	.	.	.	.	.
4r	.	8E-X\L	.	8c/L	.	.	.	(8a\L	.	4r	8c\L	.	.	.	.	.	.	.
.	.	8D\	.	8G/)	.	.	.	8b-X\)	.	.	8G\	.	.	.	.	.	.	.
8r	.	8C\J	.	8A/J	.	.	.	8cc\J	[	8r	(8A\J)	.	.	.	.	.	.	.
=36	=36	=36	=36	=36	=36	=36	=36	=36	=36	=36	=36	=36	=36	=36	=36	=36	=36	=36
!	!	!	!	!	!	!	!	!LO:TX:t=P:problem=mixed beam	!	!	!	!	!	!	!	!	!	!
4BB-X/	.	4.BB-X/	.	(8B-X/L	.	4r	.	(8dd\L	.	4BB-X/	8B-X\L	.	2.ryy	2.ryy	.	4.F\_<	2.d/	.
.	.	.	.	8Fn/	.	.	.	8d\	.	.	8Fn\	.	.	.	.	.	.	.
8r	.	.	.	8d/J	.	8r	.	8fn\J	.	8r	8fn\J	.	.	.	.	.	.	.
!	!	!	!	!	!	!LO:TX:a:t=arco	!	!	!	!	!	!	!	!	!	!	!	!
4r	.	(8BB-/L	.	8B-/L	.	4.d^/	.	8dd\L	.	4r	8d\L	.	.	.	.	4F\]	.	.
.	.	8AA/)	.	8A/)	.	.	.	8cc\)	.	.	8c\	.	.	.	.	.	.	.
8r	.	8GG/J	.	8G/J	.	.	.	8b-X\J	.	8r	8B-\J)	.	.	.	.	8B-X\	.	.
!!LO:PB:g=original
=37	=37	=37	=37	=37	=37	=37	=37	=37	=37	=37	=37	=37	=37	=37	=37	=37	=37	=37
4F#X\	.	4FF#X/	.	4D/	.	4A/	.	8r	.	4F#X\	(8A\L	.	2.ryy	2.ryy	.	2.ryy	2.ryy	.
.	.	.	.	.	.	.	.	(8d/L	.	.	8d\	.	.	.	.	.	.	.
8r	.	8r	.	8r	.	8r	.	8a/J	.	8r	8A\J	.	.	.	.	.	.	.
4D\	.	4D\	.	4D/	.	4A/	.	8f#X/L	.	4r	8D\L	.	.	.	.	.	.	.
.	.	.	.	.	.	.	.	8d/)	.	.	8F#X\	.	.	.	.	.	.	.
8r	.	8r	.	8r	.	8r	.	8a/J	.	8r	8c\J)	.	.	.	.	.	.	.
=38	=38	=38	=38	=38	=38	=38	=38	=38	=38	=38	=38	=38	=38	=38	=38	=38	=38	=38
4G\	.	4D\	.	(4.F#X/	.	4A/	.	8r	.	4D 4GG/	(8F#X^\L	.	2.ryy	2.ryy	.	2.ryy	2.ryy	.
.	.	.	.	.	.	.	.	(8d/L	.	.	8A\	.	.	.	.	.	.	.
8r	.	8r	.	.	.	8r	.	8a/J	.	8r	8d\J)	.	.	.	.	.	.	.
4r	.	4r	.	4G/)	.	4B-X/	.	8b-X/L	.	4r	(8G^\L	.	.	.	.	.	.	.
.	.	.	.	.	.	.	.	8g/	.	.	8B-X\	.	.	.	.	.	.	.
8r	.	8r	.	8r	.	8r	.	8d/J)	.	8r	8d\J)	.	.	.	.	.	.	.
=39	=39	=39	=39	=39	=39	=39	=39	=39	=39	=39	=39	=39	=39	=39	=39	=39	=39	=39
4G\	.	(4.G^\	.	4.G/	.	8r	.	4g/	.	4GG/	8r	.	2.ryy	2.ryy	.	2.ryy	2.ryy	.
.	.	.	.	.	.	(8B-X/L	.	.	.	.	(8G\L	.	.	.	.	.	.	.
8r	.	.	.	.	.	8e-X/J	.	8a/	<	8r	8B-X\J	.	.	.	.	.	.	.
4Fn\	.	4.Fn\	.	4.B-X/	.	8g/L	.	(8b-X\L	.	4r	8e-X\L	.	.	.	.	.	.	.
.	.	.	.	.	.	8fn/	.	8cc\	.	.	8B-\)	.	.	.	.	.	.	.
8r	.	.	.	.	.	8e-/J)	.	8dd\J)	[	8r	8G'\J	.	.	.	.	.	.	.
=40	=40	=40	=40	=40	=40	=40	=40	=40	=40	=40	=40	=40	=40	=40	=40	=40	=40	=40
4E-X\	.	4.E-X\	.	4G/	.	4B-X/	.	8ee-X\	.	4E-X\	8r	.	2.ryy	2.ryy	.	2.ryy	2.ryy	.
.	.	.	.	.	.	.	.	(8e-X/L	.	.	(8G\L	.	.	.	.	.	.	.
8r	.	.	.	8r	.	8r	.	8g/J	.	8r	8B-X\J	.	.	.	.	.	.	.
4D-X\	.	4.D-X\	.	4G/	.	4e-X/	.	8b/L	.	4r	8e-X\L	.	.	.	.	.	.	.
.	.	.	.	.	.	.	.	8a-X/	.	.	8B-\)	.	.	.	.	.	.	.
8r	.	.	.	8r	.	8r	.	8g/J	.	8r	8G'\J	.	.	.	.	.	.	.
=41	=41	=41	=41	=41	=41	=41	=41	=41	=41	=41	=41	=41	=41	=41	=41	=41	=41	=41
4C/	.	4.C/	.	4A-X/	.	4e-X/	.	8a-X/)	.	4E-X\	8r	.	2.ryy	2.ryy	.	2.ryy	2.ryy	.
.	.	.	.	.	.	.	.	(8e-X/L	.	.	8e-XL 8A-X\	.	.	.	.	.	.	.
8r	.	.	.	8r	.	8r	.	8a-/J	.	8r	8A-J 8E\	.	.	.	.	.	.	.
4BB-X/	.	4.BB-X/)	.	(4d-X\	.	4g/	.	8g/L	.	4E-\	8r	.	.	.	.	.	.	.
.	.	.	.	.	.	.	.	8e-/)	.	.	8e-L 8G\	.	.	.	.	.	.	.
8r	.	.	.	8B\)	.	8r	.	8dd-X/J	.	8r	8e-J 8G\	.	.	.	.	.	.	.
!!LO:PB:g=original
=42	=42	=42	=42	=42	=42	=42	=42	=42	=42	=42	=42	=42	=42	=42	=42	=42	=42	=42
4AA-X/	.	[4.AA-X/	.	(4.B-X/	.	(4.g/	.	(4.dd-X\	.	4E-X\	8r	.	4r	4r	.	2.ryy	2.ryy	.
.	.	.	.	.	.	.	.	.	.	.	(8e-XL 8B-X\	.	.	.	.	.	.	.
8r	.	.	.	.	.	.	.	.	.	8r	8B-J 8E-X\)	.	8r	8r	.	.	.	.
4r	.	4AA-/]	.	4c/)	.	4a-X/)	.	4cc\)	.	4AA-X/	8r	.	4r	4r	.	.	.	.
.	.	.	.	.	.	.	.	.	.	.	(8cL 8E-\	.	.	.	.	.	.	.
8r	.	8r	.	8r	.	8r	.	8r	.	8r	8e-J 8c-X\)	.	16r	16r	.	.	.	.
!	!	!	!	!	!	!	!	!	!	!	!	!	!	!LO:TX:a:i:t=Clar.	!	!	!	!
!	!	!	!	!	!	!	!	!	!	!	!	!	!	!LO:TX:a:i:t=Fl	!	!	!	!
.	.	.	.	.	.	.	.	.	.	.	.	.	(32ee-X\LLL	(32eee-X\LLL	.	.	.	.
.	.	.	.	.	.	.	.	.	.	.	.	.	32cc\JJJ	32ccc\JJJ	.	.	.	.
=43	=43	=43	=43	=43	=43	=43	=43	=43	=43	=43	=43	=43	=43	=43	=43	=43	=43	=43
!LO:TX:b:t=pizzi	!	!LO:TX:b:t=pizzi	!	!LO:TX:b:t=pizzi	!	!LO:TX:b:t=pizzi	!	!LO:TX:b:t=pizzi	!LO:DY:a	!	!	!	!	!	!	!	!	!
4A-X\	pp	4E-X\	pp	4A-X/	pp	4c/	pp	4e-X/	pp	4AA-X 4AAA-X/	8r	.	8a-X/)	8aa-X\)	.	2.ryy	2.ryy	.
.	.	.	.	.	.	.	.	.	.	.	8cL 8A-X\	.	8r	8r	.	.	.	.
8r	.	8E-\	.	8A-/	.	8c/	.	8e-/	.	8r	8e-XJ 8E-X\	.	8cc 8a-/	8aa- 8ee-X\	.	.	.	.
4A-\	.	4E-\	.	4B-X/	.	4d-X/	.	4e-/	.	4AA- 4AAA-/	8r	.	4dd-X 4b-X\	(4gg 4ee-^\	.	.	.	.
.	.	.	.	.	.	.	.	.	.	.	8d-XL 8B-X\	.	.	.	.	.	.	.
8r	.	8E-\	.	8B-/	.	8d-/	.	8e- 8G/	.	8r	8e-J 8E-\	.	8dd- 8g\	8bb-X 8ee-\	.	.	.	.
=44	=44	=44	=44	=44	=44	=44	=44	=44	=44	=44	=44	=44	=44	=44	=44	=44	=44	=44
4A-X\	.	4E-X\	.	4A-X/	.	4c/	.	8e-X 8A-X/	.	4AA-X 4AAA-X/	8r	.	8cc 8g-X\	[4.aa-X 4.ee-X\)	.	2.ryy	2.ryy	.
.	.	.	.	.	.	.	.	8r	.	.	8cL 8A-X\	.	8r	.	.	.	.	.
8r	.	8r	.	4r	.	8r	.	4r	.	8r	8e-XJ 8E-X\	.	8cc 8a'\	.	.	.	.	.
!	!	!LO:TX:a:t=arco	!	!	!	!	!	!	!	!	!	!	!	!	!	!	!	!
4r	.	4AA-X/	.	.	.	4r	.	.	.	4AA-/	8r	.	8cc 8a'\	8aa-] 8ee-\	.	.	.	.
.	.	.	.	8r	.	.	.	8r	.	.	8cL 8A-\	.	8r	8r	.	.	.	.
!	!	!	!	!	!	!	!	!LO:TX:b:t=arco	!	!	!	!	!	!	!	!	!	!
8r	.	8r	.	8r	.	8r	.	(16ee-X\LL	pp	8r	8e-J 8E-\	.	8r	8r	.	.	.	.
.	.	.	.	.	.	.	.	16cc\JJ	.	.	.	.	.	.	.	.	.	.
=45	=45	=45	=45	=45	=45	=45	=45	=45	=45	=45	=45	=45	=45	=45	=45	=45	=45	=45
!	!	!LO:TX:a:t=arco	!	!LO:TX:a:t=arco	!	!LO:TX:a:t=arco	!	!	!	!	!	!	!	!	!	!	!	!
4C/	.	8C/	.	8A-X/	.	8e-X/	.	8a-X/)	.	4C/	8r	.	2.r	2.r	.	2.ryy	2.ryy	.
.	.	8r	.	8r	.	8r	.	8r	.	.	8E-X\L	.	.	.	.	.	.	.
4r	.	8C/	.	8A-/	.	8e-/	.	8a-/	.	8r	8e-XJ 8A-X\	.	.	.	.	.	.	.
.	.	8C/	.	8A-/	.	8e-/	.	8a-/	.	4C/	8r	.	.	.	.	.	.	.
4C/	.	8r	.	8r	.	8r	.	8r	.	.	8E-\L	.	.	.	.	.	.	.
!	!	!	!	!	!	!LO:TX:a:i:t=g	!	!	!	!	!	!	!	!	!	!	!	!
.	.	8C/	.	8A-/	.	8e-/	.	8g/	.	8r	8e-J 8A-\	.	.	.	.	.	.	.
=46	=46	=46	=46	=46	=46	=46	=46	=46	=46	=46	=46	=46	=46	=46	=46	=46	=46	=46
!	!	!	!	!	!	!	!	!	!	!	!	!	!	!LO:TX:a:i:t=Fag	!	!	!	!
4C/	.	[4.C/	.	[4.An/	.	[4.e/	.	(4.g^/	.	4.C/	8r	.	2.r	2.r	.	2.ryy	2.ryy	.
.	.	.	.	.	.	.	.	.	.	.	8E-X\L	.	.	.	.	.	.	.
8r	.	.	.	.	.	.	.	.	.	.	8e-XJ 8An\	.	.	.	.	.	.	.
4ryy	.	8C/L]	.	8A/L]	.	8e/]	.	8.f#X/L	.	8C/L	8r	.	.	.	.	.	.	.
.	.	8AAn/	.	(16F#X/L	.	8r	.	.	.	8AAn/	8F#X\L	.	.	.	.	.	.	.
.	.	.	.	16A/	.	.	.	16an/L	.	.	.	.	.	.	.	.	.	.
8ryy	.	8GG/J	.	16c/	.	8r	.	16cc/)	.	8GG/J	8cJ 8A\	.	.	.	.	.	.	.
.	.	.	.	16e/JJ)	.	.	.	16ee/JJ	.	.	.	.	.	.	.	.	.	.
!!LO:PB:g=original
=47	=47	=47	=47	=47	=47	=47	=47	=47	=47	=47	=47	=47	=47	=47	=47	=47	=47	=47
!	!	!	!	!	!	!	!	!LO:TX:a:i:t=un poco piu crescendo	!	!	!	!	!	!	!	!	!LO:TX:a:Bi:t=Corni:color=blue	!
4F#X\	.	4FF#X/	.	8r	.	8r	.	8dd\	.	4F# 4FF#\	8r	.	2.ryy	2.ryy	.	[<2.D\	[<2.d/	.
.	.	.	.	(8c/L	.	(8A/L	.	(8d/L	.	.	8dL 8c 8A\	.	.	.	.	.	.	.
!	!	!	!	!	!	!	!	!	!	!	!LO:TX:t=P:problem=w czterech taktach druga ósemka z grupy nie ma główek - pewnie domyślnie miały być powtórzone te same wysokości	!	!	!	!	!	!	!
8r	.	8r	.	8A/J)	.	8d/J)	.	8a/J)	<	8r	8dJ 8c 8A\	.	.	.	.	.	.	.
!	!	!LO:TX:b:t=pizz.	!	!	!	!	!	!	!	!	!	!	!	!	!	!	!	!
4D\	.	4D\	.	8r	.	8r	.	8r	.	4D\	8r	.	.	.	.	.	.	.
.	.	.	.	(8c/L	.	(8A/L	.	8d/L	.	.	8dL 8c 8A\	.	.	.	.	.	.	.
8r	.	8r	.	8A/J)	.	8d/J)	.	8a/J	[[	8r	8dJ 8c 8A\	.	.	.	.	.	.	.
=48	=48	=48	=48	=48	=48	=48	=48	=48	=48	=48	=48	=48	=48	=48	=48	=48	=48	=48
*	*	*	*	*	*	*	*	*	*	*	*	*	*	*	*	*rep	*rep	*
!LO:TX:b:i:t=Col Vceli	!	!	!	!	!	!	!	!	!	!	!	!	!	!	!	!	!	!
4G\	.	4G\	.	8r	.	8r	.	8r	.	4G\	8r	.	2.ryy	2.ryy	.	2.D\_<	2.d/_<	.
.	.	.	.	(8B\L	.	(8G/L	.	(8d/L	.	.	8dL 8B\	.	.	.	.	.	.	.
8r	.	8r	.	8g\J)	.	8d/J)	.	8b/J)	.	8r	8dJ 8B\	.	.	.	.	.	.	.
4D\	.	4D\	.	8r	.	8r	.	8r	.	4D\	8r	.	.	.	.	.	.	.
.	.	.	.	(8B\L	.	(8G/L	.	(8d/L	.	.	8dL 8B\	.	.	.	.	.	.	.
8r	.	8r	.	8g\J)	.	8d/J)	.	8b/J)	.	8r	8dJ 8B\	.	.	.	.	.	.	.
*	*	*	*	*	*	*	*	*	*	*	*	*	*	*	*	*Xrep	*Xrep	*
=49	=49	=49	=49	=49	=49	=49	=49	=49	=49	=49	=49	=49	=49	=49	=49	=49	=49	=49
*	*	*	*	*	*	*	*	*	*	*	*	*	*	*	*	*rep	*rep	*
4F#X\	.	4F#X\	.	8r	.	8r	.	8r	.	4F#\	8r	.	2.ryy	2.ryy	.	2.D\_>	2.d/]	.
.	.	.	.	(8c/L	.	8A/L	.	(8d/L	.	.	8dL 8c 8A\	.	.	.	.	.	.	.
8r	.	8r	.	8A/J)	.	8d/J	.	8a/J)	.	8r	8dJ 8c 8A\	.	.	.	.	.	.	.
4D\	.	4D\	.	8r	.	8r	.	8r	.	4D\	8r	.	.	.	.	.	.	.
.	.	.	.	(8c/L	.	8A/L	.	8d/L	.	.	8dL 8c 8A\	.	.	.	.	.	.	.
8r	.	8r	.	8A/J)	.	8d/J	.	8a/J	.	8r	8dJ 8c 8A\	.	.	.	.	.	.	.
*	*	*	*	*	*	*	*	*	*	*	*	*	*	*	*	*Xrep	*Xrep	*
=50	=50	=50	=50	=50	=50	=50	=50	=50	=50	=50	=50	=50	=50	=50	=50	=50	=50	=50
4G\	.	4G\	.	8r	.	8r	.	8r	.	4D\	8r	.	2.ryy	2.ryy	.	4D\]	(>[<4.d/	.
.	.	.	.	(8G/L	.	(8G/L	.	8d/L	.	.	8dL 8A 8G\	.	.	.	.	.	.	.
8r	.	8r	.	8d/J)	.	8d/J)	.	8g/J	.	8r	8dJ 8A 8G\	.	.	.	.	8r	.	.
4D\	.	4D\	.	8r	.	8r	.	8r	.	4D\	8r	.	.	.	.	4r	8d/L]	.
!	!	!	!	!	!	!	!	!LO:TX:t=P:problem=mixed beam	!	!	!	!	!	!	!	!	!	!
.	.	.	.	8B\L	.	(8G/L	.	8d/L	.	.	8dL 8B 8G\	.	.	.	.	.	8B/	.
8r	.	8r	.	8g\J	.	8d/J)	.	(16dd/L	.	8r	8dJ 8B 8G\	.	.	.	.	8r	8d/J	.
.	.	.	.	.	.	.	.	16b/JJ	.	.	.	.	.	.	.	.	.	.
=51	=51	=51	=51	=51	=51	=51	=51	=51	=51	=51	=51	=51	=51	=51	=51	=51	=51	=51
*	*	*	*	*	*	*	*	*	*	*^	*	*	*	*	*	*	*	*
4BB/	.	8BB\L	.	8r	.	8d 8G/	.	8g/)	.	8BB/	8BB\	8r	.	2.ryy	2.ryy	.	2.r	4g/)	.
!	!	!	!	!LO:TX:a:t=pizzi	!	!	!	!	!	!	!	!	!	!	!	!	!	!	!
.	.	8D\	.	8D/L	.	8r	.	8r	.	8r	8rEEyy	8dL 8G\	.	.	.	.	.	.	.
8r	.	8G\J	.	8G/J	.	8d'/	.	8g 8G'/	.	8r	8rEEyy	8dJ 8A\	.	.	.	.	.	8r	.
4BB/	.	8BB\L	.	8r	.	4d^/	.	4g 4G^/	.	8BB/	8BB\	8r	.	.	.	.	.	4r	.
.	.	8D\	.	8D/L	.	.	.	.	.	8r	8rEEyy	8dL 8G\	.	.	.	.	.	.	.
8r	.	8G\J	.	8G/J	.	8d'/	.	8f# 8G'/	.	8r	8rEEyy	8dJ 8A\	.	.	.	.	.	8r	.
!!LO:PB:g=original
*	*	*	*	*	*	*	*	*	*	*v	*v	*	*	*	*	*	*	*	*
=52	=52	=52	=52	=52	=52	=52	=52	=52	=52	=52	=52	=52	=52	=52	=52	=52	=52	=52
!	!	!	!	!	!	!	!	!	!	!	!	!	!	!	!	!	!LO:TX:a:Bi:t=Clar.:color=blue:rj	!
4C/	.	8C\L	.	8r	.	8d/	.	8f# 8G/	.	8C/	8r	.	2.ryy	2.ryy	.	2.r	(>4.f# (<4.d/	.
!	!	!LO:TX:t=P:problem=wysokość nuty niejasna, nuta podpisana literą d	!	!	!	!	!	!	!	!	!	!	!	!	!	!	!	!
.	.	8D\	.	8D/L	.	8r	.	8r	.	8r	8dL 8G\	.	.	.	.	.	.	.
8r	.	8G\J	.	8G/J	.	8d/	.	8f# 8G/	.	8r	8dJ 8G\	.	.	.	.	.	.	.
!	!	!LO:TX:t=P:problem=nieczytelna adnotacja, przekreślona?	!	!	!	!	!	!	!	!	!	!	!	!	!	!	!	!
4C/	.	8C\L	.	8r	.	8c/	.	8e 8G/	.	8C/	8r	.	.	.	.	.	8e 8c/))	.
.	.	8E\	.	8E/L	.	8r	.	8r	.	8r	8cL 8G\	.	.	.	.	.	8r	.
8r	.	8G\J	.	8G/J	.	8e/	.	(16dd\LL	.	8r	8eJ 8G\	.	.	.	.	.	8r	.
.	.	.	.	.	.	.	.	16b\JJ	.	.	.	.	.	.	.	.	.	.
=53	=53	=53	=53	=53	=53	=53	=53	=53	=53	=53	=53	=53	=53	=53	=53	=53	=53	=53
4C/	.	8C\L	.	8r	.	8e/	.	8a/)	.	8C/	8r	.	2.ryy	2.ryy	.	2.r	2.r	.
.	.	8E\	.	8E/L	.	8r	.	8r	.	8r	8eL 8A\	.	.	.	.	.	.	.
8r	.	8A\J	.	8A/J	.	8A/	.	8a 8e'/	.	8r	8eJ 8A\	.	.	.	.	.	.	.
4C/	.	8C\L	.	8r	.	4A^/	.	(4a 4e^/	.	8C/	8r	.	.	.	.	.	.	.
.	.	8E\	.	8E/L	.	.	.	.	.	8r	8eL 8A\	.	.	.	.	.	.	.
8r	.	8A\J	.	8A/J	.	8e 8A/	.	8g/)	.	8r	8eJ 8A\	.	.	.	.	.	.	.
=54	=54	=54	=54	=54	=54	=54	=54	=54	=54	=54	=54	=54	=54	=54	=54	=54	=54	=54
4D\	.	8D\L	.	8r	.	8e 8A/	.	8g/	.	8D/	8r	.	2.ryy	2.ryy	.	2.r	(>4.g &(>4.e/	.
.	.	8E\	.	8E/L	.	8r	.	8r	.	8r	8dL 8A\	.	.	.	.	.	.	.
8r	.	8A\J	.	8A/J	.	8d 8A/	.	(8g/	.	8r	8dJ 8A\	.	.	.	.	.	.	.
!	!	!	!	!	!	!	!	!	!	!	!	!	!	!	!	!	!LO:S:s=1:note:problem=note-level slur	!
!	!	!	!	!	!	!	!	!	!	!	!	!	!	!	!	!	!LO:S:s=2:note:problem=note-level slur	!
4D\	.	8D\	.	8r	.	8dL 8A/	.	8f#/L)	.	8D/	8f# 8A\	.	.	.	.	.	8f#) 8d/&)	.
!	!	!	!	!LO:TX:a:t=arco	!	!	!	!	!	!	!	!	!	!	!	!	!	!
.	.	8r	.	8F#/L	.	8c'/	.	8d'/	<	8r	8r	.	.	.	.	.	8r	.
!	!	!	!	!	!	!	!LO:DY:a	!	!	!	!	!	!	!	!	!	!	!
8r	.	8r	.	8A/J	.	8d'/J	<	8e'/J	.	8r	8r	.	.	.	.	.	8r	.
=55	=55	=55	=55	=55	=55	=55	=55	=55	=55	=55	=55	=55	=55	=55	=55	=55	=55	=55
2.r	.	8C'/L	<	8A'/L	<	8d'/L	.	8f#'/L	.	2.r	2.r	.	2.ryy	2.ryy	.	2.r	2.r	.
.	.	8C'/	.	8A'/	.	8d'/	.	8g'/	.	.	.	.	.	.	.	.	.	.
.	.	8C'/J	.	8A'/J	.	8f#'/J	.	8a'/J	.	.	.	.	.	.	.	.	.	.
.	.	8BB'/L	.	8d'\L	.	8gL 8G'/	.	8b'\L	.	.	.	.	.	.	.	.	.	.
.	.	8AA'/	.	8c'\	.	8a 8d'/	[	8cc'\	[	.	.	.	.	.	.	.	.	.
.	.	8GG'/J	[	8B'\J	[	8bJ 8d'/	.	8dd'\J	.	.	.	.	.	.	.	.	.	.
=56	=56	=56	=56	=56	=56	=56	=56	=56	=56	=56	=56	=56	=56	=56	=56	=56	=56	=56
*	*	*	*	*	*	*	*	*	*	*	*	*	*	*	*	*^	*	*
*	*	*	*	*	*	*	*	*	*	*	*	*	*	*	*	*	*	*^	*
!	!	!	!	!	!	!	!	!	!	!	!	!	!	!	!	!LO:TX:a:Bi:t=Fag.:color=blue:rj	!	!	!	!
!	!	!	!	!	!	!	!	!	!	!	!	!	!	!	!	!	!	!LO:TX:a:Bi:t=Clar.:color=blue:rj	!	!
4GG/	f	(4.GG^/	.	8B/	f	8bL 8e/	f	8ee 8b 8e\	f	8E\	8r	.	2.r	[4.ee\	fp	2.E/	(<4.GG\	(>2.b/	4.e\	p
.	.	.	.	(8B/L	p	(8e/	p	8r	.	8r	8eL 8A\	p	.	.	.	.	.	.	.	.
8r	.	.	.	8E/J)	.	8B/J)	.	(8e/	p	8r	8BJ 8E\	.	.	.	.	.	.	.	.	.
4.GG#X/	p	4.GG#X/)	.	8r	.	8r	.	8b/)	.	8E\	8r	.	.	4ee\]	.	.	4.GG#X\)	.	4.d\	.
.	.	.	.	(8B/L	.	(8e/L	.	8r	.	8r	8eL 8A\	.	.	.	.	.	.	.	.	.
.	.	.	.	8e/J)	.	8d/J)	.	8b/	.	8r	8BJ 8E\	.	.	8dd 8b'\	.	.	.	.	.	.
!!LO:PB:g=original
*	*	*	*	*	*	*	*	*	*	*	*	*	*	*	*	*v	*v	*	*	*
*	*	*	*	*	*	*	*	*	*	*	*	*	*	*	*	*	*v	*v	*
=57	=57	=57	=57	=57	=57	=57	=57	=57	=57	=57	=57	=57	=57	=57	=57	=57	=57	=57
.	.	.	.	.	.	.	.	.	.	.	.	.	.	8qdd/	.	.	.	.
4AA/	.	8AA/	.	8r	.	8c/	.	8a/	.	4AA/	8r	.	2.r	8ccL 8a'\	.	4.E 4.AA/	4.e 4.c/)	.
.	.	8r	.	(8E/L	.	8r	.	8r	.	.	8cL 8A 8E\	.	.	16r	.	.	.	.
.	.	.	.	.	.	.	.	.	.	.	.	.	.	16bK 16g#X'\	.	.	.	.
8r	.	8r	.	8A/J)	.	8c/	.	8e/	.	8r	8eJ 8c 8A\	.	.	8ccJ 8a'\	.	.	.	.
4D\	.	8D\	.	8d'\L	.	(8A/L	.	(8f#/L	.	4DD/	8r	.	.	(8aL 8f#/	.	[>4.D\	[<4.d/	.
!	!	!	!	!	!	!	!	!	!	!	!LO:TX:t=P:problem=mixed beam	!	!	!	!	!	!	!
.	.	8r	.	8d'\	.	8B/)	.	8g/)	.	.	8d\L	.	.	8b 8g#/)	.	.	.	.
8r	.	8r	.	8d'\J	.	8c/J	.	8a/J	.	8r	8D\J	.	.	8ccJ 8a/	.	.	.	.
=58	=58	=58	=58	=58	=58	=58	=58	=58	=58	=58	=58	=58	=58	=58	=58	=58	=58	=58
4D\	.	8D\	.	2ryy	.	2ryy	.	(8b/	.	4DD/	8r	.	2.r	(4.dd 4.b\	.	4D] 4GG/	4d/]	.
.	.	8r	.	.	.	.	.	8g/	.	.	8BL 8G 8D\	.	.	.	.	.	.	.
8r	.	8r	.	.	.	.	.	8d/)	.	8r	8dJ 8B 8G\	.	.	.	.	8r	8r	.
4D\	.	8D\	.	.	.	.	.	8r	.	4D\	4r	.	.	8b 8g\)	.	4r	4r	.
.	.	8r	.	8D'/L	.	8d'/L	.	8f#'^^/L	.	.	.	.	.	8r	.	.	.	.
8r	.	8r	.	8E'/J	<	8d'/J	.	8g'^^/J	<	8r	8r	.	.	8r	.	8r	8r	.
=59	=59	=59	=59	=59	=59	=59	=59	=59	=59	=59	=59	=59	=59	=59	=59	=59	=59	=59
2.r	.	4.C^/	.	8F#'/L	.	8d'/L	<	8a'^^\L	.	2.r	2.r	.	2.r	2.r	.	2.r	2.r	.
.	.	.	.	8G'/	.	8d'/	.	8b'^^\	.	.	.	.	.	.	.	.	.	.
.	.	.	.	8A'/J	.	8d'/J	.	8cc'^^\J	.	.	.	.	.	.	.	.	.	.
.	.	8C'/L	<	8A'/L	.	8f#/L	.	8dd'^^\L	.	.	.	.	.	.	.	.	.	.
.	.	8BB'/	.	8d 8G'/	[	8g/	[	8ee'^^\	[	.	.	.	.	.	.	.	.	.
.	.	8AA'/J	[	8d'/J	.	8cc/J	.	8ff#'^^\J	.	.	.	.	.	.	.	.	.	.
=60	=60	=60	=60	=60	=60	=60	=60	=60	=60	=60	=60	=60	=60	=60	=60	=60	=60	=60
!	!	!	!	!	!	!	!	!	!	!	!	!	!	!	!	!	!LO:TX:a:Bi:t=piu moſso.:color=blue	!
4GG/	sf	4GG/	sf	4g 4G/	sf	4b 4d/	sf	4gg 4b 4d\	sf	4r	4r	.	4r	4r	.	2.r	2.r	.
8r	.	8r	.	8r	.	8r	.	8r	.	8r	8r	.	8r	8r	.	.	.	.
!	!	!	!	!	!	!	!	!	!	!	!	!	!	!LO:TX:a:i:t=tutti	!	!	!	!
4r	.	4r	.	4r	.	4r	.	4r	.	4.EE-X'/	4.e-X 4.B-X 4.G 4.E-X^\	.	4.ee-X 4.b-X 4.g^\	[4.gg^\	.	.	.	.
!LO:TX:a:t=Senza sordini	!	!	!	!LO:TX:a:t=Senza sordini	!	!LO:TX:a:t=Senza sordini	!	!LO:TX:a:t=Senza sordini	!	!	!	!	!	!	!	!	!	!
8r	.	8r	.	8r	.	8r	.	8r	.	.	.	.	.	.	.	.	.	.
=61	=61	=61	=61	=61	=61	=61	=61	=61	=61	=61	=61	=61	=61	=61	=61	=61	=61	=61
*	*	*	*	*	*	*	*	*	*	*	*^	*	*	*	*	*	*	*
!	!	!	!	!	!	!	!	!	!	!	!	!	!	!	!	!	!	!LO:TX:a:Bi:t=A=:color=red:problem=dopisane ołówkiem, zastosowane do oznaczenia części w partyturze	!
2.r	.	2.r	.	2.r	.	2.r	.	2.r	.	4.BB-X 4.BBB-X^/	4.d 4.G^\	4.rEE	.	4.dd 4.g^/	4.gg\]	.	2.r	2.r	.
.	.	.	.	.	.	.	.	.	.	4.E-X 4.EE-X/	4.c#X 4.A#X^/	4.G\	.	4.cc#X 4.a#X 4.g^/	[4.gg^\	.	.	.	.
!!LO:PB:g=original
*	*	*	*	*	*	*	*	*	*	*	*v	*v	*	*	*	*	*	*	*
=62	=62	=62	=62	=62	=62	=62	=62	=62	=62	=62	=62	=62	=62	=62	=62	=62	=62	=62
!	!	!	!	!	!	!	!	!	!	!	!	!	!	!	!	!	!LO:TX:a:t=P:problem=w źródle fermata w kolorze niebieskim	!
2.r	.	2.r	.	2.r	.	2.r	.	2.r	.	4D 4DD/	4d 4B 4G\	.	4dd 4b 4g\	4gg\]	.	2.r	2.r;	.
.	.	.	.	.	.	.	.	.	.	8r	8r	.	8r	8r	.	.	.	.
.	.	.	.	.	.	.	.	.	.	4r	4r	.	4r	4r	.	.	.	.
.	.	.	.	.	.	.	.	.	.	8r	8r	.	8r	8r	.	.	.	.
=63	=63	=63	=63	=63	=63	=63	=63	=63	=63	=63	=63	=63	=63	=63	=63	=63	=63	=63
!	!	!	!	!	!	!	!	!	!	!	!	!	!	!	!	!	!LO:TX:b:Bi:t=(Gr. jeu&colon;)	!
4r	.	4r	.	4r	.	4r	.	4r	.	4r	4r	.	4r	4r	.	2.r	2.r	.
8r	.	8r	.	8r	.	8r	.	8r	.	8r	8r	.	8r	8r	.	.	.	.
!LO:TX:a:t=arco	!	!	!	!	!	!	!	!	!	!	!	!	!	!	!	!	!	!
8D\	sf	8D\	sf	8cc 8d\	sf	8a 8f#/	sf	8dd 8d/	sf	8D 8DD/	8d 8A\	sf	8a 8f#/	8dd 8cc\	sf	.	.	.
8r	.	8r	.	8r	.	8r	.	8r	.	8r	8r	.	8r	8r	.	.	.	.
8r;	.	8r;	.	8r;	.	8r;	.	8r;	.	8r;	8r;	.	8r;	8r;	.	.	.	.
=64	=64	=64	=64	=64	=64	=64	=64	=64	=64	=64	=64	=64	=64	=64	=64	=64	=64	=64
*	*	*	*	*	*	*	*	*	*	*	*	*	*	*8va	*	*	*	*
!	!	!	!	!	!	!	!	!	!	!	!	!	!	!	!	!	!LO:TX:a:Bi:t=tempo 1mo::color=blue	!
4GG/	.	4.D 4.GG^/	ff	8b 8d 8G\	ff	8gg 8b 8d\	ff	8bb 8dd 8d\	ff	4.GG 4.GGG/	8dL 8B\	ff	4b 4g/	4bb 4gg/	ff	2.D 2.GG/	4.b 4.g/	f
.	.	.	.	8r	.	(8dd/L	.	8r	.	.	8G\	.	.	.	.	.	.	.
!	!	!	!	!	!	!	!	!	!	!	!	!	!	!LO:TX:b:i:t=Col 2do	!	!	!	!
8r	.	.	.	8g\	.	8d/J)	.	8bb\	.	.	8D\J	.	8b 8g/	8bb 8gg/	.	.	.	.
.	.	.	.	8qg/	.	.	.	8qqbb/	.	.	.	.	.	.	.	.	8qb 8qg/	.
4GG/	.	4.D 4.GG^/	.	8f#\L	.	8r	.	8aa\L	.	4.GG 4.GGG/	8d\L	.	(8aL 8f#/	(8aaL 8ff#/	.	.	(8aL 8f#/	.
.	.	.	.	8e\	.	(8dd/L	.	8gg\	.	.	8A\	.	8g 8e/)	8gg 8ee/)	.	.	8g 8e/)	.
8r	.	.	.	8f#\J	.	8d/J)	.	8aa\J	.	.	8D\J	.	8aJ 8f#/	8aaJ 8ff#/	.	.	8aJ 8f#/	.
=65	=65	=65	=65	=65	=65	=65	=65	=65	=65	=65	=65	=65	=65	=65	=65	=65	=65	=65
4GG/	.	4.D 4.GG/	.	8g\	.	8r	.	[4.bb\	.	4.GG 4.GGG/	8dL 8B\	.	4b 4g/	4bb 4gg/	.	4.D [4.GG/	[4.b [4.g/	.
.	.	.	.	8r	.	(8dd/L	.	.	.	.	8G\	.	.	.	.	.	.	.
8r	.	.	.	8g 8B\	.	8d/J)	.	.	.	.	8D\J	.	8b 8g/	8bb 8gg/	.	.	.	.
4GG/	.	4.G 4.GG/	.	8g 8B\	.	8r	.	4bb\]	.	4.GG 4.GGG/	8dL 8B\	.	4b 4g/	4bb 4gg/	.	[4.G 4.GG/_	4b] 4g/]	.
.	.	.	.	8r	.	(8dd/L	.	.	.	.	8G\	.	.	.	.	.	.	.
8r	.	.	.	8b\	.	8d/J)	.	8ddd\	.	.	8D\J	.	8dd 8b\	8ddd 8bb\	.	.	8dd 8b\	.
=66	=66	=66	=66	=66	=66	=66	=66	=66	=66	=66	=66	=66	=66	=66	=66	=66	=66	=66
*	*	*	*	*	*	*	*	*	*	*	*^	*	*	*	*	*	*	*
4.GG/	sf	4.G 4.GG/	sf >	4.a#X\	sf	(8cc#X^/L	.	([4.eee^\	sf	32GGG/LLL	(4.e 4.c#X/	8A\L	.	[4.ee [4.cc#X [4.a#X^/	[4.eee [4.ccc#X [4.aa#X^/	.	2.G] 2.GG/]	([4.ee [4.cc#X [4.a#X^^\	.
.	.	.	.	.	.	.	.	.	.	32GG/	.	.	.	.	.	.	.	.	.
.	.	.	.	.	.	.	.	.	.	32GGG/	.	.	.	.	.	.	.	.	.
.	.	.	.	.	.	.	.	.	.	32GG/	.	.	.	.	.	.	.	.	.
.	.	.	.	.	.	8e/	.	.	.	32GGG/	.	8G\	.	.	.	.	.	.	.
.	.	.	.	.	.	.	.	.	.	32GG/	.	.	.	.	.	.	.	.	.
.	.	.	.	.	.	.	.	.	.	32GGG/	.	.	.	.	.	.	.	.	.
.	.	.	.	.	.	.	.	.	.	32GG/	.	.	.	.	.	.	.	.	.
.	.	.	.	.	.	8g/J)	.	.	.	32GGG/	.	8E\J	.	.	.	.	.	.	.
.	.	.	.	.	.	.	.	.	.	32GG/	.	.	.	.	.	.	.	.	.
.	.	.	.	.	.	.	.	.	.	32GGG/	.	.	.	.	.	.	.	.	.
.	.	.	.	.	.	.	.	.	.	32GG/JJJ	.	.	.	.	.	.	.	.	.
4GG/	.	4.D 4.GG/	]	4.b\	>]	(8d^/L	.	8eee\L]	>	4GGG/	4d/)	8B\L	.	8ee]L 8cc#] 8a#/]	8eee]L 8ccc#] 8aa#/]	.	.	8ee]L 8cc#] 8a#\]	>
.	.	.	.	.	.	8g/	.	8ddd\)	.	.	.	8G\	.	8dd 8b/	8ddd 8bb/	.	.	8dd 8b\	.
!	!	!	!	!	!	!	!	!	!	!	!	!	!	!	!	!	!	!LO:TX:a:Bi:t=B=:color=red:problem=dopisane ołówkiem, zastosowane do oznaczenia części w partyturze	!
8r	.	.	.	.	.	8dd/J)	.	8gg\J	]	8r	8rcyy	8D\J	.	8g/J	8gg/J	.	.	8g\J)	]
!!LO:PB:g=original
*	*	*	*	*	*	*	*	*	*	*	*v	*v	*	*	*	*	*	*	*
=67	=67	=67	=67	=67	=67	=67	=67	=67	=67	=67	=67	=67	=67	=67	=67	=67	=67	=67
4GG/	.	4G 4GG/	.	4b 4g\	.	4dd 4d/	.	4bb\	.	4GG/	4d 4G\	.	4.b\	4.bb\	.	4G\	4b/	.
8r	.	8r	.	8r	.	8r	.	8r	.	8r	8r	.	.	.	.	8r	8r	.
4C^/	.	4C^/	.	4e^\	.	4ee^\	.	4aa^\	.	4C 4CC^/	4e 4E^\	.	4a^/	4aa 4ee/	.	4C^/	4ee 4a 4e^/	.
8BB/	.	8BB/	.	8g#X\	.	8ee 8cc\	.	8bb\	.	8BB 8BBB/	8d 8G#X 8E\	.	8b 8g#X 8e/	8bb 8gg#X 8ff# 8dd/	.	8BB/	8dd 8g#X 8e/	.
=68	=68	=68	=68	=68	=68	=68	=68	=68	=68	=68	=68	=68	=68	=68	=68	=68	=68	=68
8AA/	.	8AA/	.	8a\	.	8ee 8cc\	.	8ccc\	.	8AA 8AAA/	8c 8A 8E\	.	8a 8e/	8ccc 8aa 8ee 8cc/	.	8AA/	8cc 8a 8e/	.
*	*	*	*	*	*	*	*	*	*	*	*	*	*	*X8va	*	*	*	*
8r	.	8r	.	8r	.	8r	.	8r	.	8r	8r	.	8r	8r	.	8r	8r	.
8r	.	8r	.	8r	.	8r	.	8r	.	8r	8r	.	8r	8r	.	8r	8r	.
4r;	.	4r;	.	4r;	.	4r;	.	4r;	.	4r;	4r;	.	4r;	4r;	.	4r;	4r;	.
8r	.	8r	.	8r	.	8r	.	8r	.	8r	8r	.	8r	8r	.	8r	8r	.
=69	=69	=69	=69	=69	=69	=69	=69	=69	=69	=69	=69	=69	=69	=69	=69	=69	=69	=69
!	!	!	!	!	!	!	!	!	!	!	!	!	!	!	!	!	!LO:TX:a:i:t=(&colon;8&colon;)	!
2.r	.	8r	.	8r	.	8r	.	8r	.	2.r	2.r	.	2.r	2.r	.	2.A\	2.r	p
.	.	8A'\L	.	8f#'\L	.	8d#X'/L	.	8cc'\L	p	.	.	.	.	.	.	.	.	.
.	.	8A'\J	.	8f#'\J	.	8d#'/J	.	8cc'\J	.	.	.	.	.	.	.	.	.	.
.	.	8A'\L	.	8f#'\L	.	8d#'/L	.	(8cc\L	.	.	.	.	.	.	.	.	.	.
.	.	8A'\	.	8f#'\	.	8d#'/	.	8b\)	.	.	.	.	.	.	.	.	.	.
.	.	8A'\J	.	8f#'\J	.	8d#'/J	.	8cc\J	.	.	.	.	.	.	.	.	.	.
=70	=70	=70	=70	=70	=70	=70	=70	=70	=70	=70	=70	=70	=70	=70	=70	=70	=70	=70
2.r	.	8r	.	8r	.	8r	.	8r	.	2.ryy	2.ryy	.	2.ryy	2.ryy	.	2.G\	2.r	.
.	.	8G'\L	.	8e'\L	.	8e'/L	.	8cc'\L	.	.	.	.	.	.	.	.	.	.
.	.	8G'\J	.	8B'\J	.	8e'/J	.	8b'\J	.	.	.	.	.	.	.	.	.	.
.	.	.	.	.	.	.	.	8qdd/	.	.	.	.	.	.	.	.	.	.
.	.	8G'\L	.	8B'/L	.	8e'/L	.	4cc\	.	.	.	.	.	.	.	.	.	.
.	.	8G'\	.	8B'/	.	8e'/	.	.	.	.	.	.	.	.	.	.	.	.
.	.	8G'\J	.	8B'/J	.	8e'/J	.	8b\	.	.	.	.	.	.	.	.	.	.
=71	=71	=71	=71	=71	=71	=71	=71	=71	=71	=71	=71	=71	=71	=71	=71	=71	=71	=71
2.r	.	8r	.	8r	.	8r	.	8r	.	2.ryy	2.ryy	.	2.ryy	2.ryy	.	[4.F#\	2.r	.
.	.	8F#'\L	.	8c'\L	.	8e'/L	.	8eeL 8cc'\	.	.	.	.	.	.	.	.	.	.
.	.	8F#'\J	.	8c'\J	.	8e'/J	.	8eeJ 8a'\	.	.	.	.	.	.	.	.	.	.
.	.	8r	.	8r	.	8r	.	8r	.	.	.	.	.	.	.	4.F#] 4.BB\	.	.
.	.	8D#X'\L	.	8B'/L	.	8b'/L	.	8ff#'\L	.	.	.	.	.	.	.	.	.	.
.	.	8D#'\J	.	8B'/J	.	8a'/J	.	8ff#'\J	.	.	.	.	.	.	.	.	.	.
!!LO:PB:g=original
=72	=72	=72	=72	=72	=72	=72	=72	=72	=72	=72	=72	=72	=72	=72	=72	=72	=72	=72
2.r	.	8r	.	8r	.	8r	.	8r	.	2.r	2.r	.	2.r	2.r	.	2.r	2.r	.
.	.	8E'\L	.	8B'\L	.	8g'/L	.	(8gg\L	.	.	.	.	.	.	.	.	.	.
.	.	8E'\J	.	8B'\J	.	8g'/J	.	8ee\J)	.	.	.	.	.	.	.	.	.	.
.	.	8r	.	8r	.	8r	.	8r	.	.	.	.	.	.	.	.	.	.
.	.	8Fn\L	.	8G/L	.	8e/L	.	8b'/L	.	.	.	.	.	.	.	.	.	.
.	.	[8G\J	.	[8G/J	.	[8e/J	.	[8b/J	.	.	.	.	.	.	.	.	.	.
=73	=73	=73	=73	=73	=73	=73	=73	=73	=73	=73	=73	=73	=73	=73	=73	=73	=73	=73
2.r	.	8G\L]	.	8G/L]	.	8e/L]	.	8b/L]	.	2.ryy	2.ryy	.	2.ryy	2.ryy	.	2.r	2.r	.
.	.	8Cn'\	.	8G'/	.	8e'/	.	8b-X'/	.	.	.	.	.	.	.	.	.	.
.	.	[8C\J	.	[8c/J	.	[8e/J	.	[8b-/J	.	.	.	.	.	.	.	.	.	.
.	.	8C\L]	.	8c\L]	.	8e/L]	.	8b-/L]	.	.	.	.	.	.	.	.	.	.
.	.	8Fn'\	.	8c'\	.	8fn'/	.	8a'/	.	.	.	.	.	.	.	.	.	.
.	.	[8F\J	.	[8c\J	.	[8f/J	.	[8a/J	.	.	.	.	.	.	.	.	.	.
=74	=74	=74	=74	=74	=74	=74	=74	=74	=74	=74	=74	=74	=74	=74	=74	=74	=74	=74
2.r	.	8F\L]	.	8c/L]	.	8f/L]	.	8a/L]	.	2.ryy	2.ryy	.	2.ryy	2.ryy	.	2.ryy	2.ryy	.
.	.	8E'\	.	8E'/	.	8d'/	.	8g#X'/	.	.	.	.	.	.	.	.	.	.
.	.	[8E\J	.	[8E/J	.	[8d/J	.	[8g#/J	.	.	.	.	.	.	.	.	.	.
!	!	!LO:TX:t=P:problem=mixed beam	!	!	!	!	!	!	!	!	!	!	!	!	!	!	!	!
.	.	8E\L]	.	8E/L]	.	8d/L]	.	8g#/L]	.	.	.	.	.	.	.	.	.	.
.	.	8AA'\	.	8E'/	.	8c#X'/	.	8gn'/	.	.	.	.	.	.	.	.	.	.
.	.	[8AA\J	.	[8E/J	.	[8c#/J	.	[8g/J	.	.	.	.	.	.	.	.	.	.
=75	=75	=75	=75	=75	=75	=75	=75	=75	=75	=75	=75	=75	=75	=75	=75	=75	=75	=75
2.r	.	8AA/L]	.	8E/L]	.	8c#/L]	.	8g/L]	.	2.r	2.r	.	2.ryy	2.ryy	.	2.ryy	2.ryy	.
.	.	8AA#X'/	.	8F#X'/	.	8c#X'/	.	8f#'/	.	.	.	.	.	.	.	.	.	.
.	.	[8AA#/J	.	[8F#/J	.	[8c#/J	.	[8f#/J	.	.	.	.	.	.	.	.	.	.
.	.	8AA#/L]	.	8F#/L]	.	8c#/L]	.	8f#/L]	.	.	.	.	.	.	.	.	.	.
.	.	8BB'/	.	8G#X'/	.	8d'/	.	8fn'/	.	.	.	.	.	.	.	.	.	.
.	.	[8BB/J	.	[8G#/J	.	[8d/J	.	[8f/J	.	.	.	.	.	.	.	.	.	.
=76	=76	=76	=76	=76	=76	=76	=76	=76	=76	=76	=76	=76	=76	=76	=76	=76	=76	=76
!	!	!	!	!	!	!	!	!	!	!	!	!	!	!	!	!LO:TX:a:Bi:t=Fag:color=blue	!	!
!	!	!	!	!	!	!	!	!	!	!	!	!	!	!	!	!	!LO:TX:a:Bi:t=Fl:color=blue	!
2.r	.	8BB/L]	.	8G#/L]	.	8d/L]	.	8f/L]	.	2.r	2.r	.	2.ryy	2.ryy	.	2.r	2.r	.
.	.	8Cn'/	.	8Gn'/	.	8B-X'/	.	8e'/	.	.	.	.	.	.	.	.	.	.
.	.	[8C/J	.	[8G/J	.	[8B-/J	.	[8e/J	.	.	.	.	.	.	.	.	.	.
.	.	8C/L]	.	8G/L]	.	8B-/L]	.	8e/L]	.	.	.	.	.	.	.	.	.	.
.	.	8C#X'/	.	(8G/	.	(8A/	.	(8e/	.	.	.	.	.	.	.	.	.	.
.	.	8C#/J	.	8E/J)	.	8e/J)	.	8a/J)	.	.	.	.	.	.	.	.	.	.
*	*	*	*	*	*	*	*	*	*	*	*clefG2	*	*	*	*	*	*	*
!!LO:PB:g=original
=77||	=77||	=77||	=77||	=77||	=77||	=77||	=77||	=77||	=77||	=77||	=77||	=77||	=77||	=77||	=77||	=77||	=77||	=77||
*k[f#c#]	*	*k[f#c#]	*	*k[f#c#]	*	*k[f#c#]	*	*k[f#c#]	*	*k[f#c#]	*k[f#c#]	*	*k[f#c#]	*k[f#c#]	*	*k[f#c#]	*k[f#c#]	*
*D:	*	*D:	*	*D:	*	*D:	*	*D:	*	*D:	*D:	*	*D:	*D:	*	*D:	*D:	*
!	!	!	!	!	!	!	!	!	!	!	!	!	!	!	!	!LO:TX:a:Bi:t=Fag:color=blue	!	!
!	!	!LO:TX:b:i:t=cantabile	!	!	!	!	!	!	!	!	!	!	!	!	!	!	!LO:TX:a:Bi:t=Fl:color=blue	!
[2.D\	pp [[	4.F#\	p	4.D/	p	8d/	.	8f#/	.	4D\	(8f#/L	.	2.ryy	2.ryy	.	[2.A [2.AA\	(4.f# 4.d/	.
!	!	!	!	!	!	!	!	!	!	!	!	!LO:DY:a	!	!	!	!	!	!
.	.	.	.	.	.	8r	.	8r	.	.	8d/	<	.	.	.	.	.	.
.	.	.	.	.	.	8r	.	8r	.	8r	8A/J	.	.	.	.	.	.	.
!	!	!	!	!LO:TX:a:i:t=cantabile	!	!	!	!	!	!	!	!	!	!	!	!	!	!LO:DY:a
.	.	4G\	<	4E/	<	4r	.	4r	.	4r	8e/L	.	.	.	.	.	4g 4e/	<
.	.	.	.	.	.	.	.	.	.	.	8A/	.	.	.	.	.	.	.
.	.	8A\	[	8F#/	[	8r	.	8r	.	8r	8d/J)	[	.	.	.	.	8a 8f#/	.
=78	=78	=78	=78	=78	=78	=78	=78	=78	=78	=78	=78	=78	=78	=78	=78	=78	=78	=78
!	!	!	!	!	!LO:DY:a	!	!	!	!	!	!	!LO:DY:a	!	!	!	!	!	!LO:DY:a
2.D\_	> < [[	[4.d\	>	[4.F#/	>	2.r	.	2.r	.	4D\	(8f#/L	>	2.ryy	2.ryy	.	2.A_ 2.AA\_	[4.dd [4.f#/	[ >
.	.	.	.	.	.	.	.	.	.	.	8d/	.	.	.	.	.	.	.
.	.	.	.	.	.	.	.	.	.	8r	8A/J	.	.	.	.	.	.	.
.	.	4d\]	.	4F#/]	.	.	.	.	.	4r	8d/L	.	.	.	.	.	4dd] 4f#/]	.
.	.	.	.	.	.	.	.	.	.	.	8f#/	]	.	.	.	.	.	.
.	.	8c#\	]	8A/	]	.	.	.	.	8r	8a/J)	.	.	.	.	.	8cc# 8a/)	]
=79	=79	=79	=79	=79	=79	=79	=79	=79	=79	=79	=79	=79	=79	=79	=79	=79	=79	=79
2.D^\_	p	(4c#^\	.	(4A^/	.	2.r	.	2.r	.	4AA/	(8e^/L	.	2.ryy	2.ryy	.	2.A] 2.AA\]	(4cc# 4a/	.
.	.	.	.	.	.	.	.	.	.	.	8a/	.	.	.	.	.	.	.
.	.	8B\)	.	8G/)	.	.	.	.	.	8r	8g/J	.	.	.	.	.	8b 8g/	.
.	.	8qc#/	.	.	.	.	.	.	.	.	.	.	.	.	.	.	8qcc# 8qa/	.
.	.	(8B\L	.	(8G/L	.	.	.	.	.	4r	8e/L	.	.	.	.	.	8bL 8g/	.
.	.	8A\)	.	8F#/)	.	.	.	.	.	.	8c#/	.	.	.	.	.	8a 8f#/	.
.	.	8G\J	.	8E/J	.	.	.	.	.	8r	8A/J)	.	.	.	.	.	8gJ 8e/	.
=80	=80	=80	=80	=80	=80	=80	=80	=80	=80	=80	=80	=80	=80	=80	=80	=80	=80	=80
2.D^\]	p	(4.A\	.	(4.F#/	.	2.r	.	2.r	.	4D\	(8f#^/L	.	2.ryy	2.ryy	.	2.A 2.D\	4a 4f#/	.
.	.	.	.	.	.	.	.	.	.	.	8d/	.	.	.	.	.	.	.
.	.	.	.	.	.	.	.	.	.	8r	8A/J	.	.	.	.	.	8f# 8d/)	.
.	.	8F#\)	.	8D/)	.	.	.	.	.	4r	8d/L	.	.	.	.	.	4r	.
.	.	8r	.	8r	.	.	.	.	.	.	8f#/	.	.	.	.	.	.	.
.	.	8A\	.	8F#/	.	.	.	.	.	8r	8a/J)	.	.	.	.	.	8a 8f#/	.
=81	=81	=81	=81	=81	=81	=81	=81	=81	=81	=81	=81	=81	=81	=81	=81	=81	=81	=81
[2.GG/	.	4.B\	<	4.G/	<	2.r	.	2.r	.	4D 4AA/	(8g^/L	.	2.ryy	2.ryy	.	[2.D 2.GG/	(4.b 4.g/	<
.	.	.	.	.	.	.	.	.	.	.	8d/	.	.	.	.	.	.	.
.	.	.	.	.	.	.	.	.	.	8r	8g/J	.	.	.	.	.	.	.
!	!	!	!	!	!LO:DY:a	!	!	!	!	!	!	!	!	!	!	!	!	!
.	.	(8d\L	[ >	(8B/L	[ >	.	.	.	.	4r	8dd/L	.	.	.	.	.	(8ddL 8b\)	[ >
.	.	8c#\	.	8A/	.	.	.	.	.	.	8d/	.	.	.	.	.	8cc#X 8a\	.
.	.	8B\J)	]	8G/J)	]	.	.	.	.	8r	8g/J)	.	.	.	.	.	8bJ 8g\)	]
!!LO:PB:g=original
=82	=82	=82	=82	=82	=82	=82	=82	=82	=82	=82	=82	=82	=82	=82	=82	=82	=82	=82
*	*	*	*	*	*	*	*	*	*	*	*	*	*	*	*	*^	*	*
2.GG/]	.	[4.B\	.	4.G/	.	2.r	.	2.r	.	4GG/	(8b/L	.	2.ryy	2.ryy	.	4.D/]	2.GG\	([4.b [4.g/	.
.	.	.	.	.	.	.	.	.	.	.	8g/	.	.	.	.	.	.	.	.
.	.	.	.	.	.	.	.	.	.	8r	8B/J	.	.	.	.	.	.	.	.
.	.	4B\]	.	4.D#X/	.	.	.	.	.	4r	8f#/L	.	.	.	.	4.D#X/	.	4b] 4g/]	.
.	.	.	.	.	.	.	.	.	.	.	8b/	.	.	.	.	.	.	.	.
.	.	8A\	.	.	.	.	.	.	.	8r	8B/J)	.	.	.	.	.	.	8a 8f#/	.
=83	=83	=83	=83	=83	=83	=83	=83	=83	=83	=83	=83	=83	=83	=83	=83	=83	=83	=83	=83
4.G\	.	4.G\	.	4.E/	.	2.r	.	2.r	.	4GG/	(8e/L	.	2.ryy	2.ryy	.	2.E/	4.GG\	4.g 4.e/	.
.	.	.	.	.	.	.	.	.	.	.	8B/	.	.	.	.	.	.	.	.
.	.	.	.	.	.	.	.	.	.	8r	8e/J	.	.	.	.	.	.	.	.
4.E\	.	8B\L	.	(8G/L	.	.	.	.	.	4EE/	8g/L	.	.	.	.	.	4.EE\	8bL 8g/	.
.	.	8G\	.	8E/)	.	.	.	.	.	.	8B/	.	.	.	.	.	.	8g 8e/	.
.	.	8F#\J	.	8D/J	.	.	.	.	.	8r	8d/J	.	.	.	.	.	.	8f#J 8d/	.
*	*	*	*	*	*	*	*	*	*	*	*	*	*	*	*	*v	*v	*	*
=84	=84	=84	=84	=84	=84	=84	=84	=84	=84	=84	=84	=84	=84	=84	=84	=84	=84	=84
*	*	*	*	*	*	*	*	*	*	*	*	*	*	*	*	*	*^	*
!	!	!	!	!	!	!	!	!	!	!	!	!	!	!	!	!	!LO:TX:a:Bi:t=Clar.:color=blue	!	!
2.A\	.	4.E\	.	8C#/L	.	2.r	.	2.r	.	4AA/	8c#/L	.	2.ryy	2.ryy	.	2.AA/	4.e/	2.c#\	.
.	.	.	.	8C#/	.	.	.	.	.	.	8A/	.	.	.	.	.	.	.	.
.	.	.	.	8C#/	.	.	.	.	.	8r	8c#/J	.	.	.	.	.	.	.	.
.	.	4.E#X\	.	8C#/	.	.	.	.	.	4r	8e#X^/L	.	.	.	.	.	4.e#X/	.	.
.	.	.	.	8C#/	.	.	.	.	.	.	8c#/	.	.	.	.	.	.	.	.
.	.	.	.	8C#/J	.	.	.	.	.	8r	8a/J)	.	.	.	.	.	.	.	.
*	*	*	*	*	*	*	*	*	*	*	*	*	*	*	*	*	*v	*v	*
=85	=85	=85	=85	=85	=85	=85	=85	=85	=85	=85	=85	=85	=85	=85	=85	=85	=85	=85
[2.D\	<[	4.F#\	.	4.D/	.	2.r	.	2.r	.	4AA/	(8f#/L	.	2.ryy	2.ryy	.	2.D 2.AA\	([4.f# [4.d/)	.
.	.	.	.	.	.	.	.	.	.	.	8d/	.	.	.	.	.	.	.
!	!	!	!	!	!	!	!	!	!	!	!	!LO:DY:a	!	!	!	!	!	!
.	.	.	.	.	.	.	.	.	.	8r	8A/J)	<	.	.	.	.	.	.
!	!	!	!	!	!LO:DY:a	!	!	!	!	!	!	!	!	!	!	!	!	!
.	.	(8F#\L	<	(8D/L	<	.	.	.	.	4r	(8A/L	.	.	.	.	.	8f#]L 8d/]	<
.	.	8A\)	.	8F#/)	.	.	.	.	.	.	8d/	.	.	.	.	.	8a 8f#/	.
.	.	8d\J	[[	8F#/J	[[	.	.	.	.	8r	8a/J)	[	.	.	.	.	8ddJ 8f#/	[
=86	=86	=86	=86	=86	=86	=86	=86	=86	=86	=86	=86	=86	=86	=86	=86	=86	=86	=86
*	*	*	*	*	*	*	*	*	*	*	*	*	*	*	*	*^	*	*
2.D\_	>]	[4.f#\	>	[4.A/	.	2.r	.	2.r	.	4D\	(8aL 8f#^/	mf	2.ryy	2.ryy	.	4.A/	2.D\	[4.ff# [4.a/	>
.	.	.	.	.	.	.	.	.	.	.	8d/	.	.	.	.	.	.	.	.
.	.	.	.	.	.	.	.	.	.	8r	8A/J)	.	.	.	.	.	.	.	.
!	!	!	!	!	!LO:DY:a	!	!	!	!	!	!	!	!	!	!	!	!	!	!
.	.	4f#\]	.	4A/]	>	.	.	.	.	4r	(8c#^/L	.	.	.	.	4c#X/	.	4ff#] 4a/]	]
.	.	.	.	.	.	.	.	.	.	.	8a/	.	.	.	.	.	.	.	.
.	.	8e\	]	8c#\	]	.	.	.	.	8r	8A/J)	.	.	.	.	8ryy	.	8ee 8g/)	.
!!LO:PB:g=original
=87	=87	=87	=87	=87	=87	=87	=87	=87	=87	=87	=87	=87	=87	=87	=87	=87	=87	=87	=87
*	*	*	*	*	*	*	*	*	*	*	*	*	*	*	*	*	*	*^	*
2.D\_	.	4d\	.	4.d\	.	2.r	.	2.r	.	4D\	(8d/L	.	2.ryy	2.ryy	.	4.d/	[2.D\	(4dd/	4.f#\	.
.	.	.	.	.	.	.	.	.	.	.	8a/	.	.	.	.	.	.	.	.	.
.	.	8A\	.	.	.	.	.	.	.	8r	8f#/J	.	.	.	.	.	.	8a/	.	.
.	.	4F#\	.	4D/	.	.	.	.	.	4r	8d/L	.	.	.	.	(4A/	.	4f# 4d/	4rcyy	.
.	.	.	.	.	.	.	.	.	.	.	8A/	.	.	.	.	.	.	.	.	.
.	.	8G\	.	8E/	.	.	.	.	.	8r	8A#X/J	.	.	.	.	8A#X/)	.	8g 8e/	8rcyy	.
*	*	*	*	*	*	*	*	*	*	*	*	*	*	*	*	*	*	*v	*v	*
=88	=88	=88	=88	=88	=88	=88	=88	=88	=88	=88	=88	=88	=88	=88	=88	=88	=88	=88	=88
4.D\_	.	4.B\	.	4.G/	.	2.r	.	4r	.	2.r	8B/L	.	2.ryy	2.ryy	.	8B/L	4.D\_	4.b 4.g/	.
.	.	.	.	.	.	.	.	.	.	.	8B#X/	.	.	.	.	8B#X/	.	.	.
.	.	.	.	.	.	.	.	8r	.	.	8c#/J)	.	.	.	.	8c#/J	.	.	.
4D\]	.	4A\	.	4F#/	.	.	.	8r	.	.	4d/	.	.	.	.	4d/	4D\]	4a 4f#/)	.
!	!	!	!	!	!	!	!	!LO:TX:a:i:t=dolciſsimo.	!	!	!	!	!	!	!	!	!	!	!
.	.	.	.	.	.	.	.	(8dd\L	pp	.	.	.	.	.	.	.	.	.	.
8r	.	8r	.	8r	.	.	.	8a\J)	.	.	8r	.	.	.	.	8r	8rEEyy	8r	.
*	*	*	*	*	*	*	*	*	*	*	*	*	*	*	*	*v	*v	*	*
=89	=89	=89	=89	=89	=89	=89	=89	=89	=89	=89	=89	=89	=89	=89	=89	=89	=89	=89
2.r	.	8r	.	8r	.	2.r	.	(4a/	.	2.ryy	2.ryy	.	2.ryy	2.ryy	.	2.ryy	2.ryy	.
.	.	8B'\L	.	8d'\L	pp	.	.	.	.	.	.	.	.	.	.	.	.	.
.	.	[8B\J	.	[8d\J	.	.	.	8g#X/)	.	.	.	.	.	.	.	.	.	.
.	.	8B\L]	.	8d\L]	.	.	.	(4g#/	.	.	.	.	.	.	.	.	.	.
.	.	8B-X'\	.	8d'\	.	.	.	.	.	.	.	.	.	.	.	.	.	.
.	.	[8B-\J	.	[8d\J	.	.	.	8gn/)	.	.	.	.	.	.	.	.	.	.
=90	=90	=90	=90	=90	=90	=90	=90	=90	=90	=90	=90	=90	=90	=90	=90	=90	=90	=90
2.r	.	8B-\L]	.	8d\L]	.	2.r	.	4.f#/	.	2.ryy	2.ryy	.	2.ryy	2.ryy	.	2.ryy	2.ryy	.
.	.	8A'\	.	8d'\	.	.	.	.	.	.	.	.	.	.	.	.	.	.
.	.	8G'\J	.	8d'\J	.	.	.	.	.	.	.	.	.	.	.	.	.	.
.	.	8F#\	.	8a 8d'\	.	.	.	8dd\	.	.	.	.	.	.	.	.	.	.
.	.	8r	.	8r	.	.	.	8r	.	.	.	.	.	.	.	.	.	.
.	.	8r	.	8r	.	.	.	8r	.	.	.	.	.	.	.	.	.	.
=91	=91	=91	=91	=91	=91	=91	=91	=91	=91	=91	=91	=91	=91	=91	=91	=91	=91	=91
2.r	.	8GG/	.	8r	.	8r	.	8r	.	2.ryy	2.ryy	.	2.ryy	2.ryy	.	2.ryy	2.ryy	.
.	.	8r	.	8B'/L	.	8d'/L	pp	8e'/L	.	.	.	.	.	.	.	.	.	.
.	.	8r	.	8B'/J	.	8d'/J	.	8e'/J	.	.	.	.	.	.	.	.	.	.
.	.	8AA/	.	8A'/L	.	(8c#/L	.	(8e/L	.	.	.	.	.	.	.	.	.	.
.	.	8r	.	8A'/	.	8d/)	.	8f#/)	.	.	.	.	.	.	.	.	.	.
.	.	8r	.	8A'/J	.	8e'/J	.	8g'/J	.	.	.	.	.	.	.	.	.	.
!!LO:PB:g=original
=92	=92	=92	=92	=92	=92	=92	=92	=92	=92	=92	=92	=92	=92	=92	=92	=92	=92	=92
!	!	!	!	!	!	!	!	!	!	!	!LO:TX:b:i:t=Arfa	!	!	!	!	!	!	!
2.r	.	[4.D\	.	4.G#X^/	pp	4.e#X^/	pp	4.b^\	pp	8r	8r	.	2.r	2.r	.	2.ryy	2.r	.
!	!	!	!	!	!	!	!	!	!	!LO:TX:b:i:t=Fag	!LO:TX:a:i:t=Cor.	!	!	!	!	!	!	!
.	.	.	.	.	.	.	.	.	.	8BL 8G#X'\	(8e#XL 8d'/	.	.	.	.	.	.	.
.	.	.	.	.	.	.	.	.	.	8BJ 8G#'\	8e#J 8d'/	.	.	.	.	.	.	.
.	.	8D\]	.	8A/	.	8f#/	.	8a\	.	8A'\	8f# 8d'/)	.	.	.	.	.	.	.
.	.	8r	.	8r	.	8r	.	8r	.	8ryy	8r	.	.	.	.	.	.	.
.	.	(8A\	.	[8A/	.	(8f#/	.	(8a\	.	8ryy	8r	.	.	.	.	.	.	.
=93	=93	=93	=93	=93	=93	=93	=93	=93	=93	=93	=93	=93	=93	=93	=93	=93	=93	=93
2.r	.	8G#X\)	.	8A/]	.	8e/)	.	8b\)	.	2.ryy	2.ryy	.	2.ryy	2.ryy	.	2.ryy	2.ryy	.
.	.	8r	.	8r	.	8r	.	8r	.	.	.	.	.	.	.	.	.	.
.	.	(8G#\	.	[8A/	.	[8e/	.	(8b\	.	.	.	.	.	.	.	.	.	.
.	.	8Gn\)	.	8A/]	.	8e/]	.	8cc#\)	.	.	.	.	.	.	.	.	.	.
.	.	8r	.	8r	.	8r	.	8r	.	.	.	.	.	.	.	.	.	.
.	.	(8G\	.	8A/	.	(8e/	.	8cc#\	.	.	.	.	.	.	.	.	.	.
=94	=94	=94	=94	=94	=94	=94	=94	=94	=94	=94	=94	=94	=94	=94	=94	=94	=94	=94
2.r	.	4F#\)	.	4A/	.	4d/)	.	4dd\	.	2.ryy	2.ryy	.	2.ryy	2.ryy	.	2.ryy	2.ryy	.
.	.	8r	.	8r	.	8r	.	8r	.	.	.	.	.	.	.	.	.	.
!	!	!	!	!	!	!LO:TX:a:t=Con sord.	!	!LO:TX:a:t=Con sord.	!	!	!	!	!	!	!	!	!	!
.	.	4r	.	4r	.	4r	.	4r	.	.	.	.	.	.	.	.	.	.
.	.	8r	.	8r	.	8r	.	8r	.	.	.	.	.	.	.	.	.	.
=95	=95	=95	=95	=95	=95	=95	=95	=95	=95	=95	=95	=95	=95	=95	=95	=95	=95	=95
*	*	*	*	*^	*	*	*	*	*	*	*	*	*	*	*	*	*	*
!	!	!LO:TX:b:t=divise	!	!LO:TX:b:t=divise	!	!	!	!	!	!	!	!	!	!	!	!	!	!	!
2.r	.	4.B 4.G\	.	(4.e/	2.d\	.	2.r	.	2.r	.	2.ryy	2.ryy	.	2.ryy	2.ryy	.	2.ryy	2.ryy	.
.	.	4.A 4.F#\	.	4.f#/	.	.	.	.	.	.	.	.	.	.	.	.	.	.	.
=96	=96	=96	=96	=96	=96	=96	=96	=96	=96	=96	=96	=96	=96	=96	=96	=96	=96	=96	=96
2.r	.	[2.B 2.E\	.	(2.a/)	[2.d\	.	2.r;	.	2.r	.	2.ryy	2.ryy	.	2.ryy	2.ryy	.	2.r;	2.r	.
*	*	*	*	*	*	*	*	*	*	*	*	*clefF4	*	*	*	*	*	*	*
!!LO:PB:g=original
=97	=97	=97	=97	=97	=97	=97	=97	=97	=97	=97	=97	=97	=97	=97	=97	=97	=97	=97	=97
*	*	*^	*	*	*	*	*	*	*	*	*	*	*	*	*	*	*	*	*
!	!	!	!	!	!	!	!	!	!	!LO:TX:b:t=Fermaty nad pauzami	!	!	!	!	!	!	!	!	!LO:TX:b:Bi:t=piu moſso.:color=blue	!
2.ryy	.	4B/]	4E\	.	4g/)	4d\]	.	2.r	.	2.r	.	2.r	4r	.	2.r	4r	.	2.ryy	2.ryy	.
!	!	!LO:TX:a:i:t=piu moſso.	!	!	!	!	!	!	!	!	!	!	!	!	!	!LO:TX:b:i:t=piu moſso.	!	!	!	!
.	.	8r	8rEEyy	.	8r	8rDyy	.	.	.	.	.	.	8r	.	.	8r	.	.	.	.
.	.	4r	4rEEyy	.	4r	4rDyy	.	.	.	.	.	.	4r	.	.	4r	.	.	.	.
.	.	8r	8rEEyy	.	8r	8rDyy	.	.	.	.	.	.	8A#X\	f	.	8a#X/	f	.	.	.
*	*	*v	*v	*	*	*	*	*	*	*	*	*	*	*	*	*	*	*	*	*
*	*	*	*	*v	*v	*	*	*	*	*	*	*	*	*	*	*	*	*	*
=98	=98	=98	=98	=98	=98	=98	=98	=98	=98	=98	=98	=98	=98	=98	=98	=98	=98	=98
!	!	!	!	!	!	!	!	!	!	!	!LO:TX:b:i:t=Fag	!	!	!LO:TX:a:i:t=Clar.	!	!	!	!
2.ryy	.	2.r	.	2.r	.	2.r	.	2.r	.	2.r	(4.c#X^\	.	2.r	(4.cc#X^\	.	2.ryy	2.ryy	.
.	.	.	.	.	.	.	.	.	.	.	8B\)	.	.	8b\)	.	.	.	.
.	.	.	.	.	.	.	.	.	.	.	8r	.	.	8r	.	.	.	.
.	.	.	.	.	.	.	.	.	.	.	8c#\	.	.	8cc#\	.	.	.	.
=99	=99	=99	=99	=99	=99	=99	=99	=99	=99	=99	=99	=99	=99	=99	=99	=99	=99	=99
2.ryy	.	2.r	.	2.r	.	4r	.	4r	.	2.r	(4.e^\	.	2.r	(4.ee^\	.	2.ryy	2.ryy	.
.	.	.	.	.	.	8r	.	8r	.	.	.	.	.	.	.	.	.	.
.	.	.	.	.	.	4r	.	4r	.	.	8d\)	.	.	8dd\)	.	.	.	.
.	.	.	.	.	.	.	.	.	.	.	8r	.	.	8r	.	.	.	.
*	*	*	*	*	*	*	*	*	*	*	*clefG2	*	*	*	*	*	*	*
!	!	!	!	!	!	!	!	!LO:TX:b:t=Con sord.	!	!	!	!	!	!	!	!	!	!
.	.	.	.	.	.	8f#`/	.	8ff#'\	.	.	8f#/	.	.	8ff#\	.	.	.	.
=100	=100	=100	=100	=100	=100	=100	=100	=100	=100	=100	=100	=100	=100	=100	=100	=100	=100	=100
2.r;	.	2.r;	.	2.r;	.	([4.a^;/	.	([4.aa^;\	.	2.r;	[4.a^;/	.	2.r;	[4.aa^;\	.	2.r;	2.r;	.
.	.	.	.	.	.	4a/]	.	4aa\]	.	.	4a/]	.	.	4aa\]	.	.	.	.
.	.	.	.	.	.	8g/)	.	8gg\)	.	.	8r	.	.	8r	.	.	.	.
=101	=101	=101	=101	=101	=101	=101	=101	=101	=101	=101	=101	=101	=101	=101	=101	=101	=101	=101
!	!	!	!	!	!	!	!	!LO:TX:a:i:t=piu lento.	!	!	!	!	!	!	!	!	!	!
2.ryy	.	2.ryy	.	2.ryy	.	8e/	.	(4ee^\	.	2.r	2.r	.	2.r	2.r	.	2.r	2.r	.
.	.	.	.	.	.	8r	.	.	.	.	.	.	.	.	.	.	.	.
.	.	.	.	.	.	8r	.	8dd\)	.	.	.	.	.	.	.	.	.	.
.	.	.	.	.	.	4r	.	(4b^\	>	.	.	.	.	.	.	.	.	.
.	.	.	.	.	.	8r	.	8a\)	.	.	.	.	.	.	.	.	.	.
!!LO:PB:g=original
=102	=102	=102	=102	=102	=102	=102	=102	=102	=102	=102	=102	=102	=102	=102	=102	=102	=102	=102
2.r	.	2.r	.	2.r	.	2.r	.	(4g/	.	2.r	2.r	.	2.r	2.r	.	2.r	2.r	.
.	.	.	.	.	.	.	.	8e/)	.	.	.	.	.	.	.	.	.	.
.	.	.	.	.	.	.	.	(4d/	.	.	.	.	.	.	.	.	.	.
.	.	.	.	.	.	.	.	8B/)	]	.	.	.	.	.	.	.	.	.
=103	=103	=103	=103	=103	=103	=103	=103	=103	=103	=103	=103	=103	=103	=103	=103	=103	=103	=103
2.r	.	4r	.	2.r	.	2.r	.	(4A/	.	2.r	2.r	.	2.r	2.r	.	2.r	2.r	.
.	.	8r	.	.	.	.	.	8G/)	.	.	.	.	.	.	.	.	.	.
.	.	(4E\	p	.	.	.	.	4r	.	.	.	.	.	.	.	.	.	.
.	.	8D\	>	.	.	.	.	8r	.	.	.	.	.	.	.	.	.	.
=104	=104	=104	=104	=104	=104	=104	=104	=104	=104	=104	=104	=104	=104	=104	=104	=104	=104	=104
4r	.	4BB/	.	2.r	.	2.r	.	2.r	.	2.r	2.r	.	2.r	2.r	.	2.r	2.r	.
8r	.	8GG/	]	.	.	.	.	.	.	.	.	.	.	.	.	.	.	.
(4D/	pp	4DD/	.	.	.	.	.	.	.	.	.	.	.	.	.	.	.	.
8BB/)	.	8BB/)	.	.	.	.	.	.	.	.	.	.	.	.	.	.	.	.
=105	=105	=105	=105	=105	=105	=105	=105	=105	=105	=105	=105	=105	=105	=105	=105	=105	=105	=105
!	!	!	!	!	!	!	!	!	!	!	!	!	!	!	!	!LO:TX:a:Bi:t=Fag:color=blue	!	!
!	!	!	!	!	!	!	!	!	!	!	!	!	!	!	!	!	!LO:TX:a:Bi:t=Clar.:color=blue	!
4GG/	.	4GG/	.	2.r	.	2.r	.	2.r	.	4GG 4GGG/	(16B/LL	.	2.r	2.r	.	[2.D [2.GG\	(4.g 4.B/	p
.	.	.	.	.	.	.	.	.	.	.	16d/	.	.	.	.	.	.	.
.	.	.	.	.	.	.	.	.	.	.	16g/	.	.	.	.	.	.	.
.	.	.	.	.	.	.	.	.	.	.	16b/	.	.	.	.	.	.	.
8r	.	8r	.	.	.	.	.	.	.	8r	16g/	.	.	.	.	.	.	.
.	.	.	.	.	.	.	.	.	.	.	16d/JJ	.	.	.	.	.	.	.
4r	.	4r	.	.	.	.	.	.	.	4r	16c#/LL	.	.	.	.	.	4.f# 4.c#/	.
.	.	.	.	.	.	.	.	.	.	.	16d/	.	.	.	.	.	.	.
.	.	.	.	.	.	.	.	.	.	.	16f#/	.	.	.	.	.	.	.
.	.	.	.	.	.	.	.	.	.	.	16a/	.	.	.	.	.	.	.
8r	.	8r	.	.	.	.	.	.	.	8r	16f#/	.	.	.	.	.	.	.
.	.	.	.	.	.	.	.	.	.	.	16d/JJ	.	.	.	.	.	.	.
=106	=106	=106	=106	=106	=106	=106	=106	=106	=106	=106	=106	=106	=106	=106	=106	=106	=106	=106
2.r	.	2.r	.	2.r	.	2.r	.	2.r	.	4GG 4GGG/	16B/LL	.	2.r	2.r	.	2.D] 2.GG\]	2.g 2.B/)	.
.	.	.	.	.	.	.	.	.	.	.	16d/	.	.	.	.	.	.	.
.	.	.	.	.	.	.	.	.	.	.	16g/	.	.	.	.	.	.	.
.	.	.	.	.	.	.	.	.	.	.	16b/	.	.	.	.	.	.	.
.	.	.	.	.	.	.	.	.	.	8r	16g/	.	.	.	.	.	.	.
.	.	.	.	.	.	.	.	.	.	.	16d/JJ	.	.	.	.	.	.	.
.	.	.	.	.	.	.	.	.	.	4r	16B/LL	.	.	.	.	.	.	.
.	.	.	.	.	.	.	.	.	.	.	16d/	.	.	.	.	.	.	.
.	.	.	.	.	.	.	.	.	.	.	16g/	.	.	.	.	.	.	.
.	.	.	.	.	.	.	.	.	.	.	16b/	.	.	.	.	.	.	.
.	.	.	.	.	.	.	.	.	.	8r	16g/	.	.	.	.	.	.	.
.	.	.	.	.	.	.	.	.	.	.	16d/JJ	.	.	.	.	.	.	.
!!LO:PB:g=original
=107	=107	=107	=107	=107	=107	=107	=107	=107	=107	=107	=107	=107	=107	=107	=107	=107	=107	=107
*	*	*	*	*	*	*	*	*	*	*	*	*	*	*	*	*	*^	*
2.r	.	2.r	.	2.r	.	2.r	.	2.r	.	4G 4GG/	16B/LL	.	2.r	2.r	.	2.G 2.GG\	4.e/	2.B\	.
.	.	.	.	.	.	.	.	.	.	.	16d/	.	.	.	.	.	.	.	.
.	.	.	.	.	.	.	.	.	.	.	16g/	.	.	.	.	.	.	.	.
.	.	.	.	.	.	.	.	.	.	.	16b/	.	.	.	.	.	.	.	.
.	.	.	.	.	.	.	.	.	.	8r	16g/	.	.	.	.	.	.	.	.
.	.	.	.	.	.	.	.	.	.	.	16d/JJ	.	.	.	.	.	.	.	.
.	.	.	.	.	.	.	.	.	.	4r	16B/LL	.	.	.	.	.	[4.d/	.	.
.	.	.	.	.	.	.	.	.	.	.	16d/	.	.	.	.	.	.	.	.
.	.	.	.	.	.	.	.	.	.	.	16g/	.	.	.	.	.	.	.	.
.	.	.	.	.	.	.	.	.	.	.	16b/	.	.	.	.	.	.	.	.
.	.	.	.	.	.	.	.	.	.	8r	16g/	.	.	.	.	.	.	.	.
.	.	.	.	.	.	.	.	.	.	.	16d/JJ	.	.	.	.	.	.	.	.
*	*	*	*	*	*	*	*	*	*	*	*	*	*	*	*	*	*v	*v	*
=108	=108	=108	=108	=108	=108	=108	=108	=108	=108	=108	=108	=108	=108	=108	=108	=108	=108	=108
2.r	.	2.r	.	2.r	.	2.r	.	2.r	.	4G 4GG/	16B/LL	.	2.ryy	2.ryy	.	[2.G [2.GG\	2.b 2.d/]	.
.	.	.	.	.	.	.	.	.	.	.	16d/	.	.	.	.	.	.	.
.	.	.	.	.	.	.	.	.	.	.	16g/	.	.	.	.	.	.	.
.	.	.	.	.	.	.	.	.	.	.	16b/	.	.	.	.	.	.	.
.	.	.	.	.	.	.	.	.	.	8r	16g/	.	.	.	.	.	.	.
.	.	.	.	.	.	.	.	.	.	.	16d/JJ	.	.	.	.	.	.	.
.	.	.	.	.	.	.	.	.	.	4r	16B/LL	.	.	.	.	.	.	.
.	.	.	.	.	.	.	.	.	.	.	16d/	.	.	.	.	.	.	.
.	.	.	.	.	.	.	.	.	.	.	16g/	.	.	.	.	.	.	.
.	.	.	.	.	.	.	.	.	.	.	16d/	.	.	.	.	.	.	.
.	.	.	.	.	.	.	.	.	.	8r	16B/	.	.	.	.	.	.	.
.	.	.	.	.	.	.	.	.	.	.	16G/JJ	.	.	.	.	.	.	.
=109	=109	=109	=109	=109	=109	=109	=109	=109	=109	=109	=109	=109	=109	=109	=109	=109	=109	=109
2.r	.	2.r	.	2.r	.	2.r	.	2.r	.	4GG 4GGG/	(16A/LL	.	2.ryy	2.ryy	.	2.G] 2.GG\]	2.a 2.fn 2.c#/	.
.	.	.	.	.	.	.	.	.	.	.	16c#/	.	.	.	.	.	.	.
.	.	.	.	.	.	.	.	.	.	.	16fn/	.	.	.	.	.	.	.
.	.	.	.	.	.	.	.	.	.	.	16a/)	.	.	.	.	.	.	.
.	.	.	.	.	.	.	.	.	.	8r	(16c#/	.	.	.	.	.	.	.
.	.	.	.	.	.	.	.	.	.	.	16f/JJ	.	.	.	.	.	.	.
.	.	.	.	.	.	.	.	.	.	4r	16a/LL	.	.	.	.	.	.	.
.	.	.	.	.	.	.	.	.	.	.	16cc#/)	.	.	.	.	.	.	.
.	.	.	.	.	.	.	.	.	.	.	(16f/	.	.	.	.	.	.	.
.	.	.	.	.	.	.	.	.	.	.	16a/	.	.	.	.	.	.	.
.	.	.	.	.	.	.	.	.	.	8r	16cc#/	.	.	.	.	.	.	.
.	.	.	.	.	.	.	.	.	.	.	16ffn/JJ)	.	.	.	.	.	.	.
=110	=110	=110	=110	=110	=110	=110	=110	=110	=110	=110	=110	=110	=110	=110	=110	=110	=110	=110
2.r	.	2.r	.	2.r	.	2.r	.	2.r	.	4GG 4GGG/	(16dd^/LL	.	2.ryy	2.ryy	.	2.F# 2.GG\	2.g 2.B/	.
.	.	.	.	.	.	.	.	.	.	.	16b/	.	.	.	.	.	.	.
.	.	.	.	.	.	.	.	.	.	.	16g/	.	.	.	.	.	.	.
.	.	.	.	.	.	.	.	.	.	.	16fn/	.	.	.	.	.	.	.
.	.	.	.	.	.	.	.	.	.	8r	16d/	.	.	.	.	.	.	.
.	.	.	.	.	.	.	.	.	.	.	16B/JJ)	.	.	.	.	.	.	.
.	.	.	.	.	.	.	.	.	.	4r	(16g^/LL	.	.	.	.	.	.	.
.	.	.	.	.	.	.	.	.	.	.	16f/	.	.	.	.	.	.	.
.	.	.	.	.	.	.	.	.	.	.	16d/	.	.	.	.	.	.	.
.	.	.	.	.	.	.	.	.	.	.	16B/	.	.	.	.	.	.	.
.	.	.	.	.	.	.	.	.	.	8r	16G/	.	.	.	.	.	.	.
.	.	.	.	.	.	.	.	.	.	.	16g/JJ)	.	.	.	.	.	.	.
=111	=111	=111	=111	=111	=111	=111	=111	=111	=111	=111	=111	=111	=111	=111	=111	=111	=111	=111
*	*	*	*	*	*	*	*	*	*	*	*	*	*	*	*	*^	*	*
2.r	.	2.r	.	2.r	.	2.r	.	2.r	.	4.E 4.GG/	(16c#/LL	.	2.r	2.r	.	4.E/	2.GG\	2.g 2.c#/	.
.	.	.	.	.	.	.	.	.	.	.	16G/	.	.	.	.	.	.	.	.
.	.	.	.	.	.	.	.	.	.	.	16c#/	.	.	.	.	.	.	.	.
.	.	.	.	.	.	.	.	.	.	.	16g/)	.	.	.	.	.	.	.	.
.	.	.	.	.	.	.	.	.	.	.	(16c#/	.	.	.	.	.	.	.	.
.	.	.	.	.	.	.	.	.	.	.	16g/JJ	.	.	.	.	.	.	.	.
.	.	.	.	.	.	.	.	.	.	4.D#X 4.GG/	16cc#/LL	.	.	.	.	4.D#X/	.	.	.
.	.	.	.	.	.	.	.	.	.	.	16g/)	.	.	.	.	.	.	.	.
.	.	.	.	.	.	.	.	.	.	.	(16c#/	.	.	.	.	.	.	.	.
.	.	.	.	.	.	.	.	.	.	.	16g/	.	.	.	.	.	.	.	.
.	.	.	.	.	.	.	.	.	.	.	16f#X/	.	.	.	.	.	.	.	.
.	.	.	.	.	.	.	.	.	.	.	16g/JJ))	.	.	.	.	.	.	.	.
!!LO:PB:g=original
=112	=112	=112	=112	=112	=112	=112	=112	=112	=112	=112	=112	=112	=112	=112	=112	=112	=112	=112	=112
*	*	*	*	*	*	*	*	*	*	*	*	*	*	*	*	*	*	*^	*
4r	.	4r	.	4r	.	4r	.	4r	.	4GG/	16e/LL	.	4r	4r	.	2.E/	2.GG\	2.e/	2.B\	.
.	.	.	.	.	.	.	.	.	.	.	16B/	.	.	.	.	.	.	.	.	.
.	.	.	.	.	.	.	.	.	.	.	16G/	.	.	.	.	.	.	.	.	.
.	.	.	.	.	.	.	.	.	.	.	16E/	.	.	.	.	.	.	.	.	.
8r	.	8r	.	8r	.	8r	.	8r	.	8r	16G/	.	8r	8r	.	.	.	.	.	.
.	.	.	.	.	.	.	.	.	.	.	16B/JJ	.	.	.	.	.	.	.	.	.
4r	.	4r	.	4r	.	4r	.	4r	.	4r	16G/LL	.	4r	4r	pp	.	.	.	.	.
.	.	.	.	.	.	.	.	.	.	.	16E/	.	.	.	.	.	.	.	.	.
.	.	.	.	.	.	.	.	.	.	.	16BB/	.	.	.	.	.	.	.	.	.
.	.	.	.	.	.	.	.	.	.	.	16E/	.	.	.	.	.	.	.	.	.
8GG/	pp	8E 8GG/	pp	8B/	pp	8f#/	pp	8b/	pp	8r	16G/	.	(16b/LL	(16bb\LL	.	.	.	.	.	.
.	.	.	.	.	.	.	.	.	.	.	16B/JJ	.	16g/JJ	16gg\JJ	.	.	.	.	.	.
=113	=113	=113	=113	=113	=113	=113	=113	=113	=113	=113	=113	=113	=113	=113	=113	=113	=113	=113	=113	=113
!LO:TX:b:t=pizzi	!	!LO:TX:b:t=pizzi	!	!LO:TX:b:t=pizzi	!	!LO:TX:b:t=pizzi	!	!LO:TX:b:t=pizzi	!	!	!	!	!	!	!	!	!	!	!	!
8GG/	.	8E 8GG/	.	8B/	.	8e/	.	8b/	.	4GG\	16r	.	8e/)	8ee\)	.	2.E/	2.GG\	(2.b/	2.B\	.
.	.	.	.	.	.	.	.	.	.	.	16E/LL	.	.	.	.	.	.	.	.	.
8r	.	8r	.	8r	.	8r	.	8r	.	.	16B/	.	8r	8r	.	.	.	.	.	.
.	.	.	.	.	.	.	.	.	.	.	16e/	.	.	.	.	.	.	.	.	.
8r	.	8r	.	8r	.	8r	.	8r	.	8r	16B/	.	8r	8r	.	.	.	.	.	.
.	.	.	.	.	.	.	.	.	.	.	16E/JJ	.	.	.	.	.	.	.	.	.
!	!	!	!	!	!	!	!	!LO:TX:b:i:t=cantabile	!	!	!	!	!	!	!	!	!	!	!	!
4r	.	4r	.	4r	.	4r	.	([4.ee^/	.	4GG\	16r	.	4r	4r	.	.	.	.	.	.
.	.	.	.	.	.	.	.	.	.	.	16E/LL	.	.	.	.	.	.	.	.	.
.	.	.	.	.	.	.	.	.	.	.	16B/	.	.	.	.	.	.	.	.	.
.	.	.	.	.	.	.	.	.	.	.	16e/	.	.	.	.	.	.	.	.	.
8r	.	8r	.	8r	.	8r	.	.	.	8r	16B/	.	8r	8r	.	.	.	.	.	.
.	.	.	.	.	.	.	.	.	.	.	16E/JJ	.	.	.	.	.	.	.	.	.
=114	=114	=114	=114	=114	=114	=114	=114	=114	=114	=114	=114	=114	=114	=114	=114	=114	=114	=114	=114	=114
2.r	.	2.r	.	2.r	.	2.r	.	4ee\]	.	4.GG^\	16r	.	2.r	2.r	.	2E/	(4.GG\	2.a/	2.c#\	.
.	.	.	.	.	.	.	.	.	.	.	16E/LL	.	.	.	.	.	.	.	.	.
.	.	.	.	.	.	.	.	.	.	.	16A/	.	.	.	.	.	.	.	.	.
.	.	.	.	.	.	.	.	.	.	.	16e/	.	.	.	.	.	.	.	.	.
.	.	.	.	.	.	.	.	8cc#\	.	.	16c#/	.	.	.	.	.	.	.	.	.
.	.	.	.	.	.	.	.	.	.	.	16A/JJ	.	.	.	.	.	.	.	.	.
.	.	.	.	.	.	.	.	4a/)	.	4FF#\	16r	.	.	.	.	.	4FF#\)	.	.	.
!	!	!	!	!	!	!	!	!	!	!	!LO:TX:t=P:problem=mixed beam	!	!	!	!	!	!	!	!	!
.	.	.	.	.	.	.	.	.	.	.	16A/LL	.	.	.	.	.	.	.	.	.
.	.	.	.	.	.	.	.	.	.	.	16c#/	.	.	.	.	4E/yy	.	.	.	.
.	.	.	.	.	.	.	.	.	.	.	16e/	.	.	.	.	.	.	.	.	.
.	.	.	.	.	.	.	.	8f#/	.	8EE\	16c#/	.	.	.	.	.	8EE\	.	.	.
.	.	.	.	.	.	.	.	.	.	.	16A/JJ	.	.	.	.	.	.	.	.	.
*	*	*	*	*	*	*	*	*	*	*	*	*	*	*	*	*v	*v	*	*	*
=115	=115	=115	=115	=115	=115	=115	=115	=115	=115	=115	=115	=115	=115	=115	=115	=115	=115	=115	=115
2.r	.	2.r	.	2.r	.	2.r	.	(4.e^/	.	4BBB/	16r	.	2.r	2.r	.	2.BB/	[2.f#/	(4.B\	.
!	!	!	!	!	!	!	!	!	!	!	!LO:TX:t=P:problem=mixed beam	!	!	!	!	!	!	!	!
.	.	.	.	.	.	.	.	.	.	.	16A/LL	.	.	.	.	.	.	.	.
.	.	.	.	.	.	.	.	.	.	.	16B/	.	.	.	.	.	.	.	.
.	.	.	.	.	.	.	.	.	.	.	16f#/	.	.	.	.	.	.	.	.
.	.	.	.	.	.	.	.	.	.	8r	16B/	.	.	.	.	.	.	.	.
.	.	.	.	.	.	.	.	.	.	.	16A/JJ	.	.	.	.	.	.	.	.
.	.	.	.	.	.	.	.	8d#X/L	.	4BB 4BBB/	16r	.	.	.	.	.	.	4.d#X 4.B\)	.
!	!	!	!	!	!	!	!	!	!	!	!LO:TX:t=P:problem=mixed beam	!	!	!	!	!	!	!	!
.	.	.	.	.	.	.	.	.	.	.	16A/LL	.	.	.	.	.	.	.	.
.	.	.	.	.	.	.	.	8.f#/)	.	.	16B/	.	.	.	.	.	.	.	.
.	.	.	.	.	.	.	.	.	.	.	16f#/	.	.	.	.	.	.	.	.
.	.	.	.	.	.	.	.	.	.	8r	16d#X/	.	.	.	.	.	.	.	.
.	.	.	.	.	.	.	.	16B/Jk	.	.	16B/JJ	.	.	.	.	.	.	.	.
=116	=116	=116	=116	=116	=116	=116	=116	=116	=116	=116	=116	=116	=116	=116	=116	=116	=116	=116	=116
2.ryy	.	2.ryy	.	2.ryy	.	2.ryy	.	(8B^/L	.	4BB 4EE/	16r	.	2.r	2.r	.	2.E 2.EE/	4.f#] 4.d/	2.B\	.
!	!	!	!	!	!	!	!	!	!	!	!LO:TX:t=P:problem=mixed beam	!	!	!	!	!	!	!	!
.	.	.	.	.	.	.	.	.	.	.	16F#/LL	.	.	.	.	.	.	.	.
.	.	.	.	.	.	.	.	8c#X/	.	.	16B/	.	.	.	.	.	.	.	.
.	.	.	.	.	.	.	.	.	.	.	16f#/	.	.	.	.	.	.	.	.
.	.	.	.	.	.	.	.	8d#X/J	.	8r	16d#X/	.	.	.	.	.	.	.	.
.	.	.	.	.	.	.	.	.	.	.	16B/JJ	.	.	.	.	.	.	.	.
.	.	.	.	.	.	.	.	4e/	.	4E\	16r	.	.	.	.	.	4.g 4.e/)	.	.
!	!	!	!	!	!	!	!	!	!	!	!LO:TX:t=P:problem=mixed beam	!	!	!	!	!	!	!	!
.	.	.	.	.	.	.	.	.	.	.	16G/LL	.	.	.	.	.	.	.	.
.	.	.	.	.	.	.	.	.	.	.	16B/	.	.	.	.	.	.	.	.
.	.	.	.	.	.	.	.	.	.	.	16g/	.	.	.	.	.	.	.	.
.	.	.	.	.	.	.	.	8f#/)	.	8r	16e/	.	.	.	.	.	.	.	.
.	.	.	.	.	.	.	.	.	.	.	16B/JJ	.	.	.	.	.	.	.	.
!!LO:PB:g=original
=117	=117	=117	=117	=117	=117	=117	=117	=117	=117	=117	=117	=117	=117	=117	=117	=117	=117	=117	=117
2.r	.	2.r	.	2.r	.	2.r	.	(4.g/	.	4BB/	16r	.	2.ryy	2.ryy	.	4.BB/	2.g/	4.d\	.
.	.	.	.	.	.	.	.	.	.	.	(16G/LL	.	.	.	.	.	.	.	.
.	.	.	.	.	.	.	.	.	.	.	16d/	.	.	.	.	.	.	.	.
.	.	.	.	.	.	.	.	.	.	.	16g/	.	.	.	.	.	.	.	.
.	.	.	.	.	.	.	.	.	.	8r	16d/	.	.	.	.	.	.	.	.
.	.	.	.	.	.	.	.	.	.	.	16B/JJ)	.	.	.	.	.	.	.	.
.	.	.	.	.	.	.	.	8d/)	.	4GG/	16r	.	.	.	.	4.GG/	.	4.B\	.
.	.	.	.	.	.	.	.	.	.	.	(16B/LL	.	.	.	.	.	.	.	.
.	.	.	.	.	.	.	.	[4d/	.	.	16d/	.	.	.	.	.	.	.	.
.	.	.	.	.	.	.	.	.	.	.	16b/	.	.	.	.	.	.	.	.
.	.	.	.	.	.	.	.	.	.	8r	16g/	.	.	.	.	.	.	.	.
.	.	.	.	.	.	.	.	.	.	.	16d/JJ)	.	.	.	.	.	.	.	.
=118	=118	=118	=118	=118	=118	=118	=118	=118	=118	=118	=118	=118	=118	=118	=118	=118	=118	=118	=118
2.r	.	2.r	.	2.r	.	2.r	.	8d/]	.	4.DD/	(16f#^/LL	.	2.ryy	2.ryy	.	2.D 2.DD/	(4f#/	4.A\	.
.	.	.	.	.	.	.	.	.	.	.	16a/	.	.	.	.	.	.	.	.
.	.	.	.	.	.	.	.	([4ff#^\	.	.	16f#/	.	.	.	.	.	.	.	.
.	.	.	.	.	.	.	.	.	.	.	16d/	.	.	.	.	.	.	.	.
.	.	.	.	.	.	.	.	.	.	.	16A/	.	.	.	.	.	8a/)	.	.
.	.	.	.	.	.	.	.	.	.	.	16d/JJ)	.	.	.	.	.	.	.	.
.	.	.	.	.	.	.	.	8ff#\L]	.	4.D\	(16f#^/LL	.	.	.	.	.	4.a/	4.d\	.
.	.	.	.	.	.	.	.	.	.	.	16a/	.	.	.	.	.	.	.	.
.	.	.	.	.	.	.	.	16ee'\L	.	.	16f#/	.	.	.	.	.	.	.	.
.	.	.	.	.	.	.	.	16dd'\	.	.	16d/	.	.	.	.	.	.	.	.
.	.	.	.	.	.	.	.	16cc#X'\	.	.	16A/	.	.	.	.	.	.	.	.
.	.	.	.	.	.	.	.	16b'\JJ)	.	.	16d/JJ)	.	.	.	.	.	.	.	.
*	*	*	*	*	*	*	*	*	*	*	*	*	*	*	*	*	*v	*v	*
=119	=119	=119	=119	=119	=119	=119	=119	=119	=119	=119	=119	=119	=119	=119	=119	=119	=119	=119
!	!	!	!	!	!	!	!	!	!LO:DY:a	!	!	!	!	!	!	!	!	!
2.r	.	2.r	.	2.r	.	2.r	.	16cc#X\LL	<	4AA/	(16e/LL	.	2.ryy	2.ryy	.	2.AA/	2.ryy	.
.	.	.	.	.	.	.	.	16dd\JJ	.	.	16a/	.	.	.	.	.	.	.
.	.	.	.	.	.	.	.	([4ee\	.	.	16e/	.	.	.	.	.	.	.
.	.	.	.	.	.	.	.	.	.	.	16c#X/	.	.	.	.	.	.	.
.	.	.	.	.	.	.	.	.	.	8r	16A/	.	.	.	.	.	.	.
.	.	.	.	.	.	.	.	.	.	.	16c#/JJ	.	.	.	.	.	.	.
.	.	.	.	.	.	.	.	8ee\L]	[	4AA/	(16e/LL)	.	.	.	.	.	.	.
.	.	.	.	.	.	.	.	.	.	.	16a/	.	.	.	.	.	.	.
.	.	.	.	.	.	.	.	8cc#\)	.	.	16g/	.	.	.	.	.	.	.
.	.	.	.	.	.	.	.	.	.	.	16e/	.	.	.	.	.	.	.
.	.	.	.	.	.	.	.	8a\J	.	8r	16c#/	.	.	.	.	.	.	.
.	.	.	.	.	.	.	.	.	.	.	16a/JJ)	.	.	.	.	.	.	.
=120	=120	=120	=120	=120	=120	=120	=120	=120	=120	=120	=120	=120	=120	=120	=120	=120	=120	=120
4r	.	4r	.	4r	.	4r	.	(4.a^\	.	4.D\	(16e/LL	.	4r	4r	.	2.ryy	2.ryy	.
.	.	.	.	.	.	.	.	.	.	.	16a/	.	.	.	.	.	.	.
.	.	.	.	.	.	.	.	.	.	.	16e/	.	.	.	.	.	.	.
.	.	.	.	.	.	.	.	.	.	.	16A/	.	.	.	.	.	.	.
8r	.	8r	.	8r	.	8r	.	.	.	.	16e/	.	8r	8r	.	.	.	.
.	.	.	.	.	.	.	.	.	.	.	16a/JJ)	.	.	.	.	.	.	.
4r	.	4r	.	4r	.	4r	.	4d/)	.	4D\	(16f#/LL	.	4r	4r	.	.	.	.
.	.	.	.	.	.	.	.	.	.	.	16a/JJ)	.	.	.	.	.	.	.
.	.	.	.	.	.	.	.	.	.	.	(16d/LL	.	.	.	.	.	.	.
.	.	.	.	.	.	.	.	.	.	.	16f#/JJ)	.	.	.	.	.	.	.
8D\	pp	8D 8AA/	pp	8a 8d\	pp	8f# 8A/	pp	8r	.	8r	(16A/LL	.	(16a/LL	(16aa\LL	pp	.	.	.
.	.	.	.	.	.	.	.	.	.	.	16d/JJ)	.	16f#/JJ	16ff#\JJ	.	.	.	.
*	*	*	*	*	*	*	*	*	*	*	*clefF4	*	*	*	*	*	*	*
=121	=121	=121	=121	=121	=121	=121	=121	=121	=121	=121	=121	=121	=121	=121	=121	=121	=121	=121
!	!	!	!	!	!	!	!	!	!	!	!	!	!	!	!	!	!LO:TX:a:Bi:t=Fl:color=blue	!
8D\	.	8D 8AA/	.	8a 8d\	.	8f# 8A/	.	8r	.	4DD/	(16F#\LL	.	8d/)	8dd\)	.	2.A [2.D\	[2.f#/	pp
.	.	.	.	.	.	.	.	.	.	.	16A\)	.	.	.	.	.	.	.
8r	.	8r	.	8r	.	8r	.	8r	.	.	(16D\	.	8r	8r	.	.	.	.
.	.	.	.	.	.	.	.	.	.	.	16F#\)	.	.	.	.	.	.	.
!	!	!	!	!	!	!	!	!LO:TX:b:i:t=dolciſsimo.	!	!	!	!	!	!	!	!	!	!
8r	.	8r	.	8r	.	8r	.	(8a^/	.	8r	(16A\	.	8r	8r	.	.	.	.
.	.	.	.	.	.	.	.	.	.	.	16d\JJ)	.	.	.	.	.	.	.
4r	.	4r	.	4r	.	4r	.	[4.ff#\)	.	4D\	16f#\LL	.	4ryy	4ryy	.	.	.	.
.	.	.	.	.	.	.	.	.	.	.	16d\	.	.	.	.	.	.	.
.	.	.	.	.	.	.	.	.	.	.	16F#\	.	.	.	.	.	.	.
.	.	.	.	.	.	.	.	.	.	.	16d\	.	.	.	.	.	.	.
8r	.	8r	.	8r	.	8r	.	.	.	8r	16f#\	.	8ryy	8ryy	.	.	.	.
.	.	.	.	.	.	.	.	.	.	.	16d\JJ	.	.	.	.	.	.	.
!!LO:PB:g=original
=122	=122	=122	=122	=122	=122	=122	=122	=122	=122	=122	=122	=122	=122	=122	=122	=122	=122	=122
4D\	.	4D\	.	2.r	.	2.r	.	4ff#\]	.	4D 4DD/	16f#\LL	.	2.r	2.r	.	2.A#X 2.D\_	2.f#/_	.
.	.	.	.	.	.	.	.	.	.	.	16d\	.	.	.	.	.	.	.
.	.	.	.	.	.	.	.	.	.	.	16F#\	.	.	.	.	.	.	.
.	.	.	.	.	.	.	.	.	.	.	16d\	.	.	.	.	.	.	.
8r	.	8r	.	.	.	.	.	(8a#X/	>	8r	16f#\	.	.	.	.	.	.	.
.	.	.	.	.	.	.	.	.	.	.	16d\JJ	.	.	.	.	.	.	.
4r	.	4r	.	.	.	.	.	[4.ff#\)	]]	4.D/	16f#\LL	.	.	.	.	.	.	.
.	.	.	.	.	.	.	.	.	.	.	16d\	.	.	.	.	.	.	.
.	.	.	.	.	.	.	.	.	.	.	16F#\	.	.	.	.	.	.	.
.	.	.	.	.	.	.	.	.	.	.	16d\	.	.	.	.	.	.	.
8r	.	8r	.	.	.	.	.	.	.	.	16f#\	.	.	.	.	.	.	.
.	.	.	.	.	.	.	.	.	.	.	16d\JJ	.	.	.	.	.	.	.
=123	=123	=123	=123	=123	=123	=123	=123	=123	=123	=123	=123	=123	=123	=123	=123	=123	=123	=123
4D\	.	4.D\	.	[2.B/	.	[2.f#/	pp	4ff#\]	.	4BB/	16f#\LL	.	2.r	2.r	.	8B 8D\]	8f#/]	.
.	.	.	.	.	.	.	.	.	.	.	16B\	.	.	.	.	.	.	.
.	.	.	.	.	.	.	.	.	.	.	16F#\	.	.	.	.	8r	8r	.
.	.	.	.	.	.	.	.	.	.	.	16B\	.	.	.	.	.	.	.
8r	.	.	.	.	.	.	.	([8ff#^\	.	8r	16f#\	.	.	.	.	8r	8r	.
.	.	.	.	.	.	.	.	.	.	.	16B\JJ	.	.	.	.	.	.	.
4D#X\	.	4.D#X\	.	.	.	.	.	8ff#\L]	.	4BB/	16f#\LL	.	.	.	.	4r	4r	.
.	.	.	.	.	.	.	.	.	.	.	16B\	.	.	.	.	.	.	.
.	.	.	.	.	.	.	.	8gg\)	.	.	16F#\	.	.	.	.	.	.	.
.	.	.	.	.	.	.	.	.	.	.	16B\	.	.	.	.	.	.	.
8r	.	.	.	.	.	.	.	8aa\J	.	8r	16f#\	.	.	.	.	8r	8r	.
.	.	.	.	.	.	.	.	.	.	.	16B\JJ	.	.	.	.	.	.	.
=124	=124	=124	=124	=124	=124	=124	=124	=124	=124	=124	=124	=124	=124	=124	=124	=124	=124	=124
4E\	.	[4.E\	.	2.B/_	.	4.f#/]	.	[4.b^\	.	(4.BB^/	16f#\LL	.	2.r	2.r	.	2.r	2.r	.
.	.	.	.	.	.	.	.	.	.	.	16B\	.	.	.	.	.	.	.
.	.	.	.	.	.	.	.	.	.	.	16F#\	.	.	.	.	.	.	.
.	.	.	.	.	.	.	.	.	.	.	16B\	.	.	.	.	.	.	.
8r	.	.	.	.	.	.	.	.	.	.	16f#\	.	.	.	.	.	.	.
.	.	.	.	.	.	.	.	.	.	.	16B\JJ	.	.	.	.	.	.	.
4r	.	4E\]	.	.	.	[4.g/	.	8b\L]	.	4E\)	16e\LL	.	.	.	.	.	.	.
.	.	.	.	.	.	.	.	.	.	.	16B\	.	.	.	.	.	.	.
.	.	.	.	.	.	.	.	(16g'\L	.	.	16G\	.	.	.	.	.	.	.
.	.	.	.	.	.	.	.	16b'\	.	.	16B\	.	.	.	.	.	.	.
8r	.	8r	.	.	.	.	.	16ee'\	.	8r	16e\	.	.	.	.	.	.	.
.	.	.	.	.	.	.	.	16ff#'\JJ	.	.	16B\JJ	.	.	.	.	.	.	.
=125	=125	=125	=125	=125	=125	=125	=125	=125	=125	=125	=125	=125	=125	=125	=125	=125	=125	=125
4E\	.	4E\	.	4B/]	.	4g/]	.	8gg\)	.	4E 4EE/	16g\LL	.	2.r	2.r	.	2.B 2.E\	[2.g\	.
.	.	.	.	.	.	.	.	.	.	.	16B\	.	.	.	.	.	.	.
.	.	.	.	.	.	.	.	8r	.	.	16G\	.	.	.	.	.	.	.
.	.	.	.	.	.	.	.	.	.	.	16B\	.	.	.	.	.	.	.
8r	.	8r	.	8r	.	8r	.	(8b\	>	8r	16g\	.	.	.	.	.	.	.
.	.	.	.	.	.	.	.	.	.	.	16B\JJ	.	.	.	.	.	.	.
4r	.	4r	.	4r	.	4r	.	[4.gg\)	]	4E\	16g\LL	.	.	.	.	.	.	.
.	.	.	.	.	.	.	.	.	.	.	16B\	.	.	.	.	.	.	.
.	.	.	.	.	.	.	.	.	.	.	16G\	.	.	.	.	.	.	.
.	.	.	.	.	.	.	.	.	.	.	16B\	.	.	.	.	.	.	.
8r	.	8r	.	8r	.	8r	.	.	.	8r	16g\	.	.	.	.	.	.	.
.	.	.	.	.	.	.	.	.	.	.	16B\JJ	.	.	.	.	.	.	.
=126	=126	=126	=126	=126	=126	=126	=126	=126	=126	=126	=126	=126	=126	=126	=126	=126	=126	=126
4E\	.	4E\	.	2.r	.	2.r	.	4gg\]	.	4E 4EE/	16g\LL	.	2.r	2.r	.	2.c# 2.E\	2.g\_	.
.	.	.	.	.	.	.	.	.	.	.	16c#\	.	.	.	.	.	.	.
.	.	.	.	.	.	.	.	.	.	.	16G\	.	.	.	.	.	.	.
.	.	.	.	.	.	.	.	.	.	.	16c#\	.	.	.	.	.	.	.
8r	.	8r	.	.	.	.	.	(8cc#\	>	8r	16g\	.	.	.	.	.	.	.
.	.	.	.	.	.	.	.	.	.	.	16c#\JJ	.	.	.	.	.	.	.
4r	.	4r	.	.	.	.	.	[4.gg\)	]	4E\	16g\LL	.	.	.	.	.	.	.
.	.	.	.	.	.	.	.	.	.	.	16c#\	.	.	.	.	.	.	.
.	.	.	.	.	.	.	.	.	.	.	16G\	.	.	.	.	.	.	.
.	.	.	.	.	.	.	.	.	.	.	16c#\	.	.	.	.	.	.	.
8r	.	8r	.	.	.	.	.	.	.	8r	16g\	.	.	.	.	.	.	.
.	.	.	.	.	.	.	.	.	.	.	16c#\JJ	.	.	.	.	.	.	.
!!LO:PB:g=original
=127	=127	=127	=127	=127	=127	=127	=127	=127	=127	=127	=127	=127	=127	=127	=127	=127	=127	=127
!	!	!LO:TX:a:t=arco	!	!	!	!LO:TX:a:t=arco	!	!	!	!	!	!	!	!	!	!	!	!
2.r	.	2.C# 2.CC#/	fp	(4.B-X/	fp	(2.e 2.G/	fp	4gg\]	.	4C#/	16g\LL	.	2.ryy	2.ryy	.	8C#/	8g] 8c#/	.
.	.	.	.	.	.	.	.	.	.	.	16e\	.	.	.	.	.	.	.
.	.	.	.	.	.	.	.	.	.	.	16c#\	.	.	.	.	8r	8r	.
.	.	.	.	.	.	.	.	.	.	.	16c#X\	.	.	.	.	.	.	.
.	.	.	.	.	.	.	.	([8bb-X^\	.	8r	16e\	.	.	.	.	8r	8r	.
.	.	.	.	.	.	.	.	.	.	.	16d\JJ	.	.	.	.	.	.	.
.	.	.	.	4.c#/)	.	.	.	8bb-\L]	.	4.C#/	16B-X\LL	.	.	.	.	4r	4r	.
.	.	.	.	.	.	.	.	.	.	.	16G\	.	.	.	.	.	.	.
.	.	.	.	.	.	.	.	8aa\)	.	.	16E\	.	.	.	.	.	.	.
.	.	.	.	.	.	.	.	.	.	.	16C#\	.	.	.	.	.	.	.
.	.	.	.	.	.	.	.	8gg\J	.	.	16G\	.	.	.	.	8r	8r	.
.	.	.	.	.	.	.	.	.	.	.	16c#\JJ	.	.	.	.	.	.	.
=128	=128	=128	=128	=128	=128	=128	=128	=128	=128	=128	=128	=128	=128	=128	=128	=128	=128	=128
2.r	.	[4.FFn/	.	4.B-X/	.	4.g/)	.	(8.gg^\L	.	4.FFn/	16r	.	4r	4r	.	2.ryy	2.ryy	.
.	.	.	.	.	.	.	.	.	.	.	(16C#/LL	.	.	.	.	.	.	.
.	.	.	.	.	.	.	.	.	.	.	16D/	.	.	.	.	.	.	.
.	.	.	.	.	.	.	.	16ffn\L	.	.	16E/	.	.	.	.	.	.	.
.	.	.	.	.	.	.	.	16ee\	.	.	16Fn/	.	8r	8r	.	.	.	.
.	.	.	.	.	.	.	.	16ff\JJ	.	.	16G/JJ	.	.	.	.	.	.	.
.	.	4FF/]	.	4A/	.	4fn/	.	4cc#\)	.	4.Fn\	16A\LL	.	4r	4r	.	.	.	.
.	.	.	.	.	.	.	.	.	.	.	16cn\	.	.	.	.	.	.	.
.	.	.	.	.	.	.	.	.	.	.	16fn\	.	.	.	.	.	.	.
.	.	.	.	.	.	.	.	.	.	.	16c\	.	.	.	.	.	.	.
!	!	!	!	!	!	!	!	!	!	!	!	!	!	!LO:TX:a:i:t=Fl	!	!	!	!
.	.	8r	.	8r	.	8r	.	8r	.	.	16A\)	.	(16cc#/LL	(16ccc#\LL	pp	.	.	.
.	.	.	.	.	.	.	.	.	.	.	16F\JJ	.	16a/JJ	16aa\JJ	.	.	.	.
=129	=129	=129	=129	=129	=129	=129	=129	=129	=129	=129	=129	=129	=129	=129	=129	=129	=129	=129
*k[]	*	*k[]	*	*k[]	*	*k[]	*	*k[]	*	*k[]	*k[]	*	*k[]	*k[]	*	*k[]	*k[]	*
*C:	*	*C:	*	*C:	*	*C:	*	*C:	*	*C:	*C:	*	*C:	*C:	*	*C:	*C:	*
!LO:TX:b:t=pizzi	!	!LO:TX:b:t=pizzi	!	!LO:TX:b:t=pizzi	!	!LO:TX:b:t=pizzi	!	!LO:TX:b:t=pizzi	!	!	!	!	!	!LO:TX:a:i:t=Clar.	!	!	!	!
4FF/	pp	4FF/	pp	4C/	pp	4A/	pp	4f/	pp	4C 4FFn/	16c\LL	.	8f/)	8ff\)	.	2.ryy	2.ryy	.
.	.	.	.	.	.	.	.	.	.	.	16An\	.	.	.	.	.	.	.
.	.	.	.	.	.	.	.	.	.	.	16F\	.	8r	8r	.	.	.	.
.	.	.	.	.	.	.	.	.	.	.	16A\	.	.	.	.	.	.	.
8r	.	8FF/	.	8C/	.	8A/	.	8f/	.	8r	16d\	.	8a 8f'/	8ff 8cc`\	.	.	.	.
.	.	.	.	.	.	.	.	.	.	.	16c\JJ	.	.	.	.	.	.	.
4FF/	.	4FF/	.	4C/	.	4G/	.	4g/	.	4C 4FF/	16e\LL	.	(4b-X 4g/	(4ee 4cc\	.	.	.	.
.	.	.	.	.	.	.	.	.	.	.	16d\	.	.	.	.	.	.	.
.	.	.	.	.	.	.	.	.	.	.	16c\	.	.	.	.	.	.	.
.	.	.	.	.	.	.	.	.	.	.	16B\	.	.	.	.	.	.	.
8r	.	8FF/	.	8C/	.	8B/	.	8e/	.	8r	16G\	.	8b- 8e/	8gg\	.	.	.	.
.	.	.	.	.	.	.	.	.	.	.	16c\JJ	.	.	.	.	.	.	.
=130	=130	=130	=130	=130	=130	=130	=130	=130	=130	=130	=130	=130	=130	=130	=130	=130	=130	=130
4FFn/	.	4FFn/	.	4C/	.	4A/	.	4fn/	.	4C 4FFn/	16A\LL	.	8a 8fn/)	[4.ffn [4.cc\)	.	2.ryy	2.ryy	.
.	.	.	.	.	.	.	.	.	.	.	16B-X\	.	.	.	.	.	.	.
.	.	.	.	.	.	.	.	.	.	.	16c\	.	8r	.	.	.	.	.
.	.	.	.	.	.	.	.	.	.	.	16A\	.	.	.	.	.	.	.
!	!	!	!	!	!	!	!	!	!	!	!	!	!LO:TX:a:i:t=Fag	!	!	!	!	!
8r	.	8FF/	.	8C/	.	8A/	.	8r	.	8r	16Fn\	.	8a 8f'/	.	.	.	.	.
.	.	.	.	.	.	.	.	.	.	.	16G\JJ	.	.	.	.	.	.	.
4r	.	4FF/	.	4C/	.	4A/	.	4r	.	4r	16A\LL	.	8a 8f/	4ff] 4cc\]	.	.	.	.
.	.	.	.	.	.	.	.	.	.	.	16Fn\	.	.	.	.	.	.	.
.	.	.	.	.	.	.	.	.	.	.	16C\	.	8r	.	.	.	.	.
.	.	.	.	.	.	.	.	.	.	.	16F\	.	.	.	.	.	.	.
8r	.	8r	.	8r	.	8r	.	8r	.	8r	16A\	.	8r	8r	.	.	.	.
.	.	.	.	.	.	.	.	.	.	.	16c\JJ	.	.	.	.	.	.	.
=131	=131	=131	=131	=131	=131	=131	=131	=131	=131	=131	=131	=131	=131	=131	=131	=131	=131	=131
!LO:TX:b:t=pizz.	!	!LO:TX:b:t=arco	!	!LO:TX:b:t=arco	!	!LO:TX:b:t=arco	!	!LO:TX:b:t=arco	!	!	!	!	!	!	!	!	!	!
4Fn\	.	2.Fn\	.	(4.c\	.	(4A/	.	(4fn/	.	4Fn 4FFn/	16r	.	2.r	2.r	.	2.ryy	2.ryy	.
.	.	.	.	.	.	.	.	.	.	.	(16A\LL	.	.	.	.	.	.	.
.	.	.	.	.	.	.	.	.	.	.	16fn\	.	.	.	.	.	.	.
.	.	.	.	.	.	.	.	.	.	.	16A\	.	.	.	.	.	.	.
8r	.	.	.	.	.	8B-X/	.	8g/	<	8r	16c\	.	.	.	.	.	.	.
.	.	.	.	.	.	.	.	.	.	.	16G\JJ	.	.	.	.	.	.	.
4r	.	.	.	8fn\L	<	8c/L	.	8a/L	.	4r	16A\LL	.	.	.	.	.	.	.
.	.	.	.	.	.	.	.	.	.	.	16c\	.	.	.	.	.	.	.
.	.	.	.	8e\	.	8B-/	.	8g/	.	.	16B-X\	.	.	.	.	.	.	.
.	.	.	.	.	.	.	.	.	.	.	16G\	.	.	.	.	.	.	.
8r	.	.	.	8e-X\J)	[	8c/J)	.	8a/J)	[	8r	16Fn\	.	.	.	.	.	.	.
.	.	.	.	.	.	.	.	.	.	.	16f\JJ)	.	.	.	.	.	.	.
!!LO:PB:g=original
=132	=132	=132	=132	=132	=132	=132	=132	=132	=132	=132	=132	=132	=132	=132	=132	=132	=132	=132
4B-X\	.	(4.B-X\	>	2.d\	[[	4d/	>	(4b-X\	>	4BB-X/	16B-X\LL	.	2.r	2.r	.	2.r	2.r	.
.	.	.	.	.	.	.	.	.	.	.	16fn\	.	.	.	.	.	.	.
.	.	.	.	.	.	.	.	.	.	.	16d\	.	.	.	.	.	.	.
.	.	.	.	.	.	.	.	.	.	.	16B-\	.	.	.	.	.	.	.
8r	.	.	.	.	.	8fn/	.	8dd\	.	8r	16d\	.	.	.	.	.	.	.
.	.	.	.	.	.	.	.	.	.	.	16f\JJ	.	.	.	.	.	.	.
4r	.	4A\	.	.	.	4f#X/	.	4cc\	]	4D\	16f#X\LL	.	.	.	.	.	.	.
.	.	.	.	.	.	.	.	.	.	.	16d\	.	.	.	.	.	.	.
.	.	.	.	.	.	.	.	.	.	.	16c\	.	.	.	.	.	.	.
.	.	.	.	.	.	.	.	.	.	.	16A\	.	.	.	.	.	.	.
8G\	.	8G\)	]	.	.	8g/	]	8b-\)	.	8r	16B-\	.	.	.	.	.	.	.
.	.	.	.	.	.	.	.	.	.	.	16d\JJ	.	.	.	.	.	.	.
*	*	*	*	*	*	*	*	*	*	*	*clefG2	*	*	*	*	*	*	*
=133	=133	=133	=133	=133	=133	=133	=133	=133	=133	=133	=133	=133	=133	=133	=133	=133	=133	=133
4F#X\	.	4F#X\	pp	2.A/	pp >	2.d/	pp	(4a\	pp	4D\	16a/LL	.	2.ryy	2.ryy	.	2.ryy	2.ryy	.
.	.	.	.	.	.	.	.	.	.	.	16cc/	.	.	.	.	.	.	.
.	.	.	.	.	.	.	.	.	.	.	16a/	.	.	.	.	.	.	.
.	.	.	.	.	.	.	.	.	.	.	16d/	.	.	.	.	.	.	.
8r	.	8r	.	.	.	.	.	8cc\	.	8r	16a/	.	.	.	.	.	.	.
.	.	.	.	.	.	.	.	.	.	.	16c/JJ	.	.	.	.	.	.	.
*	*	*	*	*	*	*	*	*	*	*	*clefF4	*	*	*	*	*	*	*
4D\	.	4D\	.	.	.	.	.	4f#X/	.	4D\	16f#X\LL	.	.	.	.	.	.	.
.	.	.	.	.	.	.	.	.	.	.	16d\	.	.	.	.	.	.	.
.	.	.	.	.	.	.	.	.	.	.	16c\	.	.	.	.	.	.	.
.	.	.	.	.	.	.	.	.	.	.	16A\	.	.	.	.	.	.	.
8r	.	8r	.	.	.	.	.	8a/)	.	8r	16F\	.	.	.	.	.	.	.
.	.	.	.	.	.	.	.	.	.	.	16D\JJ	.	.	.	.	.	.	.
=134	=134	=134	=134	=134	=134	=134	=134	=134	=134	=134	=134	=134	=134	=134	=134	=134	=134	=134
4G\	.	(4.D\	.	(4.c/	.	2.d/	.	(4.a/	.	4GG/	16r	.	2.ryy	2.ryy	.	2.ryy	2.ryy	.
.	.	.	.	.	.	.	.	.	.	.	16D\LL	.	.	.	.	.	.	.
.	.	.	.	.	.	.	.	.	.	.	16E\	.	.	.	.	.	.	.
.	.	.	.	.	.	.	.	.	.	.	16F#X\	.	.	.	.	.	.	.
8r	.	.	.	.	.	.	.	.	.	8r	16G\	.	.	.	.	.	.	.
.	.	.	.	.	.	.	.	.	.	.	16A\JJ	.	.	.	.	.	.	.
4r	.	4.G\)	.	4.B-X/)	.	.	.	4.g/)	.	4r	16B-X\LL	.	.	.	.	.	.	.
.	.	.	.	.	.	.	.	.	.	.	16c\	.	.	.	.	.	.	.
.	.	.	.	.	.	.	.	.	.	.	16d\	.	.	.	.	.	.	.
.	.	.	.	.	.	.	.	.	.	.	16B-\	.	.	.	.	.	.	.
8r	.	.	.	.	.	.	.	.	.	8r	16G\	.	.	.	.	.	.	.
.	.	.	.	.	.	.	.	.	.	.	16D\JJ	.	.	.	.	.	.	.
=135	=135	=135	=135	=135	=135	=135	=135	=135	=135	=135	=135	=135	=135	=135	=135	=135	=135	=135
4G\	.	4.G\	.	[2.B-X/	.	4.e-X/	.	(4.g/	.	4BB-X/	16r	.	2.ryy	2.ryy	.	2.ryy	2.ryy	.
.	.	.	.	.	.	.	.	.	.	.	16E-X\LL	.	.	.	.	.	.	.
.	.	.	.	.	.	.	.	.	.	.	16G\	.	.	.	.	.	.	.
.	.	.	.	.	.	.	.	.	.	.	16B-X\	.	.	.	.	.	.	.
8r	.	.	.	.	.	.	.	.	.	8r	16e-X\	.	.	.	.	.	.	.
.	.	.	.	.	.	.	.	.	.	.	16g\JJ	.	.	.	.	.	.	.
*	*	*	*	*	*	*	*	*	*	*	*clefG2	*	*	*	*	*	*	*
4Fn\	.	4.Fn\	.	.	.	4.d/	.	4b-X/	.	4BB-/	16b-X/LL	.	.	.	.	.	.	.
.	.	.	.	.	.	.	.	.	.	.	16a-X/	.	.	.	.	.	.	.
.	.	.	.	.	.	.	.	.	.	.	16fn/	.	.	.	.	.	.	.
.	.	.	.	.	.	.	.	.	.	.	16d/	.	.	.	.	.	.	.
8r	.	.	.	.	.	.	.	8a-X/)	.	8r	16B-/	.	.	.	.	.	.	.
.	.	.	.	.	.	.	.	.	.	.	16fn/JJ	.	.	.	.	.	.	.
=136	=136	=136	=136	=136	=136	=136	=136	=136	=136	=136	=136	=136	=136	=136	=136	=136	=136	=136
4E-X\	.	4.E-X\	.	4.B-/]	.	4.e-X/	.	(4g/	.	4BB-X/	16g/LL	.	2.r	2.r	.	2.r	2.r	.
.	.	.	.	.	.	.	.	.	.	.	16e-X/	.	.	.	.	.	.	.
.	.	.	.	.	.	.	.	.	.	.	16B-X/	.	.	.	.	.	.	.
.	.	.	.	.	.	.	.	.	.	.	16G/	.	.	.	.	.	.	.
8r	.	.	.	.	.	.	.	8a-X/	<	8r	16B-/	.	.	.	.	.	.	.
.	.	.	.	.	.	.	.	.	.	.	16g/JJ	.	.	.	.	.	.	.
4D-X/	.	4.D-X/	<[	4.e-X\	<[	4.g/	<[	8b-X\L	.	4E-X/	16e-/LL	.	.	.	.	.	.	.
.	.	.	.	.	.	.	.	.	.	.	16B-/	.	.	.	.	.	.	.
.	.	.	.	.	.	.	.	8cc\	.	.	16G/	.	.	.	.	.	.	.
.	.	.	.	.	.	.	.	.	.	.	16B-/	.	.	.	.	.	.	.
8r	.	.	.	.	.	.	.	8dd-X\J)	[	8r	16fn/	.	.	.	.	.	.	.
.	.	.	.	.	.	.	.	.	.	.	16e-/JJ	.	.	.	.	.	.	.
!!LO:PB:g=original
=137	=137	=137	=137	=137	=137	=137	=137	=137	=137	=137	=137	=137	=137	=137	=137	=137	=137	=137
4C/	.	4.C/	.	4.e-X\	.	4.a-X/	.	4ee-X\	.	4E-X\	16e-X/LL	.	2.r	2.r	.	2.r	2.r	.
.	.	.	.	.	.	.	.	.	.	.	16fn/	.	.	.	.	.	.	.
.	.	.	.	.	.	.	.	.	.	.	16g/	.	.	.	.	.	.	.
.	.	.	.	.	.	.	.	.	.	.	16a-X/	.	.	.	.	.	.	.
8r	.	.	.	.	.	.	.	8e-X/	.	8r	16b-X/	.	.	.	.	.	.	.
.	.	.	.	.	.	.	.	.	.	.	16cc/JJ	.	.	.	.	.	.	.
4BB-X/	.	4.BB-X/	.	4.E-X/	.	4.d-X/	.	4fn/	.	4E-\	16dd-X/LL	.	.	.	.	.	.	.
.	.	.	.	.	.	.	.	.	.	.	16b-/	.	.	.	.	.	.	.
.	.	.	.	.	.	.	.	.	.	.	16g/	.	.	.	.	.	.	.
.	.	.	.	.	.	.	.	.	.	.	16e-/	.	.	.	.	.	.	.
8r	.	.	.	.	.	.	.	8g/	.	8r	16d-X/	.	.	.	.	.	.	.
.	.	.	.	.	.	.	.	.	.	.	16B/JJ	.	.	.	.	.	.	.
=138	=138	=138	=138	=138	=138	=138	=138	=138	=138	=138	=138	=138	=138	=138	=138	=138	=138	=138
4AA-X/	.	(2.AA-X/	.	8E-X/	.	8c/	.	8a-X/	.	4E-X\	16c/LL	.	4r	4r	.	2.ryy	2.ryy	.
.	.	.	.	.	.	.	.	.	.	.	16e-X/	.	.	.	.	.	.	.
.	.	.	.	8r	.	8r	.	8r	.	.	16a-X/	.	.	.	.	.	.	.
.	.	.	.	.	.	.	.	.	.	.	16cc/	.	.	.	.	.	.	.
!	!	!	!	!LO:TX:b:t=pizzi	!	!LO:TX:b:t=pizzi	!	!LO:TX:b:t=pizzi	!	!	!	!	!	!	!	!	!	!
8r	.	.	.	8A-X/	.	8c/	.	8e-X/	.	8r	16b-X/	.	8r	8r	.	.	.	.
.	.	.	.	.	.	.	.	.	.	.	16a-/JJ	.	.	.	.	.	.	.
4r	.	.	.	4B/	.	4c/	.	4e-/	.	4.r	16g/LL	.	4r	4r	.	.	.	.
.	.	.	.	.	.	.	.	.	.	.	16fn/	.	.	.	.	.	.	.
.	.	.	.	.	.	.	.	.	.	.	16e-/	.	.	.	.	.	.	.
.	.	.	.	.	.	.	.	.	.	.	16d-X/	.	.	.	.	.	.	.
!	!	!	!	!	!	!	!	!	!	!	!	!	!	!LO:TX:a:i:t=Fl	!	!	!	!
8r	.	.	.	8A-/	.	8c/	.	8e-/	.	.	16c/	.	(16ee-X\LL	(16eee-X\LL	.	.	.	.
.	.	.	.	.	.	.	.	.	.	.	16e-/JJ	.	16cc\JJ	16ccc\JJ	.	.	.	.
=139	=139	=139	=139	=139	=139	=139	=139	=139	=139	=139	=139	=139	=139	=139	=139	=139	=139	=139
4A-X\	.	8E-X\)	.	4A-X/	.	4c/	.	4e-X/	.	2.r	16fn/LL	.	4a-X/)	8aa-X\)	.	2.ryy	2.ryy	.
.	.	.	.	.	.	.	.	.	.	.	16e-X/	.	.	.	.	.	.	.
.	.	8r	.	.	.	.	.	.	.	.	16c/	.	.	8r	.	.	.	.
.	.	.	.	.	.	.	.	.	.	.	16A-X/	.	.	.	.	.	.	.
!	!	!LO:TX:b:t=pizzi	!	!	!	!	!	!	!	!	!	!	!	!LO:TX:a:i:t=Clar.	!	!	!	!
8r	.	8E-\	.	8A-/	.	8c/	.	8e-/	.	.	16E-X/	.	8cc 8a-/	8aa- 8dd\	.	.	.	.
.	.	.	.	.	.	.	.	.	.	.	16c/JJ	.	.	.	.	.	.	.
!	!	!	!	!	!	!	!	!	!	!	!LO:TX:t=P:problem=mixed beam	!	!	!	!	!	!	!
4A-\	.	4E-\	.	4E/	.	4B-X/	.	4e-/	.	.	16d-X/LL	.	4b-X 4g/	(4gg 4ee\	.	.	.	.
.	.	.	.	.	.	.	.	.	.	.	16B-X/	.	.	.	.	.	.	.
.	.	.	.	.	.	.	.	.	.	.	16G/	.	.	.	.	.	.	.
.	.	.	.	.	.	.	.	.	.	.	16E-/	.	.	.	.	.	.	.
8r	.	8E-\	.	8G/	.	8d-X/	.	8e-/	.	.	16e-/	.	8dd-X 8b- 8g/	8bb-X 8ee\	.	.	.	.
.	.	.	.	.	.	.	.	.	.	.	16d-/JJ	.	.	.	.	.	.	.
=140	=140	=140	=140	=140	=140	=140	=140	=140	=140	=140	=140	=140	=140	=140	=140	=140	=140	=140
4A-X\	.	4E-X\	.	4A-X/	.	4c/	.	4e-X/	.	2.r	16c\LL	.	4cc 4a-X/	4aa-X 4ee-X\)	.	2.ryy	2.ryy	.
.	.	.	.	.	.	.	.	.	.	.	16e-X\	.	.	.	.	.	.	.
.	.	.	.	.	.	.	.	.	.	.	16fn\	.	.	.	.	.	.	.
.	.	.	.	.	.	.	.	.	.	.	16e-\	.	.	.	.	.	.	.
!	!	!	!	!	!	!	!	!	!	!	!	!	!LO:TX:a:i:t=Fag	!	!	!	!	!
8r	.	8E-\	.	8A-/	.	8c/	.	8r	.	.	16d-X\	.	8cc 8a-/	8r	.	.	.	.
.	.	.	.	.	.	.	.	.	.	.	16c\JJ	.	.	.	.	.	.	.
4r	.	4E-\	.	4A-/	.	4c/	.	4r	.	.	16B-X/LL	.	4cc 4a-/	4r	.	.	.	.
.	.	.	.	.	.	.	.	.	.	.	16A-X/	.	.	.	.	.	.	.
.	.	.	.	.	.	.	.	.	.	.	16G/	.	.	.	.	.	.	.
.	.	.	.	.	.	.	.	.	.	.	16Gn/	.	.	.	.	.	.	.
!	!	!	!	!	!	!	!	!LO:TX:b:t=arco	!	!	!	!	!	!	!	!	!	!
8r	.	8r	.	8r	.	8r	.	(16ee-X\LL	.	.	16E-X/	.	8r	8r	.	.	.	.
.	.	.	.	.	.	.	.	16cc\JJ)	.	.	16D-X/JJ	.	.	.	.	.	.	.
=141	=141	=141	=141	=141	=141	=141	=141	=141	=141	=141	=141	=141	=141	=141	=141	=141	=141	=141
!	!	!LO:TX:b:t=arco	!	!LO:TX:b:t=arco	!	!LO:TX:b:t=arco	!	!	!	!	!	!	!	!	!	!	!	!
2.r	.	2.C/	pp	2.A-X/	pp	2.e-X/	pp	4a-X/	.	[2.C\	16r	.	2.r	2.r	.	2.r	2.r	.
!	!	!	!	!	!	!	!	!	!	!	!LO:TX:t=P:problem=mixed beam	!	!	!	!	!	!	!
.	.	.	.	.	.	.	.	.	.	.	(16E-X/LL	.	.	.	.	.	.	.
.	.	.	.	.	.	.	.	.	.	.	16A-X/	.	.	.	.	.	.	.
.	.	.	.	.	.	.	.	.	.	.	16B-X/	.	.	.	.	.	.	.
.	.	.	.	.	.	.	.	8a-/	.	.	16c/	.	.	.	.	.	.	.
.	.	.	.	.	.	.	.	.	.	.	16e-X/JJ	.	.	.	.	.	.	.
.	.	.	.	.	.	.	.	(4a-/	.	.	16a-X\LL	.	.	.	.	.	.	.
.	.	.	.	.	.	.	.	.	.	.	16e-\	.	.	.	.	.	.	.
.	.	.	.	.	.	.	.	.	.	.	16c\	.	.	.	.	.	.	.
.	.	.	.	.	.	.	.	.	.	.	16e-\	.	.	.	.	.	.	.
.	.	.	.	.	.	.	.	8g/)	.	.	16c\	.	.	.	.	.	.	.
.	.	.	.	.	.	.	.	.	.	.	16e-\JJ)	.	.	.	.	.	.	.
!!LO:PB:g=original
=142	=142	=142	=142	=142	=142	=142	=142	=142	=142	=142	=142	=142	=142	=142	=142	=142	=142	=142
!	!	!	!	!	!	!	!	!	!	!	!LO:TX:t=P:problem=mixed beam	!	!	!	!	!	!	!
4C/	.	([4.C^/	.	[4.An^/	.	[4.e-X^/	.	4.g^/	.	4C\]	16A/LL	.	2.r	2.r	.	2.r	2.r	.
.	.	.	.	.	.	.	.	.	.	.	16c/	.	.	.	.	.	.	.
.	.	.	.	.	.	.	.	.	.	.	16e-X/	.	.	.	.	.	.	.
.	.	.	.	.	.	.	.	.	.	.	16c/	.	.	.	.	.	.	.
8r	.	.	.	.	.	.	.	.	.	8r	16e-/	.	.	.	.	.	.	.
.	.	.	.	.	.	.	.	.	.	.	16c/JJ	.	.	.	.	.	.	.
!	!	!	!	!	!	!	!	!	!LO:DY:a	!	!LO:TX:t=P:problem=mixed beam	!	!	!	!	!	!	!
4r	.	8C/L]	.	8A/L]	.	4e-/]	.	(8.f#X/L	<	4r	16A/LL	.	.	.	.	.	.	.
.	.	.	.	.	.	.	.	.	.	.	16c/	.	.	.	.	.	.	.
!	!	!	!	!	!LO:DY:a	!	!	!	!	!	!	!	!	!	!	!	!	!
.	.	8BB/)	.	(16F#X/L	<	.	.	.	.	.	16e-/	.	.	.	.	.	.	.
.	.	.	.	16A/	.	.	.	16a/L	.	.	16d/	.	.	.	.	.	.	.
8r	.	8AA/J	.	16c/	.	8r	.	16cc/)	.	8r	16e-/	.	.	.	.	.	.	.
.	.	.	.	16e-X/JJ)	[[	.	.	16ee-X/JJ	[	.	16c/JJ	.	.	.	.	.	.	.
=143	=143	=143	=143	=143	=143	=143	=143	=143	=143	=143	=143	=143	=143	=143	=143	=143	=143	=143
!	!	!	!	!	!	!	!	!	!	!	!LO:TX:t=P:problem=mixed beam	!	!	!	!	!	!LO:TX:a:Bi:t=Cor.:color=blue	!
4F#X\	.	4FF#X/	.	8d\	.	8a/	.	8dd\	.	4D\	16A/LL	.	2.ryy	2.ryy	.	2.r	[2.d/	p
.	.	.	.	.	.	.	.	.	.	.	16c/	.	.	.	.	.	.	.
.	.	.	.	8r	.	8r	.	8r	.	.	16d/	.	.	.	.	.	.	.
.	.	.	.	.	.	.	.	.	.	.	16c/	.	.	.	.	.	.	.
8r	.	8r	.	8A'/	.	8c'/	.	8d'/	.	8r	16a/	.	.	.	.	.	.	.
.	.	.	.	.	.	.	.	.	.	.	16c/JJ	.	.	.	.	.	.	.
!	!	!	!	!	!	!	!	!	!	!	!LO:TX:t=P:problem=mixed beam	!	!	!	!	!	!	!
4D\	.	8D\	.	8A'/	.	8c'/	.	8d'/	.	4F#X\	16A/LL	.	.	.	.	.	.	.
.	.	.	.	.	.	.	.	.	.	.	16c/	.	.	.	.	.	.	.
.	.	8r	.	8r	.	8r	.	8r	.	.	16d/	.	.	.	.	.	.	.
.	.	.	.	.	.	.	.	.	.	.	16c/	.	.	.	.	.	.	.
8r	.	8r	.	8d\	.	8c/	.	8a/	.	8r	16d/	.	.	.	.	.	.	.
.	.	.	.	.	.	.	.	.	.	.	16c/JJ	.	.	.	.	.	.	.
=144	=144	=144	=144	=144	=144	=144	=144	=144	=144	=144	=144	=144	=144	=144	=144	=144	=144	=144
!	!	!	!	!	!	!	!	!	!	!	!LO:TX:t=P:problem=mixed beam	!	!	!	!	!	!	!
4G\	.	8G\	.	8d\	.	8c/	.	(4a/	.	4D\	16G/LL	.	2.ryy	2.ryy	.	2.r	(2.d/]	.
.	.	.	.	.	.	.	.	.	.	.	16c/	.	.	.	.	.	.	.
.	.	8r	.	8r	.	8r	.	.	.	.	16d/	.	.	.	.	.	.	.
.	.	.	.	.	.	.	.	.	.	.	16c/	.	.	.	.	.	.	.
8r	.	8r	.	8d\	.	8B/	.	8g/	.	8r	16g/	.	.	.	.	.	.	.
.	.	.	.	.	.	.	.	.	.	.	16B/JJ	.	.	.	.	.	.	.
!	!	!	!	!	!	!	!	!	!	!	!LO:TX:t=P:problem=mixed beam	!	!	!	!	!	!	!
4D\	.	8D\	.	8d\	.	8d/	.	8b/)	.	4G\	16G/LL	.	.	.	.	.	.	.
.	.	.	.	.	.	.	.	.	.	.	16B/	.	.	.	.	.	.	.
.	.	8r	.	8r	.	8r	.	8r	.	.	16d/	.	.	.	.	.	.	.
.	.	.	.	.	.	.	.	.	.	.	16B/	.	.	.	.	.	.	.
8r	.	8r	.	8d\	.	8B/	.	8g/	.	8r	16g/	.	.	.	.	.	.	.
.	.	.	.	.	.	.	.	.	.	.	16B/JJ	.	.	.	.	.	.	.
=145	=145	=145	=145	=145	=145	=145	=145	=145	=145	=145	=145	=145	=145	=145	=145	=145	=145	=145
!	!	!	!	!	!	!	!	!	!	!	!LO:TX:t=P:problem=mixed beam	!	!	!	!	!	!	!
4A\	.	8A\	.	4A/	.	4c/	.	(4g/	.	4D\	16A/LL	.	2.ryy	2.ryy	.	2.r	4e/)	.
.	.	.	.	.	.	.	.	.	.	.	16c/	.	.	.	.	.	.	.
.	.	8r	.	.	.	.	.	.	.	.	16d/	.	.	.	.	.	.	.
.	.	.	.	.	.	.	.	.	.	.	16c/	.	.	.	.	.	.	.
8r	.	8r	.	8A'/	.	8B/	.	8f/)	.	8r	16f/	.	.	.	.	.	8d/	.
.	.	.	.	.	.	.	.	.	.	.	16c/JJ	.	.	.	.	.	.	.
!	!	!	!	!	!	!	!	!	!	!	!LO:TX:t=P:problem=mixed beam	!	!	!	!	!	!	!
4D\	.	8D\	.	8d\	.	(8A/L	.	(8f/L	.	4D\	16f/LL	.	.	.	.	.	[4.d/	.
.	.	.	.	.	.	.	.	.	.	.	16e/	.	.	.	.	.	.	.
.	.	8r	.	8r	.	8B/)	.	8g/)	.	.	16d/	.	.	.	.	.	.	.
.	.	.	.	.	.	.	.	.	.	.	16c/	.	.	.	.	.	.	.
8r	.	8r	.	8d\	.	8c/J	.	8a/J	.	8r	16A/	.	.	.	.	.	.	.
.	.	.	.	.	.	.	.	.	.	.	16F/JJ	.	.	.	.	.	.	.
=146	=146	=146	=146	=146	=146	=146	=146	=146	=146	=146	=146	=146	=146	=146	=146	=146	=146	=146
4G\	.	8G\	.	4d\	.	(4c/	.	(4a/	.	4GG\	16r	.	2.r	2.r	.	2.r	4.d/]	.
.	.	.	.	.	.	.	.	.	.	.	16D/LL	.	.	.	.	.	.	.
.	.	8r	.	.	.	.	.	.	.	.	16E/	.	.	.	.	.	.	.
.	.	.	.	.	.	.	.	.	.	.	16F/	.	.	.	.	.	.	.
8r	.	8r	.	8d\	.	8B/)	.	8g/)	.	8r	16G/	.	.	.	.	.	.	.
.	.	.	.	.	.	.	.	.	.	.	16A/JJ	.	.	.	.	.	.	.
!	!	!	!	!	!	!	!	!	!	!	!LO:TX:t=P:problem=mixed beam	!	!	!	!	!	!	!
4D\	.	8D\	.	8d\	.	8d/	.	8b/	.	4r	16B/LL	.	.	.	.	.	4g/	.
.	.	.	.	.	.	.	.	.	.	.	16c/	.	.	.	.	.	.	.
.	.	8r	.	8r	.	8r	.	8r	.	.	16d/	.	.	.	.	.	.	.
.	.	.	.	.	.	.	.	.	.	.	16e/	.	.	.	.	.	.	.
8r	.	8r	.	8D/	.	8r	.	8d/	.	8r	16f/	.	.	.	.	.	8r	.
.	.	.	.	.	.	.	.	.	.	.	16g/JJ	.	.	.	.	.	.	.
!!LO:PB:g=original
=147	=147	=147	=147	=147	=147	=147	=147	=147	=147	=147	=147	=147	=147	=147	=147	=147	=147	=147
!	!	!LO:TX:b:t=pizzi	!	!	!	!	!	!	!	!	!	!	!	!	!	!	!	!
4BB/	.	8BB\L	.	8d 8G'/	.	8g/	.	8dd\L	.	4BB/	16B/LL	.	2.ryy	2.ryy	.	2.r	2.d/	.
.	.	.	.	.	.	.	.	.	.	.	16d/	.	.	.	.	.	.	.
.	.	8D\	.	8r	.	8r	.	8ee\	.	.	16g/	.	.	.	.	.	.	.
.	.	.	.	.	.	.	.	.	.	.	16e/	.	.	.	.	.	.	.
8r	.	8G\J	.	8d 8G'/	.	8g/	.	8ff\J	.	8r	16d/	.	.	.	.	.	.	.
.	.	.	.	.	.	.	.	.	.	.	16B/JJ	.	.	.	.	.	.	.
4BB/	.	8BB\L	.	8d 8G'/	.	(4g/	.	4gg\	.	4BB/	16G/LL	.	.	.	.	.	.	.
.	.	.	.	.	.	.	.	.	.	.	16d/	.	.	.	.	.	.	.
.	.	8D\	.	8r	.	.	.	.	.	.	16g/	.	.	.	.	.	.	.
.	.	.	.	.	.	.	.	.	.	.	16f/	.	.	.	.	.	.	.
8r	.	8G\J	.	8d 8G'/	.	8f/)	.	8dd\	.	8r	16e/	.	.	.	.	.	.	.
.	.	.	.	.	.	.	.	.	.	.	16d/JJ	.	.	.	.	.	.	.
=148	=148	=148	=148	=148	=148	=148	=148	=148	=148	=148	=148	=148	=148	=148	=148	=148	=148	=148
4C/	.	8C\L	.	8G'/	.	8f/	.	4ee\	.	4C/	16d/LL	.	2.ryy	2.ryy	.	2.r	4.c/	.
.	.	.	.	.	.	.	.	.	.	.	16e/	.	.	.	.	.	.	.
.	.	8D\	.	8r	.	8r	.	.	.	.	16g/	.	.	.	.	.	.	.
.	.	.	.	.	.	.	.	.	.	.	16e/	.	.	.	.	.	.	.
8r	.	8G\J	.	8G'/	.	8e/	.	[8ee\	.	8r	16d/	.	.	.	.	.	.	.
.	.	.	.	.	.	.	.	.	.	.	16G/JJ	.	.	.	.	.	.	.
4C/	.	8C\L	.	8G'/	.	8e/	.	8ee\L]	.	4C/	16c/LL	.	.	.	.	.	[4.e/	.
.	.	.	.	.	.	.	.	.	.	.	16e/	.	.	.	.	.	.	.
.	.	8E\	.	8r	.	8r	.	8cc\	.	.	16g/	.	.	.	.	.	.	.
.	.	.	.	.	.	.	.	.	.	.	16e/	.	.	.	.	.	.	.
8r	.	8G\J	.	8c\	.	8e/	.	8dd\J	.	8r	16c/	.	.	.	.	.	.	.
.	.	.	.	.	.	.	.	.	.	.	16G/JJ	.	.	.	.	.	.	.
=149	=149	=149	=149	=149	=149	=149	=149	=149	=149	=149	=149	=149	=149	=149	=149	=149	=149	=149
4C/	.	8C\L	.	8A/	.	8a 8e/	.	8ee\L	.	4C/	16A/LL	.	2.ryy	2.ryy	.	2.r	2.e/]	.
.	.	.	.	.	.	.	.	.	.	.	16e/	.	.	.	.	.	.	.
.	.	8E\	.	8r	.	8r	.	8ff#X\	.	.	16a/	.	.	.	.	.	.	.
.	.	.	.	.	.	.	.	.	.	.	16f/	.	.	.	.	.	.	.
8r	.	8A\J	.	8A/	.	8a 8e/	.	8gg\J	.	8r	16e/	.	.	.	.	.	.	.
.	.	.	.	.	.	.	.	.	.	.	16c/JJ	.	.	.	.	.	.	.
4C/	.	8C\L	.	8A/	.	8a 8e/	.	4aa\	.	4C/	16A/LL	.	.	.	.	.	.	.
.	.	.	.	.	.	.	.	.	.	.	16e/	.	.	.	.	.	.	.
.	.	8E\	.	8r	.	8r	.	.	.	.	16a/	.	.	.	.	.	.	.
.	.	.	.	.	.	.	.	.	.	.	16g/	.	.	.	.	.	.	.
8r	.	8A\J	.	8e 8A\	.	8a/	.	8bb\	.	8r	16f/	.	.	.	.	.	.	.
.	.	.	.	.	.	.	.	.	.	.	16e/JJ	.	.	.	.	.	.	.
=150	=150	=150	=150	=150	=150	=150	=150	=150	=150	=150	=150	=150	=150	=150	=150	=150	=150	=150
4D\	.	8D\L	.	8d 8A\	.	(4g/	.	[4.ccc\	.	4D\	16d/LL	.	2.ryy	2.ryy	.	2.r	[2.d/	.
.	.	.	.	.	.	.	.	.	.	.	16e/	.	.	.	.	.	.	.
.	.	8E\	.	8r	.	.	.	.	.	.	16a/	.	.	.	.	.	.	.
.	.	.	.	.	.	.	.	.	.	.	16e/	.	.	.	.	.	.	.
8r	.	8A\J	.	8d 8A\	.	8f/)	.	.	.	8r	16d/	.	.	.	.	.	.	.
.	.	.	.	.	.	.	.	.	.	.	16A/JJ	.	.	.	.	.	.	.
4D\	.	8D\L	.	8d 8A\	.	8f/L	.	8ccc\L]	.	4D\	16d/LL	.	.	.	.	.	.	.
.	.	.	.	.	.	.	.	.	.	.	16f/	.	.	.	.	.	.	.
.	.	8F\	.	8r	.	8d/	.	8aa\	.	.	16a/	.	.	.	.	.	.	.
.	.	.	.	.	.	.	.	.	.	.	16f/	.	.	.	.	.	.	.
8r	.	8A\J	.	8d\	.	8e/J	.	8ff\J	.	8r	16d/	.	.	.	.	.	.	.
.	.	.	.	.	.	.	.	.	.	.	16A/JJ	.	.	.	.	.	.	.
=151	=151	=151	=151	=151	=151	=151	=151	=151	=151	=151	=151	=151	=151	=151	=151	=151	=151	=151
2.r	.	8C/	.	(8A/L	.	(8f/L	.	[4.dd\	.	4D\	16f/LL	.	2.ryy	2.ryy	.	2.r	2.d/]	.
.	.	.	.	.	.	.	.	.	.	.	16e/	.	.	.	.	.	.	.
.	.	8r	.	8d/)	.	8g/)	.	.	.	.	16d/	.	.	.	.	.	.	.
.	.	.	.	.	.	.	.	.	.	.	16c/	.	.	.	.	.	.	.
.	.	8C'/	.	8e/J	.	8a`/J	.	.	.	8r	16A/	.	.	.	.	.	.	.
.	.	.	.	.	.	.	.	.	.	.	16d/JJ	.	.	.	.	.	.	.
!	!	!LO:TX:a:t=arco	!	!	!	!	!	!	!	!	!	!	!	!	!	!	!	!
.	.	(8C/L	.	(8G/L	.	(8b/L	.	8dd\L]	.	4D\	16g/LL	.	.	.	.	.	.	.
.	.	.	.	.	.	.	.	.	.	.	16e/	.	.	.	.	.	.	.
.	.	8BB/)	.	8d/)	.	8d/)	.	8b\	.	.	16d/	.	.	.	.	.	.	.
.	.	.	.	.	.	.	.	.	.	.	16c/	.	.	.	.	.	.	.
.	.	8GG/J	.	8fn/J	.	8fn/J	.	8cc\J	.	8r	16B/	.	.	.	.	.	.	.
.	.	.	.	.	.	.	.	.	.	.	[16b/JJ	.	.	.	.	.	.	.
!!LO:PB:g=original
=152	=152	=152	=152	=152	=152	=152	=152	=152	=152	=152	=152	=152	=152	=152	=152	=152	=152	=152
!LO:TX:a:t=arco	!	!	!	!	!	!	!	!	!	!	!	!	!	!	!	!	!LO:TX:a:Bi:t=Fag:color=blue	!
(4.GG/	p	4.GG/	.	8e\	.	(8e/L	.	(4ee^\	.	4E\	16b/LL]	.	2.ryy	2.ryy	.	2.E\	2.e 2.B/	.
.	.	.	.	.	.	.	.	.	.	.	16e/	.	.	.	.	.	.	.
.	.	.	.	8r	.	8B/)	.	.	.	.	16B/	.	.	.	.	.	.	.
.	.	.	.	.	.	.	.	.	.	.	16e/	.	.	.	.	.	.	.
.	.	.	.	8r	.	8e/J	.	8e/	.	8r	16b/	.	.	.	.	.	.	.
.	.	.	.	.	.	.	.	.	.	.	16e/JJ	.	.	.	.	.	.	.
4.GG#X/	.	4GG#X/	.	8E/	.	(8e/L	.	8b\)	.	4E\	16e/LL	.	.	.	.	.	.	.
.	.	.	.	.	.	.	.	.	.	.	16d/	.	.	.	.	.	.	.
.	.	.	.	8r	.	8B/)	.	8r	.	.	16B/	.	.	.	.	.	.	.
.	.	.	.	.	.	.	.	.	.	.	16d/	.	.	.	.	.	.	.
.	.	8r	.	8r	.	8e/J	.	8b\	.	8r	16e/	.	.	.	.	.	.	.
.	.	.	.	.	.	.	.	.	.	.	16B/JJ	.	.	.	.	.	.	.
=153	=153	=153	=153	=153	=153	=153	=153	=153	=153	=153	=153	=153	=153	=153	=153	=153	=153	=153
.	.	.	.	.	.	.	.	8qb/	.	.	.	.	.	.	.	.	.	.
4AA/)	.	4AA/	.	(4A/	.	8c/L	.	8a/L	.	4E\	16c/LL	.	2.ryy	2.ryy	.	8AA/	4.e 4.A/	.
.	.	.	.	.	.	.	.	.	.	.	16e/	.	.	.	.	.	.	.
.	.	.	.	.	.	16r	.	16r	.	.	16d/	.	.	.	.	8r	.	.
.	.	.	.	.	.	16B/K	.	16g#X/K	.	.	16B/	.	.	.	.	.	.	.
8r	.	8r	.	8e\	.	8c/J	.	8a/J	.	8r	16A/	.	.	.	.	8r	.	.
.	.	.	.	.	.	.	.	.	.	.	16e/JJ	.	.	.	.	.	.	.
!LO:TX:a:t=pizzi	!	!	!	!	!	!	!	!	!	!	!	!	!	!	!	!	!	!
4D\	.	4D\	.	8d\)	.	(8A/L	.	(8f/L	.	4E\	16d/LL	.	.	.	.	4r	[4.d/	.
.	.	.	.	.	.	.	.	.	.	.	16e/	.	.	.	.	.	.	.
.	.	.	.	8r	.	8B/)	.	8gn/)	.	.	16d/	.	.	.	.	.	.	.
.	.	.	.	.	.	.	.	.	.	.	16c/	.	.	.	.	.	.	.
8r	.	8r	.	8d\	.	8c/J	.	8a/J	.	8r	16A/	.	.	.	.	8r	.	.
.	.	.	.	.	.	.	.	.	.	.	16f/JJ	.	.	.	.	.	.	.
=154	=154	=154	=154	=154	=154	=154	=154	=154	=154	=154	=154	=154	=154	=154	=154	=154	=154	=154
4D\	.	4D\	.	(4d\	.	(8d/L	.	(8b\L	.	4D\	16B/LL	.	2.ryy	2.ryy	.	2.r	4.d/]	.
.	.	.	.	.	.	.	.	.	.	.	16d/	.	.	.	.	.	.	.
.	.	.	.	.	.	8b/	.	8gg\	.	.	16g/	.	.	.	.	.	.	.
.	.	.	.	.	.	.	.	.	.	.	16d/	.	.	.	.	.	.	.
8r	.	8r	.	8B\	.	8g/J	.	8dd\J	.	8r	16B/	.	.	.	.	.	.	.
.	.	.	.	.	.	.	.	.	.	.	16A/JJ	.	.	.	.	.	.	.
4r	.	8r	.	8g\)	.	8d/)	.	8b\)	.	4r	16G/LL	.	.	.	.	.	8d/	.
.	.	.	.	.	.	.	.	.	.	.	16B/	.	.	.	.	.	.	.
.	.	(8d\L	pp	8d'\L	p	(8d/L	p	(8f^^/L	p	.	16d/JJ	.	.	.	.	.	8r	.
.	.	.	.	.	.	.	.	.	.	.	16r	.	.	.	.	.	.	.
8r	.	8c#X\J)	.	8d'\J	.	8e/J)	.	8g^^/J)	.	8r	8r	.	.	.	.	.	8r	.
=155	=155	=155	=155	=155	=155	=155	=155	=155	=155	=155	=155	=155	=155	=155	=155	=155	=155	=155
2.r	.	4.cn\	.	4.d\	<	(8f/L	.	(8a/L	<	2.r	2.r	.	2.r	2.ryy	.	2.r	2.r	.
.	.	.	.	.	.	8g/)	<	8b/)	.	.	.	.	.	.	.	.	.	.
.	.	.	.	.	.	8a/J	.	8cc/J	.	.	.	.	.	.	.	.	.	.
.	.	8B'\L	<	8g'\L	.	8ddL 8d'/	.	8ddL 8d'/	.	.	.	.	.	.	.	.	.	.
.	.	8A'\	.	8g'\	.	8cc#X 8e'/	[	8ee 8a'/	[	.	.	.	.	.	.	.	.	.
.	.	8dJ 8D'\	[	8aJ 8d'\	[	8ccnJ 8d'/	.	8ffJ 8a 8d'/	.	.	.	.	.	.	.	.	.	.
*	*	*	*	*	*	*	*	*	*	*	*clefF4	*	*	*	*	*	*	*
=156	=156	=156	=156	=156	=156	=156	=156	=156	=156	=156	=156	=156	=156	=156	=156	=156	=156	=156
!LO:TX:a:t=arco	!	!	!	!	!	!	!	!	!	!	!	!	!	!	!	!	!LO:TX:a:Bi:t=piu moſso.:color=blue	!
8G\	sf	8B 8D'\	sf	8g 8G/	sf	8b 8d/	sf	8gg 8b 8d/	sf	4r	4r	.	4r	4r	.	2.r	2.r	.
!LO:TX:b:t=Senza sord.	!	!LO:TX:b:t=Senza sord.	!	!LO:TX:b:t=Senza sord.	!	!LO:TX:b:t=Senza sord.	!	!LO:TX:b:t=Senza sord.	!	!	!	!	!	!	!	!	!	!
8r	.	8r	.	8r	.	8r	.	8r	.	.	.	.	.	.	.	.	.	.
8r	.	8r	.	8r	.	8r	.	8r	.	8r	8r	.	8r	8r	.	.	.	.
!	!	!	!	!	!	!	!	!	!	!	!	!	!	!LO:TX:a:i:t=tutti	!	!	!	!
4r	.	4r	.	4r	.	4r	.	4r	.	4.EE-X^/	4.e-X 4.B-X 4.G 4.E-X\	f	4.ee-X 4.b-X 4.g^\	4.gg^\	f	.	.	.
8r	.	8r	.	8r	.	8r	.	8r	.	.	.	.	.	.	.	.	.	.
!!LO:PB:g=original
=157||	=157||	=157||	=157||	=157||	=157||	=157||	=157||	=157||	=157||	=157||	=157||	=157||	=157||	=157||	=157||	=157||	=157||	=157||
*k[f#]	*	*k[f#]	*	*k[f#]	*	*k[f#]	*	*k[f#]	*	*k[f#]	*k[f#]	*	*k[f#]	*k[f#]	*	*k[f#]	*k[f#]	*
*G:	*	*G:	*	*G:	*	*G:	*	*G:	*	*G:	*G:	*	*G:	*G:	*	*G:	*G:	*
*	*	*	*	*	*	*	*	*	*	*	*^	*	*	*	*	*	*	*
2.r	.	2.r	.	2.r	.	2.r	.	2.r	.	4.BB-X 4.BBB-X^/	4.d 4.G^\	4.rEE	.	4.dd 4.g^/	4.gg\	.	2.r	2.r	.
.	.	.	.	.	.	.	.	.	.	4.E-X 4.EE-X/	4.c#X 4.A#X^/	4.G\	.	4.cc#X 4.a#X 4.g^/	[4.gg^\	.	.	.	.
*	*	*	*	*	*	*	*	*	*	*	*v	*v	*	*	*	*	*	*	*
=158	=158	=158	=158	=158	=158	=158	=158	=158	=158	=158	=158	=158	=158	=158	=158	=158	=158	=158
2.r	.	2.r	.	2.r	.	2.r	.	2.r	.	4D 4DD/	4d 4B 4G\	.	4dd 4b 4g\	4gg\]	.	2.r	2.r	.
.	.	.	.	.	.	.	.	.	.	8r	8r	.	8r	8r	.	.	.	.
.	.	.	.	.	.	.	.	.	.	4r	4r	.	4r	4r	.	.	.	.
.	.	.	.	.	.	.	.	.	.	8r	8r	.	8r	8r	.	.	.	.
=159	=159	=159	=159	=159	=159	=159	=159	=159	=159	=159	=159	=159	=159	=159	=159	=159	=159	=159
4r	.	4r	.	4r	.	4r	.	4r	.	4r	4r	.	4r	4r	.	2.r	2.r	.
8r	.	8r	.	8r	.	8r	.	8r	.	8r	8r	.	8r	8r	.	.	.	.
!LO:TX:a:t=arco	!	!	!	!	!	!	!	!	!	!	!	!	!	!	!	!	!	!
8D\	sf	8D\	sf	8cc 8d\	sf	8a 8f#/	sf	8dd 8d/	sf	8D 8DD/	8d 8A\	sf	8a 8f#/	8dd 8cc\	sf	.	.	.
8r	.	8r	.	8r	.	8r	.	8r	.	8r	8r	.	8r	8r	.	.	.	.
8r;	.	8r;	.	8r;	.	8r;	.	8r;	.	8r;	8r;	.	8r;	8r;	.	.	.	.
=160	=160	=160	=160	=160	=160	=160	=160	=160	=160	=160	=160	=160	=160	=160	=160	=160	=160	=160
!	!	!	!	!	!	!	!	!	!	!	!	!	!	!	!	!	!LO:TX:a:Bi:t=tempo 1mo:color=blue	!
!	!	!	!	!	!	!	!	!	!	!	!	!	!	!	!	!	!LO:TX:b:Bi:t=(Gr. jeu&colon;):rj	!
4GG/	.	4.D 4.GG^/	ff	8b 8d 8G\	ff	8gg 8b 8d\	ff	8bb 8dd 8d\	ff	4.GG 4.GGG/	8dL 8B\	ff	4b 4g/	4b 4g/	ff	2.D 2.GG/	4.b 4.g/	f
.	.	.	.	8r	.	(8dd/L	.	8r	.	.	8G\	.	.	.	.	.	.	.
!	!	!	!	!	!	!	!	!	!	!	!	!	!	!LO:TX:b:i:t=Col 2do	!	!	!	!
8r	.	.	.	8g\	.	8d/J)	.	8bb\	.	.	8D\J	.	8b 8g/	8b 8g/	.	.	.	.
.	.	.	.	8qg/	.	.	.	8qqbb/	.	.	.	.	.	.	.	.	8qb 8qg/	.
4GG/	.	4.D 4.GG^/	.	8f#\L	.	8r	.	8aa\L	.	4.GG 4.GGG/	8d\L	.	(8aL 8f#/	(8aL 8f#/	.	.	(8aL 8f#/	.
.	.	.	.	8e\	.	(8dd/L	.	8gg\	.	.	8A\	.	8g 8e/)	8g 8e/)	.	.	8g 8e/)	.
8r	.	.	.	8f#\J	.	8d/J)	.	8aa\J	.	.	8D\J	.	8aJ 8f#/	8aJ 8f#/	.	.	8aJ 8f#/	.
=161	=161	=161	=161	=161	=161	=161	=161	=161	=161	=161	=161	=161	=161	=161	=161	=161	=161	=161
4GG/	.	4.D 4.GG/	.	8g\	.	8r	.	[4.bb\	.	4.GG 4.GGG/	8dL 8B\	.	4b 4g/	4b 4g/	.	4.D [4.GG/	[4.b [4.g/	.
.	.	.	.	8r	.	(8dd/L	.	.	.	.	8G\	.	.	.	.	.	.	.
8r	.	.	.	8g 8B\	.	8d/J)	.	.	.	.	8D\J	.	8b 8g/	8b 8g/	.	.	.	.
4GG/	.	4.G 4.GG/	.	8g 8B\	.	8r	.	4bb\]	.	4.GG 4.GGG/	8dL 8B\	.	4b 4g/	4b 4g/	.	[4.G 4.GG/_	4b] 4g/]	.
.	.	.	.	8r	.	(8dd/L	.	.	.	.	8G\	.	.	.	.	.	.	.
8r	.	.	.	8b\	.	8d/J)	.	8ddd\	.	.	8D\J	.	8dd 8b\	8dd 8b\	.	.	8dd 8b\	.
!!LO:PB:g=original
=162	=162	=162	=162	=162	=162	=162	=162	=162	=162	=162	=162	=162	=162	=162	=162	=162	=162	=162
*	*	*	*	*	*	*	*	*	*	*	*^	*	*	*	*	*	*	*
4.GG/	sf	4.G 4.GG/	sf >	4.a#X\	sf	(8cc#X^/L	.	([4.eee^\	sf	32GGG/LLL	(4.e 4.c#X/	8A\L	.	[4.ee [4.cc#X [4.a#X^/	[4.ee [4.cc#X [4.a#X^/	.	2.G] 2.GG/]	([4.ee [4.cc#X [4.a#X^^\	.
.	.	.	.	.	.	.	.	.	.	32GG/	.	.	.	.	.	.	.	.	.
.	.	.	.	.	.	.	.	.	.	32GGG/	.	.	.	.	.	.	.	.	.
.	.	.	.	.	.	.	.	.	.	32GG/	.	.	.	.	.	.	.	.	.
.	.	.	.	.	.	8e/	.	.	.	32GGG/	.	8G\	.	.	.	.	.	.	.
.	.	.	.	.	.	.	.	.	.	32GG/	.	.	.	.	.	.	.	.	.
.	.	.	.	.	.	.	.	.	.	32GGG/	.	.	.	.	.	.	.	.	.
.	.	.	.	.	.	.	.	.	.	32GG/	.	.	.	.	.	.	.	.	.
.	.	.	.	.	.	8g/J)	.	.	.	32GGG/	.	8E\J	.	.	.	.	.	.	.
.	.	.	.	.	.	.	.	.	.	32GG/	.	.	.	.	.	.	.	.	.
.	.	.	.	.	.	.	.	.	.	32GGG/	.	.	.	.	.	.	.	.	.
.	.	.	.	.	.	.	.	.	.	32GG/JJJ	.	.	.	.	.	.	.	.	.
4GG/	.	4.D 4.GG/	]	4.b\	>]	(8d^/L	.	8eee\L]	>	4GGG/	4d/)	8B\L	.	8ee]L 8cc#] 8a#/]	8ee]L 8cc#] 8a#/]	.	.	8ee]L 8cc#] 8a#\]	>
.	.	.	.	.	.	8g/	.	8ddd\)	.	.	.	8G\	.	8dd 8b/	8dd 8b/	.	.	8dd 8b\	]
8r	.	.	.	.	.	8dd/J)	.	8gg\J	]	8r	8rcyy	8D\J	.	8g/J	8g/J	.	.	8g\J)	.
*	*	*	*	*	*	*	*	*	*	*	*v	*v	*	*	*	*	*	*	*
=163	=163	=163	=163	=163	=163	=163	=163	=163	=163	=163	=163	=163	=163	=163	=163	=163	=163	=163
[4.G^\	.	[4.B [4.D^\	.	(8b\L	.	(8dd/L	.	([4.bb^\	.	4GG 4GGG/	(8dL 8B\	.	([4.b^\	([4.bb^\	.	2.G 2.GG/	([4.bb [4.b^\	.
.	.	.	.	8d\)	.	8g/	.	.	.	.	8G\)	.	.	.	.	.	.	.
.	.	.	.	8b\J	.	8d/J)	.	.	.	8r	8D\J	.	.	.	.	.	.	.
4.G^\_	.	4.B_ 4.D^\_	.	(8b\L	.	(8dd/L	.	8bb\L]	.	4GG 4GGG/	(8dL 8B\	.	8b\L]	8bb\L]	.	.	8bb]L 8b\]	.
.	.	.	.	8d\)	.	8g/	.	8aa\)	.	.	8G\)	.	8a\)	8aa\)	.	.	8aa 8a\)	.
.	.	.	.	8b\J	.	8d/J)	.	8dd`\J	.	8r	8D\J	.	8dd\J	8ddd\J	.	.	8dd\J	.
=164	=164	=164	=164	=164	=164	=164	=164	=164	=164	=164	=164	=164	=164	=164	=164	=164	=164	=164
4.G^\_	.	4.B_ 4.D^\_	.	(8b\L	.	(8b/L	.	([4.gg^\	.	4GG 4GGG/	(8dL 8B\	.	([4.gg [4.g^\	([4.ggg^\	.	2.B 2.D\	([4.gg [4.g\	.
.	.	.	.	8d\)	.	8g/	.	.	.	.	8G\)	.	.	.	.	.	.	.
.	.	.	.	8b\J	.	8d/J)	.	.	.	8r	8D\J	.	.	.	.	.	.	.
4.G^\_	.	4.B_ 4.D^\_	.	(8b\L	.	(8b/L	.	8gg\L]	.	4GG 4GGG/	(8dL 8B\	.	8gg]L 8g/]	8ggg\L])	.	.	8gg]L 8g\]	.
.	.	.	.	8d\)	.	8g/	.	8ff#\)	.	.	8G\)	.	8ff# 8f#/)	8fff#\	.	.	8ff# 8f#\)	.
.	.	.	.	8b\J	.	8d/J)	.	8b\J	.	8r	8D\J	.	8b/J	8bb\J	.	.	8b\J	.
=165	=165	=165	=165	=165	=165	=165	=165	=165	=165	=165	=165	=165	=165	=165	=165	=165	=165	=165
4.G^\_	.	4.B] 4.D^\]	.	4d^\	.	(8g^\L	.	(8ee^\L	.	[4.GG [4.GGG/	4d 4B 4G^\	.	(8ee\L	(8eee\L	.	2.r	(8ee\L	.
.	.	.	.	.	.	8dd\)	.	8dd\)	.	.	.	.	8dd\)	8ddd\)	.	.	8dd\J)	.
.	.	.	.	(8B\	.	(8b\J	.	(8b\J	.	.	(8B\	.	(8b\J	(8bb\J	.	.	8r	.
8G\]	.	8G'\L	.	8G'/L)	.	8g'/L)	.	8g'/L)	.	8GG] 8GGG/]	8G\L)	.	8g/L)	8gg\L)	.	.	4r	.
8r	.	8D'\	.	8D'/	.	8d'/	.	8d'/	.	8r	8D\	.	8d'/	8dd'\	.	.	.	.
8r	.	8BB'\J	.	8B'/J	.	8B'/J	.	8B'/J	.	8r	8BB\J	.	8B'/J	8b'\J	.	.	8r	.
=166	=166	=166	=166	=166	=166	=166	=166	=166	=166	=166	=166	=166	=166	=166	=166	=166	=166	=166
4r	.	4GG/	.	4G/	.	4G/	.	4G/	.	4r	4GG/	.	4G/	4g/	.	4r	4r	.
8r	.	8r	.	8r	.	8r	.	8r	.	8r	8r	.	8r	8r	.	8r	8r	.
*	*	*	*	*	*	*	*	*	*	*	*	*	*	*8va	*	*	*	*
4r	.	4G 4GG/	pp	4B 4D/	pp	4G/	pp	4B/	pp	8DD/	8d 8A 8D\	sf	8dd 8cc 8a 8f#/	8ddd 8ccc 8aa 8ff#/	sf	8D 8DD^^/	8dd 8cc 8a 8f#^^/	sf
.	.	.	.	.	.	.	.	.	.	8r	8r	.	8r	8r	.	8r	8r	.
8r	.	8r	.	8r	.	8r	.	8r	.	8r	8r	.	8r	8r	.	8r	8r	.
=167	=167	=167	=167	=167	=167	=167	=167	=167	=167	=167	=167	=167	=167	=167	=167	=167	=167	=167
2.GG;/	pp	2.G 2.GG;\	.	2.B 2.D;\	.	2.d 2.G;/	.	2.g 2.B;/	.	8GG 8GGG/	8d 8B 8G 8D\	sf	8gg 8dd 8b 8g\	8bbb 8ggg 8ddd 8bb\	sf	8G 8D 8GG^^/	8bb 8gg 8dd 8b^^\	sf
.	.	.	.	.	.	.	.	.	.	8r	8r	.	8r	8r	.	8r	8r	.
.	.	.	.	.	.	.	.	.	.	8r	8r	.	8r	8r	.	8r	8r	.
*	*	*	*	*	*	*	*	*	*	*	*	*	*	*X8va	*	*	*	*
.	.	.	.	.	.	.	.	.	.	4r	4r	.	4r	4r	.	4r	4r	.
.	.	.	.	.	.	.	.	.	.	8r	8r	.	8r	8r	.	8r	8r	.
==	==	==	==	==	==	==	==	==	==	==	==	==	==	==	==	==	==	==
*-	*-	*-	*-	*-	*-	*-	*-	*-	*-	*-	*-	*-	*-	*-	*-	*-	*-	*-
!!title: @{OTL};
!!!RDF**kern: > = above
!!!RDF**kern: < = below
!!!RDF**kern: @ = marked note, color=blue
!!!RDF**dynam: > = "dim", fontstyle= "bold-italic"
!!!RDF**dynam: < = "cresc", fontstyle= "bold-italic"
!!!RDF**kern: | = vertical stroke
!!!RDF**kern: N = linked
!!!RDF**kern: i = editorial accidental
!!!AIN: 1 bass 1 cello 2 empty 1 physh 1 viola 2 violn
!!!ENC: Mateusz Solarz
!!!END: 2021-08-09
!!!EED: Wojciech Jakubiak-Danek
!!!EST: 2021-10-15
!!!URL-scan: http://repozytorium.nifc.pl/skany/pl-wtm-nut--r1740m
!!!ONB-nifc: UWAGA: w zbiorze 2 aranżacje Sonetów. Pliki nr 001-001-010 w obsadzie vl (2), vla, vlc, cb, physharmonica, pf 4hands i pliki 002-001-009 na instrumenty dęte od skanu 0088.
